%
(1001)
(SpannZangen_2_1)
(T0 D=6 CR=0 - ZMIN=-19 - flat end mill)
N10 G90 G94
N15 G17
N20 G21

(2D Contour1)
N25 M9
N30 T0 M6
N35 S24000 M3
N40 G54
N45 M9
N55 G0 X161.901 Y174.8
N60 G43 Z15 H0
N65 Z5
N70 G1 Z4 F6000
N75 Z3.1
N80 Y174.793 Z3.006
N85 Y174.771 Z2.915
N90 Y174.735 Z2.828
N95 Y174.685 Z2.747
N100 Y174.624 Z2.676
N105 Y174.553 Z2.615
N110 Y174.472 Z2.565
N115 Y174.385 Z2.529
N120 Y174.294 Z2.507
N125 Y174.2 Z2.5
N130 Y173.6
N135 X161.908 Y173.506
N140 X161.93 Y173.415
N145 X161.966 Y173.328
N150 X162.015 Y173.247
N155 X162.076 Y173.176
N160 X162.148 Y173.115
N165 X162.228 Y173.065
N170 X162.315 Y173.029
N175 X162.407 Y173.007
N180 X162.501 Y173
N185 X320 Z-3
N190 X620
N195 X620.214 Y172.992
N200 X620.427 Y172.969
N205 X620.638 Y172.931
N210 X620.845 Y172.878
N215 X621.048 Y172.811
N220 X621.246 Y172.729
N225 X621.438 Y172.633
N230 X621.622 Y172.524
N235 X621.798 Y172.402
N240 X621.965 Y172.267
N245 X622.121 Y172.121
N250 X622.267 Y171.965
N255 X622.402 Y171.798
N260 X622.524 Y171.622
N265 X622.633 Y171.438
N270 X622.729 Y171.246
N275 X622.811 Y171.048
N280 X622.878 Y170.845
N285 X622.931 Y170.638
N290 X622.969 Y170.427
N295 X622.992 Y170.214
N300 X623 Y170
N305 Y20
N310 X622.992 Y19.786
N315 X622.969 Y19.573
N320 X622.931 Y19.362
N325 X622.878 Y19.155
N330 X622.811 Y18.952
N335 X622.729 Y18.754
N340 X622.633 Y18.562
N345 X622.524 Y18.378
N350 X622.402 Y18.202
N355 X622.267 Y18.035
N360 X622.121 Y17.879
N365 X621.965 Y17.733
N370 X621.798 Y17.598
N375 X621.622 Y17.476
N380 X621.438 Y17.367
N385 X621.246 Y17.271
N390 X621.048 Y17.189
N395 X620.845 Y17.122
N400 X620.638 Y17.069
N405 X620.427 Y17.031
N410 X620.214 Y17.008
N415 X620 Y17
N420 X20
N425 X19.786 Y17.008
N430 X19.573 Y17.031
N435 X19.362 Y17.069
N440 X19.155 Y17.122
N445 X18.952 Y17.189
N450 X18.754 Y17.271
N455 X18.562 Y17.367
N460 X18.378 Y17.476
N465 X18.202 Y17.598
N470 X18.035 Y17.733
N475 X17.879 Y17.879
N480 X17.733 Y18.035
N485 X17.598 Y18.202
N490 X17.476 Y18.378
N495 X17.367 Y18.562
N500 X17.271 Y18.754
N505 X17.189 Y18.952
N510 X17.122 Y19.155
N515 X17.069 Y19.362
N520 X17.031 Y19.573
N525 X17.008 Y19.786
N530 X17 Y20
N535 Y170
N540 X17.008 Y170.214
N545 X17.031 Y170.427
N550 X17.069 Y170.638
N555 X17.122 Y170.845
N560 X17.189 Y171.048
N565 X17.271 Y171.246
N570 X17.367 Y171.438
N575 X17.476 Y171.622
N580 X17.598 Y171.798
N585 X17.733 Y171.965
N590 X17.879 Y172.121
N595 X18.035 Y172.267
N600 X18.202 Y172.402
N605 X18.378 Y172.524
N610 X18.562 Y172.633
N615 X18.754 Y172.729
N620 X18.952 Y172.811
N625 X19.155 Y172.878
N630 X19.362 Y172.931
N635 X19.573 Y172.969
N640 X19.786 Y172.992
N645 X20 Y173
N650 X320
N655 X471.885 Z-6
N660 X620
N665 X620.214 Y172.992
N670 X620.427 Y172.969
N675 X620.638 Y172.931
N680 X620.845 Y172.878
N685 X621.048 Y172.811
N690 X621.246 Y172.729
N695 X621.438 Y172.633
N700 X621.622 Y172.524
N705 X621.798 Y172.402
N710 X621.965 Y172.267
N715 X622.121 Y172.121
N720 X622.267 Y171.965
N725 X622.402 Y171.798
N730 X622.524 Y171.622
N735 X622.633 Y171.438
N740 X622.729 Y171.246
N745 X622.811 Y171.048
N750 X622.878 Y170.845
N755 X622.931 Y170.638
N760 X622.969 Y170.427
N765 X622.992 Y170.214
N770 X623 Y170
N775 Y20
N780 X622.992 Y19.786
N785 X622.969 Y19.573
N790 X622.931 Y19.362
N795 X622.878 Y19.155
N800 X622.811 Y18.952
N805 X622.729 Y18.754
N810 X622.633 Y18.562
N815 X622.524 Y18.378
N820 X622.402 Y18.202
N825 X622.267 Y18.035
N830 X622.121 Y17.879
N835 X621.965 Y17.733
N840 X621.798 Y17.598
N845 X621.622 Y17.476
N850 X621.438 Y17.367
N855 X621.246 Y17.271
N860 X621.048 Y17.189
N865 X620.845 Y17.122
N870 X620.638 Y17.069
N875 X620.427 Y17.031
N880 X620.214 Y17.008
N885 X620 Y17
N890 X20
N895 X19.786 Y17.008
N900 X19.573 Y17.031
N905 X19.362 Y17.069
N910 X19.155 Y17.122
N915 X18.952 Y17.189
N920 X18.754 Y17.271
N925 X18.562 Y17.367
N930 X18.378 Y17.476
N935 X18.202 Y17.598
N940 X18.035 Y17.733
N945 X17.879 Y17.879
N950 X17.733 Y18.035
N955 X17.598 Y18.202
N960 X17.476 Y18.378
N965 X17.367 Y18.562
N970 X17.271 Y18.754
N975 X17.189 Y18.952
N980 X17.122 Y19.155
N985 X17.069 Y19.362
N990 X17.031 Y19.573
N995 X17.008 Y19.786
N1000 X17 Y20
N1005 Y170
N1010 X17.008 Y170.214
N1015 X17.031 Y170.427
N1020 X17.069 Y170.638
N1025 X17.122 Y170.845
N1030 X17.189 Y171.048
N1035 X17.271 Y171.246
N1040 X17.367 Y171.438
N1045 X17.476 Y171.622
N1050 X17.598 Y171.798
N1055 X17.733 Y171.965
N1060 X17.879 Y172.121
N1065 X18.035 Y172.267
N1070 X18.202 Y172.402
N1075 X18.378 Y172.524
N1080 X18.562 Y172.633
N1085 X18.754 Y172.729
N1090 X18.952 Y172.811
N1095 X19.155 Y172.878
N1100 X19.362 Y172.931
N1105 X19.573 Y172.969
N1110 X19.786 Y172.992
N1115 X20 Y173
N1120 X320
N1125 X471.885
N1130 X620 Z-8.926
N1135 X620.209 Y172.993 Z-8.93
N1140 X620.418 Y172.971 Z-8.934
N1145 X620.624 Y172.934 Z-8.938
N1150 X620.827 Y172.884 Z-8.942
N1155 X621.026 Y172.819 Z-8.946
N1160 X621.22 Y172.741 Z-8.95
N1165 X621.408 Y172.649 Z-8.954
N1170 X621.59 Y172.544 Z-8.959
N1175 X621.763 Y172.427 Z-8.963
N1180 X621.928 Y172.298 Z-8.967
N1185 X622.084 Y172.158 Z-8.971
N1190 X622.229 Y172.007 Z-8.975
N1195 X622.364 Y171.847 Z-8.979
N1200 X622.487 Y171.678 Z-8.983
N1205 X622.598 Y171.5 Z-8.988
N1210 X622.696 Y171.315 Z-8.992
N1215 X622.782 Y171.124 Z-8.996
N1220 X622.853 Y170.927 Z-9
N1225 X622.906 Y170.746
N1230 X622.947 Y170.562
N1235 X622.976 Y170.376
N1240 X622.994 Y170.188
N1245 X623 Y170
N1250 Y20
N1255 X622.992 Y19.786
N1260 X622.969 Y19.573
N1265 X622.931 Y19.362
N1270 X622.878 Y19.155
N1275 X622.811 Y18.952
N1280 X622.729 Y18.754
N1285 X622.633 Y18.562
N1290 X622.524 Y18.378
N1295 X622.402 Y18.202
N1300 X622.267 Y18.035
N1305 X622.121 Y17.879
N1310 X621.965 Y17.733
N1315 X621.798 Y17.598
N1320 X621.622 Y17.476
N1325 X621.438 Y17.367
N1330 X621.246 Y17.271
N1335 X621.048 Y17.189
N1340 X620.845 Y17.122
N1345 X620.638 Y17.069
N1350 X620.427 Y17.031
N1355 X620.214 Y17.008
N1360 X620 Y17
N1365 X20
N1370 X19.786 Y17.008
N1375 X19.573 Y17.031
N1380 X19.362 Y17.069
N1385 X19.155 Y17.122
N1390 X18.952 Y17.189
N1395 X18.754 Y17.271
N1400 X18.562 Y17.367
N1405 X18.378 Y17.476
N1410 X18.202 Y17.598
N1415 X18.035 Y17.733
N1420 X17.879 Y17.879
N1425 X17.733 Y18.035
N1430 X17.598 Y18.202
N1435 X17.476 Y18.378
N1440 X17.367 Y18.562
N1445 X17.271 Y18.754
N1450 X17.189 Y18.952
N1455 X17.122 Y19.155
N1460 X17.069 Y19.362
N1465 X17.031 Y19.573
N1470 X17.008 Y19.786
N1475 X17 Y20
N1480 Y170
N1485 X17.008 Y170.214
N1490 X17.031 Y170.427
N1495 X17.069 Y170.638
N1500 X17.122 Y170.845
N1505 X17.189 Y171.048
N1510 X17.271 Y171.246
N1515 X17.367 Y171.438
N1520 X17.476 Y171.622
N1525 X17.598 Y171.798
N1530 X17.733 Y171.965
N1535 X17.879 Y172.121
N1540 X18.035 Y172.267
N1545 X18.202 Y172.402
N1550 X18.378 Y172.524
N1555 X18.562 Y172.633
N1560 X18.754 Y172.729
N1565 X18.952 Y172.811
N1570 X19.155 Y172.878
N1575 X19.362 Y172.931
N1580 X19.573 Y172.969
N1585 X19.786 Y172.992
N1590 X20 Y173
N1595 X471.885
N1600 X620
N1605 X620.209 Y172.993
N1610 X620.418 Y172.971
N1615 X620.624 Y172.934
N1620 X620.827 Y172.884
N1625 X621.026 Y172.819
N1630 X621.22 Y172.741
N1635 X621.408 Y172.649
N1640 X621.59 Y172.544
N1645 X621.763 Y172.427
N1650 X621.928 Y172.298
N1655 X622.084 Y172.158
N1660 X622.229 Y172.007
N1665 X622.364 Y171.847
N1670 X622.487 Y171.678
N1675 X622.598 Y171.5
N1680 X622.696 Y171.315
N1685 X622.782 Y171.124
N1690 X622.853 Y170.927
N1695 X622.906 Y170.746 Z-9.004
N1700 X622.947 Y170.562 Z-9.007
N1705 X622.976 Y170.376 Z-9.011
N1710 X622.994 Y170.188 Z-9.015
N1715 X623 Y170 Z-9.019
N1720 Y20 Z-11.981
N1725 X622.994 Y19.812 Z-11.985
N1730 X622.976 Y19.624 Z-11.989
N1735 X622.947 Y19.438 Z-11.993
N1740 X622.906 Y19.254 Z-11.996
N1745 X622.853 Y19.073 Z-12
N1750 X622.782 Y18.876
N1755 X622.696 Y18.685
N1760 X622.598 Y18.5
N1765 X622.487 Y18.322
N1770 X622.364 Y18.153
N1775 X622.229 Y17.993
N1780 X622.084 Y17.842
N1785 X621.928 Y17.702
N1790 X621.763 Y17.573
N1795 X621.59 Y17.456
N1800 X621.408 Y17.351
N1805 X621.22 Y17.259
N1810 X621.026 Y17.181
N1815 X620.827 Y17.116
N1820 X620.624 Y17.066
N1825 X620.418 Y17.029
N1830 X620.209 Y17.007
N1835 X620 Y17
N1840 X20
N1845 X19.786 Y17.008
N1850 X19.573 Y17.031
N1855 X19.362 Y17.069
N1860 X19.155 Y17.122
N1865 X18.952 Y17.189
N1870 X18.754 Y17.271
N1875 X18.562 Y17.367
N1880 X18.378 Y17.476
N1885 X18.202 Y17.598
N1890 X18.035 Y17.733
N1895 X17.879 Y17.879
N1900 X17.733 Y18.035
N1905 X17.598 Y18.202
N1910 X17.476 Y18.378
N1915 X17.367 Y18.562
N1920 X17.271 Y18.754
N1925 X17.189 Y18.952
N1930 X17.122 Y19.155
N1935 X17.069 Y19.362
N1940 X17.031 Y19.573
N1945 X17.008 Y19.786
N1950 X17 Y20
N1955 Y170
N1960 X17.008 Y170.214
N1965 X17.031 Y170.427
N1970 X17.069 Y170.638
N1975 X17.122 Y170.845
N1980 X17.189 Y171.048
N1985 X17.271 Y171.246
N1990 X17.367 Y171.438
N1995 X17.476 Y171.622
N2000 X17.598 Y171.798
N2005 X17.733 Y171.965
N2010 X17.879 Y172.121
N2015 X18.035 Y172.267
N2020 X18.202 Y172.402
N2025 X18.378 Y172.524
N2030 X18.562 Y172.633
N2035 X18.754 Y172.729
N2040 X18.952 Y172.811
N2045 X19.155 Y172.878
N2050 X19.362 Y172.931
N2055 X19.573 Y172.969
N2060 X19.786 Y172.992
N2065 X20 Y173
N2070 X620
N2075 X620.214 Y172.992
N2080 X620.427 Y172.969
N2085 X620.638 Y172.931
N2090 X620.845 Y172.878
N2095 X621.048 Y172.811
N2100 X621.246 Y172.729
N2105 X621.438 Y172.633
N2110 X621.622 Y172.524
N2115 X621.798 Y172.402
N2120 X621.965 Y172.267
N2125 X622.121 Y172.121
N2130 X622.267 Y171.965
N2135 X622.402 Y171.798
N2140 X622.524 Y171.622
N2145 X622.633 Y171.438
N2150 X622.729 Y171.246
N2155 X622.811 Y171.048
N2160 X622.878 Y170.845
N2165 X622.931 Y170.638
N2170 X622.969 Y170.427
N2175 X622.992 Y170.214
N2180 X623 Y170
N2185 Y20
N2190 X622.994 Y19.812
N2195 X622.976 Y19.624
N2200 X622.947 Y19.438
N2205 X622.906 Y19.254
N2210 X622.853 Y19.073
N2215 X622.782 Y18.876 Z-12.004
N2220 X622.696 Y18.685 Z-12.008
N2225 X622.598 Y18.5 Z-12.012
N2230 X622.487 Y18.322 Z-12.017
N2235 X622.364 Y18.153 Z-12.021
N2240 X622.229 Y17.993 Z-12.025
N2245 X622.084 Y17.842 Z-12.029
N2250 X621.928 Y17.702 Z-12.033
N2255 X621.763 Y17.573 Z-12.037
N2260 X621.59 Y17.456 Z-12.041
N2265 X621.408 Y17.351 Z-12.046
N2270 X621.22 Y17.259 Z-12.05
N2275 X621.026 Y17.181 Z-12.054
N2280 X620.827 Y17.116 Z-12.058
N2285 X620.624 Y17.066 Z-12.062
N2290 X620.418 Y17.029 Z-12.066
N2295 X620.209 Y17.007 Z-12.07
N2300 X620 Y17 Z-12.074
N2305 X471.885 Z-15
N2310 X20
N2315 X19.786 Y17.008
N2320 X19.573 Y17.031
N2325 X19.362 Y17.069
N2330 X19.155 Y17.122
N2335 X18.952 Y17.189
N2340 X18.754 Y17.271
N2345 X18.562 Y17.367
N2350 X18.378 Y17.476
N2355 X18.202 Y17.598
N2360 X18.035 Y17.733
N2365 X17.879 Y17.879
N2370 X17.733 Y18.035
N2375 X17.598 Y18.202
N2380 X17.476 Y18.378
N2385 X17.367 Y18.562
N2390 X17.271 Y18.754
N2395 X17.189 Y18.952
N2400 X17.122 Y19.155
N2405 X17.069 Y19.362
N2410 X17.031 Y19.573
N2415 X17.008 Y19.786
N2420 X17 Y20
N2425 Y170
N2430 X17.008 Y170.214
N2435 X17.031 Y170.427
N2440 X17.069 Y170.638
N2445 X17.122 Y170.845
N2450 X17.189 Y171.048
N2455 X17.271 Y171.246
N2460 X17.367 Y171.438
N2465 X17.476 Y171.622
N2470 X17.598 Y171.798
N2475 X17.733 Y171.965
N2480 X17.879 Y172.121
N2485 X18.035 Y172.267
N2490 X18.202 Y172.402
N2495 X18.378 Y172.524
N2500 X18.562 Y172.633
N2505 X18.754 Y172.729
N2510 X18.952 Y172.811
N2515 X19.155 Y172.878
N2520 X19.362 Y172.931
N2525 X19.573 Y172.969
N2530 X19.786 Y172.992
N2535 X20 Y173
N2540 X620
N2545 X620.214 Y172.992
N2550 X620.427 Y172.969
N2555 X620.638 Y172.931
N2560 X620.845 Y172.878
N2565 X621.048 Y172.811
N2570 X621.246 Y172.729
N2575 X621.438 Y172.633
N2580 X621.622 Y172.524
N2585 X621.798 Y172.402
N2590 X621.965 Y172.267
N2595 X622.121 Y172.121
N2600 X622.267 Y171.965
N2605 X622.402 Y171.798
N2610 X622.524 Y171.622
N2615 X622.633 Y171.438
N2620 X622.729 Y171.246
N2625 X622.811 Y171.048
N2630 X622.878 Y170.845
N2635 X622.931 Y170.638
N2640 X622.969 Y170.427
N2645 X622.992 Y170.214
N2650 X623 Y170
N2655 Y20
N2660 X622.992 Y19.786
N2665 X622.969 Y19.573
N2670 X622.931 Y19.362
N2675 X622.878 Y19.155
N2680 X622.811 Y18.952
N2685 X622.729 Y18.754
N2690 X622.633 Y18.562
N2695 X622.524 Y18.378
N2700 X622.402 Y18.202
N2705 X622.267 Y18.035
N2710 X622.121 Y17.879
N2715 X621.965 Y17.733
N2720 X621.798 Y17.598
N2725 X621.622 Y17.476
N2730 X621.438 Y17.367
N2735 X621.246 Y17.271
N2740 X621.048 Y17.189
N2745 X620.845 Y17.122
N2750 X620.638 Y17.069
N2755 X620.427 Y17.031
N2760 X620.214 Y17.008
N2765 X620 Y17
N2770 X471.885
N2775 X409.636 Z-16.23
N2780 X408.714 Z-15
N2785 X402.714
N2790 X401.674 Z-16.387
N2795 X325.173 Z-17.898
N2800 X323 Z-15
N2805 X320
N2810 X317
N2815 X314.75 Z-18
N2820 X239.536
N2825 X237.286 Z-15
N2830 X231.286
N2835 X229.036 Z-18
N2840 X153.821
N2845 X151.571 Z-15
N2850 X145.571
N2855 X143.321 Z-18
N2860 X68.107
N2865 X65.857 Z-15
N2870 X59.857
N2875 X57.607 Z-18
N2880 X20
N2885 X19.786 Y17.008
N2890 X19.573 Y17.031
N2895 X19.362 Y17.069
N2900 X19.155 Y17.122
N2905 X18.952 Y17.189
N2910 X18.754 Y17.271
N2915 X18.562 Y17.367
N2920 X18.378 Y17.476
N2925 X18.202 Y17.598
N2930 X18.035 Y17.733
N2935 X17.879 Y17.879
N2940 X17.733 Y18.035
N2945 X17.598 Y18.202
N2950 X17.476 Y18.378
N2955 X17.367 Y18.562
N2960 X17.271 Y18.754
N2965 X17.189 Y18.952
N2970 X17.122 Y19.155
N2975 X17.069 Y19.362
N2980 X17.031 Y19.573
N2985 X17.008 Y19.786
N2990 X17 Y20
N2995 Y89.75
N3000 Y92 Z-15
N3005 Y98
N3010 Y100.25 Z-18
N3015 Y170
N3020 X17.008 Y170.214
N3025 X17.031 Y170.427
N3030 X17.069 Y170.638
N3035 X17.122 Y170.845
N3040 X17.189 Y171.048
N3045 X17.271 Y171.246
N3050 X17.367 Y171.438
N3055 X17.476 Y171.622
N3060 X17.598 Y171.798
N3065 X17.733 Y171.965
N3070 X17.879 Y172.121
N3075 X18.035 Y172.267
N3080 X18.202 Y172.402
N3085 X18.378 Y172.524
N3090 X18.562 Y172.633
N3095 X18.754 Y172.729
N3100 X18.952 Y172.811
N3105 X19.155 Y172.878
N3110 X19.362 Y172.931
N3115 X19.573 Y172.969
N3120 X19.786 Y172.992
N3125 X20 Y173
N3130 X57.607
N3135 X59.857 Z-15
N3140 X65.857
N3145 X68.107 Z-18
N3150 X143.321
N3155 X145.571 Z-15
N3160 X151.571
N3165 X153.821 Z-18
N3170 X229.036
N3175 X231.286 Z-15
N3180 X237.286
N3185 X239.536 Z-18
N3190 X314.75
N3195 X317 Z-15
N3200 X323
N3205 X325.25 Z-18
N3210 X400.464
N3215 X402.714 Z-15
N3220 X408.714
N3225 X410.964 Z-18
N3230 X486.179
N3235 X488.429 Z-15
N3240 X494.429
N3245 X496.679 Z-18
N3250 X571.893
N3255 X574.143 Z-15
N3260 X580.143
N3265 X582.393 Z-18
N3270 X620
N3275 X620.214 Y172.992
N3280 X620.427 Y172.969
N3285 X620.638 Y172.931
N3290 X620.845 Y172.878
N3295 X621.048 Y172.811
N3300 X621.246 Y172.729
N3305 X621.438 Y172.633
N3310 X621.622 Y172.524
N3315 X621.798 Y172.402
N3320 X621.965 Y172.267
N3325 X622.121 Y172.121
N3330 X622.267 Y171.965
N3335 X622.402 Y171.798
N3340 X622.524 Y171.622
N3345 X622.633 Y171.438
N3350 X622.729 Y171.246
N3355 X622.811 Y171.048
N3360 X622.878 Y170.845
N3365 X622.931 Y170.638
N3370 X622.969 Y170.427
N3375 X622.992 Y170.214
N3380 X623 Y170
N3385 Y100.25
N3390 Y98 Z-15
N3395 Y92
N3400 Y89.75 Z-18
N3405 Y20
N3410 X622.992 Y19.786
N3415 X622.969 Y19.573
N3420 X622.931 Y19.362
N3425 X622.878 Y19.155
N3430 X622.811 Y18.952
N3435 X622.729 Y18.754
N3440 X622.633 Y18.562
N3445 X622.524 Y18.378
N3450 X622.402 Y18.202
N3455 X622.267 Y18.035
N3460 X622.121 Y17.879
N3465 X621.965 Y17.733
N3470 X621.798 Y17.598
N3475 X621.622 Y17.476
N3480 X621.438 Y17.367
N3485 X621.246 Y17.271
N3490 X621.048 Y17.189
N3495 X620.845 Y17.122
N3500 X620.638 Y17.069
N3505 X620.427 Y17.031
N3510 X620.214 Y17.008
N3515 X620 Y17
N3520 X582.393
N3525 X580.143 Z-15
N3530 X574.143
N3535 X571.893 Z-18
N3540 X496.679
N3545 X494.429 Z-15
N3550 X488.429
N3555 X486.179 Z-18
N3560 X410.964
N3565 X408.714 Z-15
N3570 X402.714
N3575 X400.464 Z-18
N3580 X325.25
N3585 X323 Z-15
N3590 X320
N3595 X317
N3600 X314.671 Z-18.105
N3605 X269.372 Z-19
N3610 X240.286
N3615 X237.286 Z-15
N3620 X231.286
N3625 X228.286 Z-19
N3630 X154.571
N3635 X151.571 Z-15
N3640 X145.571
N3645 X142.571 Z-19
N3650 X68.857
N3655 X65.857 Z-15
N3660 X59.857
N3665 X56.857 Z-19
N3670 X20
N3675 X19.786 Y17.008
N3680 X19.573 Y17.031
N3685 X19.362 Y17.069
N3690 X19.155 Y17.122
N3695 X18.952 Y17.189
N3700 X18.754 Y17.271
N3705 X18.562 Y17.367
N3710 X18.378 Y17.476
N3715 X18.202 Y17.598
N3720 X18.035 Y17.733
N3725 X17.879 Y17.879
N3730 X17.733 Y18.035
N3735 X17.598 Y18.202
N3740 X17.476 Y18.378
N3745 X17.367 Y18.562
N3750 X17.271 Y18.754
N3755 X17.189 Y18.952
N3760 X17.122 Y19.155
N3765 X17.069 Y19.362
N3770 X17.031 Y19.573
N3775 X17.008 Y19.786
N3780 X17 Y20
N3785 Y89
N3790 Y92 Z-15
N3795 Y98
N3800 Y101 Z-19
N3805 Y170
N3810 X17.008 Y170.214
N3815 X17.031 Y170.427
N3820 X17.069 Y170.638
N3825 X17.122 Y170.845
N3830 X17.189 Y171.048
N3835 X17.271 Y171.246
N3840 X17.367 Y171.438
N3845 X17.476 Y171.622
N3850 X17.598 Y171.798
N3855 X17.733 Y171.965
N3860 X17.879 Y172.121
N3865 X18.035 Y172.267
N3870 X18.202 Y172.402
N3875 X18.378 Y172.524
N3880 X18.562 Y172.633
N3885 X18.754 Y172.729
N3890 X18.952 Y172.811
N3895 X19.155 Y172.878
N3900 X19.362 Y172.931
N3905 X19.573 Y172.969
N3910 X19.786 Y172.992
N3915 X20 Y173
N3920 X56.857
N3925 X59.857 Z-15
N3930 X65.857
N3935 X68.857 Z-19
N3940 X142.571
N3945 X145.571 Z-15
N3950 X151.571
N3955 X154.571 Z-19
N3960 X228.286
N3965 X231.286 Z-15
N3970 X237.286
N3975 X240.286 Z-19
N3980 X314
N3985 X317 Z-15
N3990 X323
N3995 X326 Z-19
N4000 X399.714
N4005 X402.714 Z-15
N4010 X408.714
N4015 X411.714 Z-19
N4020 X485.429
N4025 X488.429 Z-15
N4030 X494.429
N4035 X497.429 Z-19
N4040 X571.143
N4045 X574.143 Z-15
N4050 X580.143
N4055 X583.143 Z-19
N4060 X620
N4065 X620.214 Y172.992
N4070 X620.427 Y172.969
N4075 X620.638 Y172.931
N4080 X620.845 Y172.878
N4085 X621.048 Y172.811
N4090 X621.246 Y172.729
N4095 X621.438 Y172.633
N4100 X621.622 Y172.524
N4105 X621.798 Y172.402
N4110 X621.965 Y172.267
N4115 X622.121 Y172.121
N4120 X622.267 Y171.965
N4125 X622.402 Y171.798
N4130 X622.524 Y171.622
N4135 X622.633 Y171.438
N4140 X622.729 Y171.246
N4145 X622.811 Y171.048
N4150 X622.878 Y170.845
N4155 X622.931 Y170.638
N4160 X622.969 Y170.427
N4165 X622.992 Y170.214
N4170 X623 Y170
N4175 Y101
N4180 Y98 Z-15
N4185 Y92
N4190 Y89 Z-19
N4195 Y20
N4200 X622.992 Y19.786
N4205 X622.969 Y19.573
N4210 X622.931 Y19.362
N4215 X622.878 Y19.155
N4220 X622.811 Y18.952
N4225 X622.729 Y18.754
N4230 X622.633 Y18.562
N4235 X622.524 Y18.378
N4240 X622.402 Y18.202
N4245 X622.267 Y18.035
N4250 X622.121 Y17.879
N4255 X621.965 Y17.733
N4260 X621.798 Y17.598
N4265 X621.622 Y17.476
N4270 X621.438 Y17.367
N4275 X621.246 Y17.271
N4280 X621.048 Y17.189
N4285 X620.845 Y17.122
N4290 X620.638 Y17.069
N4295 X620.427 Y17.031
N4300 X620.214 Y17.008
N4305 X620 Y17
N4310 X583.143
N4315 X580.143 Z-15
N4320 X574.143
N4325 X571.143 Z-19
N4330 X497.429
N4335 X494.429 Z-15
N4340 X488.429
N4345 X485.429 Z-19
N4350 X411.714
N4355 X408.714 Z-15
N4360 X402.714
N4365 X399.714 Z-19
N4370 X326
N4375 X323 Z-15
N4380 X317
N4385 X314 Z-19
N4390 X269.372
N4395 G0 Z15

(2D Contour2)
N4405 M9
N4410 X676.469 Y94.834
N4415 Z15
N4420 Z5
N4425 G1 Z4 F6000
N4430 Z3.1
N4435 X676.463 Y94.828 Z3.006
N4440 X676.448 Y94.813 Z2.915
N4445 X676.422 Y94.787 Z2.828
N4450 X676.388 Y94.753 Z2.747
N4455 X676.344 Y94.709 Z2.676
N4460 X676.294 Y94.659 Z2.615
N4465 X676.237 Y94.602 Z2.565
N4470 X676.175 Y94.541 Z2.529
N4475 X676.111 Y94.476 Z2.507
N4480 X676.044 Y94.409 Z2.5
N4485 X675.62 Y93.985
N4490 X675.559 Y93.914
N4495 X675.51 Y93.833
N4500 X675.474 Y93.746
N4505 X675.452 Y93.655
N4510 X675.444 Y93.561
N4515 X675.452 Y93.467
N4520 X675.474 Y93.375
N4525 X675.51 Y93.288
N4530 X675.559 Y93.208
N4535 X675.62 Y93.137
N4540 X746.635 Y22.121 Z-1.007
N4545 X746.781 Y21.965 Z-1.015
N4550 X746.916 Y21.798 Z-1.022
N4555 X747.038 Y21.622 Z-1.03
N4560 X747.147 Y21.438 Z-1.037
N4565 X747.243 Y21.246 Z-1.045
N4570 X747.325 Y21.048 Z-1.052
N4575 X747.392 Y20.845 Z-1.059
N4580 X747.445 Y20.638 Z-1.067
N4585 X747.483 Y20.427 Z-1.074
N4590 X747.506 Y20.214 Z-1.082
N4595 X747.514 Y20 Z-1.089
N4600 X747.506 Y19.786 Z-1.097
N4605 X747.483 Y19.573 Z-1.104
N4610 X747.445 Y19.362 Z-1.112
N4615 X747.392 Y19.155 Z-1.119
N4620 X747.325 Y18.952 Z-1.127
N4625 X747.243 Y18.754 Z-1.134
N4630 X747.147 Y18.562 Z-1.142
N4635 X747.038 Y18.378 Z-1.149
N4640 X746.916 Y18.202 Z-1.157
N4645 X746.781 Y18.035 Z-1.164
N4650 X746.635 Y17.879 Z-1.172
N4655 X746.479 Y17.733 Z-1.179
N4660 X746.312 Y17.598 Z-1.187
N4665 X746.136 Y17.476 Z-1.194
N4670 X745.952 Y17.367 Z-1.202
N4675 X745.76 Y17.271 Z-1.209
N4680 X745.562 Y17.189 Z-1.217
N4685 X745.359 Y17.122 Z-1.224
N4690 X745.152 Y17.069 Z-1.232
N4695 X744.941 Y17.031 Z-1.239
N4700 X744.728 Y17.008 Z-1.246
N4705 X744.514 Y17 Z-1.254
N4710 X694.514 Z-3
N4715 X644.514
N4720 X644.3 Y17.008
N4725 X644.087 Y17.031
N4730 X643.876 Y17.069
N4735 X643.669 Y17.122
N4740 X643.466 Y17.189
N4745 X643.268 Y17.271
N4750 X643.076 Y17.367
N4755 X642.892 Y17.476
N4760 X642.716 Y17.598
N4765 X642.549 Y17.733
N4770 X642.393 Y17.879
N4775 X642.247 Y18.035
N4780 X642.112 Y18.202
N4785 X641.99 Y18.378
N4790 X641.881 Y18.562
N4795 X641.785 Y18.754
N4800 X641.703 Y18.952
N4805 X641.635 Y19.155
N4810 X641.583 Y19.362
N4815 X641.545 Y19.573
N4820 X641.522 Y19.786
N4825 X641.514 Y20
N4830 Y120
N4835 X641.522 Y120.214
N4840 X641.545 Y120.427
N4845 X641.583 Y120.638
N4850 X641.635 Y120.845
N4855 X641.703 Y121.048
N4860 X641.785 Y121.246
N4865 X641.881 Y121.438
N4870 X641.99 Y121.622
N4875 X642.112 Y121.798
N4880 X642.247 Y121.965
N4885 X642.393 Y122.121
N4890 X642.549 Y122.267
N4895 X642.716 Y122.402
N4900 X642.892 Y122.524
N4905 X643.076 Y122.633
N4910 X643.268 Y122.729
N4915 X643.466 Y122.811
N4920 X643.669 Y122.878
N4925 X643.876 Y122.931
N4930 X644.087 Y122.969
N4935 X644.3 Y122.992
N4940 X644.514 Y123
N4945 X644.728 Y122.992
N4950 X644.941 Y122.969
N4955 X645.152 Y122.931
N4960 X645.359 Y122.878
N4965 X645.562 Y122.811
N4970 X645.76 Y122.729
N4975 X645.952 Y122.633
N4980 X646.136 Y122.524
N4985 X646.312 Y122.402
N4990 X646.479 Y122.267
N4995 X646.635 Y122.121
N5000 X746.635 Y22.121
N5005 X746.781 Y21.965
N5010 X746.916 Y21.798
N5015 X747.038 Y21.622
N5020 X747.147 Y21.438
N5025 X747.243 Y21.246
N5030 X747.325 Y21.048
N5035 X747.392 Y20.845
N5040 X747.445 Y20.638
N5045 X747.483 Y20.427
N5050 X747.506 Y20.214
N5055 X747.514 Y20
N5060 X747.506 Y19.786
N5065 X747.483 Y19.573
N5070 X747.445 Y19.362
N5075 X747.392 Y19.155
N5080 X747.325 Y18.952
N5085 X747.243 Y18.754
N5090 X747.147 Y18.562
N5095 X747.038 Y18.378
N5100 X746.916 Y18.202
N5105 X746.781 Y18.035
N5110 X746.635 Y17.879
N5115 X746.479 Y17.733
N5120 X746.312 Y17.598
N5125 X746.136 Y17.476
N5130 X745.952 Y17.367
N5135 X745.76 Y17.271
N5140 X745.562 Y17.189
N5145 X745.359 Y17.122
N5150 X745.152 Y17.069
N5155 X744.941 Y17.031
N5160 X744.728 Y17.008
N5165 X744.514 Y17
N5170 X694.514
N5175 X644.514 Z-4.746
N5180 X644.3 Y17.008 Z-4.754
N5185 X644.087 Y17.031 Z-4.761
N5190 X643.876 Y17.069 Z-4.768
N5195 X643.669 Y17.122 Z-4.776
N5200 X643.466 Y17.189 Z-4.783
N5205 X643.268 Y17.271 Z-4.791
N5210 X643.076 Y17.367 Z-4.798
N5215 X642.892 Y17.476 Z-4.806
N5220 X642.716 Y17.598 Z-4.813
N5225 X642.549 Y17.733 Z-4.821
N5230 X642.393 Y17.879 Z-4.828
N5235 X642.247 Y18.035 Z-4.836
N5240 X642.112 Y18.202 Z-4.843
N5245 X641.99 Y18.378 Z-4.851
N5250 X641.881 Y18.562 Z-4.858
N5255 X641.785 Y18.754 Z-4.866
N5260 X641.703 Y18.952 Z-4.873
N5265 X641.635 Y19.155 Z-4.881
N5270 X641.583 Y19.362 Z-4.888
N5275 X641.545 Y19.573 Z-4.896
N5280 X641.522 Y19.786 Z-4.903
N5285 X641.514 Y20 Z-4.911
N5290 Y51.196 Z-6
N5295 Y120
N5300 X641.522 Y120.214
N5305 X641.545 Y120.427
N5310 X641.583 Y120.638
N5315 X641.635 Y120.845
N5320 X641.703 Y121.048
N5325 X641.785 Y121.246
N5330 X641.881 Y121.438
N5335 X641.99 Y121.622
N5340 X642.112 Y121.798
N5345 X642.247 Y121.965
N5350 X642.393 Y122.121
N5355 X642.549 Y122.267
N5360 X642.716 Y122.402
N5365 X642.892 Y122.524
N5370 X643.076 Y122.633
N5375 X643.268 Y122.729
N5380 X643.466 Y122.811
N5385 X643.669 Y122.878
N5390 X643.876 Y122.931
N5395 X644.087 Y122.969
N5400 X644.3 Y122.992
N5405 X644.514 Y123
N5410 X644.728 Y122.992
N5415 X644.941 Y122.969
N5420 X645.152 Y122.931
N5425 X645.359 Y122.878
N5430 X645.562 Y122.811
N5435 X645.76 Y122.729
N5440 X645.952 Y122.633
N5445 X646.136 Y122.524
N5450 X646.312 Y122.402
N5455 X646.479 Y122.267
N5460 X646.635 Y122.121
N5465 X746.635 Y22.121
N5470 X746.781 Y21.965
N5475 X746.916 Y21.798
N5480 X747.038 Y21.622
N5485 X747.147 Y21.438
N5490 X747.243 Y21.246
N5495 X747.325 Y21.048
N5500 X747.392 Y20.845
N5505 X747.445 Y20.638
N5510 X747.483 Y20.427
N5515 X747.506 Y20.214
N5520 X747.514 Y20
N5525 X747.506 Y19.786
N5530 X747.483 Y19.573
N5535 X747.445 Y19.362
N5540 X747.392 Y19.155
N5545 X747.325 Y18.952
N5550 X747.243 Y18.754
N5555 X747.147 Y18.562
N5560 X747.038 Y18.378
N5565 X746.916 Y18.202
N5570 X746.781 Y18.035
N5575 X746.635 Y17.879
N5580 X746.479 Y17.733
N5585 X746.312 Y17.598
N5590 X746.136 Y17.476
N5595 X745.952 Y17.367
N5600 X745.76 Y17.271
N5605 X745.562 Y17.189
N5610 X745.359 Y17.122
N5615 X745.152 Y17.069
N5620 X744.941 Y17.031
N5625 X744.728 Y17.008
N5630 X744.514 Y17
N5635 X644.514
N5640 X644.3 Y17.008
N5645 X644.087 Y17.031
N5650 X643.876 Y17.069
N5655 X643.669 Y17.122
N5660 X643.466 Y17.189
N5665 X643.268 Y17.271
N5670 X643.076 Y17.367
N5675 X642.892 Y17.476
N5680 X642.716 Y17.598
N5685 X642.549 Y17.733
N5690 X642.393 Y17.879
N5695 X642.247 Y18.035
N5700 X642.112 Y18.202
N5705 X641.99 Y18.378
N5710 X641.881 Y18.562
N5715 X641.785 Y18.754
N5720 X641.703 Y18.952
N5725 X641.635 Y19.155
N5730 X641.583 Y19.362
N5735 X641.545 Y19.573
N5740 X641.522 Y19.786
N5745 X641.514 Y20
N5750 Y51.196
N5755 Y120 Z-8.403
N5760 X641.522 Y120.214 Z-8.41
N5765 X641.545 Y120.427 Z-8.418
N5770 X641.583 Y120.638 Z-8.425
N5775 X641.635 Y120.845 Z-8.433
N5780 X641.703 Y121.048 Z-8.44
N5785 X641.785 Y121.246 Z-8.448
N5790 X641.881 Y121.438 Z-8.455
N5795 X641.99 Y121.622 Z-8.463
N5800 X642.112 Y121.798 Z-8.47
N5805 X642.247 Y121.965 Z-8.477
N5810 X642.393 Y122.121 Z-8.485
N5815 X642.549 Y122.267 Z-8.492
N5820 X642.716 Y122.402 Z-8.5
N5825 X642.892 Y122.524 Z-8.507
N5830 X643.076 Y122.633 Z-8.515
N5835 X643.268 Y122.729 Z-8.522
N5840 X643.466 Y122.811 Z-8.53
N5845 X643.669 Y122.878 Z-8.537
N5850 X643.876 Y122.931 Z-8.545
N5855 X644.087 Y122.969 Z-8.552
N5860 X644.3 Y122.992 Z-8.56
N5865 X644.514 Y123 Z-8.567
N5870 X644.728 Y122.992 Z-8.575
N5875 X644.941 Y122.969 Z-8.582
N5880 X645.152 Y122.931 Z-8.59
N5885 X645.359 Y122.878 Z-8.597
N5890 X645.562 Y122.811 Z-8.605
N5895 X645.76 Y122.729 Z-8.612
N5900 X645.952 Y122.633 Z-8.62
N5905 X646.136 Y122.524 Z-8.627
N5910 X646.312 Y122.402 Z-8.635
N5915 X646.479 Y122.267 Z-8.642
N5920 X646.635 Y122.121 Z-8.65
N5925 X653.732 Y115.024 Z-9
N5930 X746.635 Y22.121
N5935 X746.781 Y21.965
N5940 X746.916 Y21.798
N5945 X747.038 Y21.622
N5950 X747.147 Y21.438
N5955 X747.243 Y21.246
N5960 X747.325 Y21.048
N5965 X747.392 Y20.845
N5970 X747.445 Y20.638
N5975 X747.483 Y20.427
N5980 X747.506 Y20.214
N5985 X747.514 Y20
N5990 X747.506 Y19.786
N5995 X747.483 Y19.573
N6000 X747.445 Y19.362
N6005 X747.392 Y19.155
N6010 X747.325 Y18.952
N6015 X747.243 Y18.754
N6020 X747.147 Y18.562
N6025 X747.038 Y18.378
N6030 X746.916 Y18.202
N6035 X746.781 Y18.035
N6040 X746.635 Y17.879
N6045 X746.479 Y17.733
N6050 X746.312 Y17.598
N6055 X746.136 Y17.476
N6060 X745.952 Y17.367
N6065 X745.76 Y17.271
N6070 X745.562 Y17.189
N6075 X745.359 Y17.122
N6080 X745.152 Y17.069
N6085 X744.941 Y17.031
N6090 X744.728 Y17.008
N6095 X744.514 Y17
N6100 X644.514
N6105 X644.3 Y17.008
N6110 X644.087 Y17.031
N6115 X643.876 Y17.069
N6120 X643.669 Y17.122
N6125 X643.466 Y17.189
N6130 X643.268 Y17.271
N6135 X643.076 Y17.367
N6140 X642.892 Y17.476
N6145 X642.716 Y17.598
N6150 X642.549 Y17.733
N6155 X642.393 Y17.879
N6160 X642.247 Y18.035
N6165 X642.112 Y18.202
N6170 X641.99 Y18.378
N6175 X641.881 Y18.562
N6180 X641.785 Y18.754
N6185 X641.703 Y18.952
N6190 X641.635 Y19.155
N6195 X641.583 Y19.362
N6200 X641.545 Y19.573
N6205 X641.522 Y19.786
N6210 X641.514 Y20
N6215 Y120
N6220 X641.522 Y120.214
N6225 X641.545 Y120.427
N6230 X641.583 Y120.638
N6235 X641.635 Y120.845
N6240 X641.703 Y121.048
N6245 X641.785 Y121.246
N6250 X641.881 Y121.438
N6255 X641.99 Y121.622
N6260 X642.112 Y121.798
N6265 X642.247 Y121.965
N6270 X642.393 Y122.121
N6275 X642.549 Y122.267
N6280 X642.716 Y122.402
N6285 X642.892 Y122.524
N6290 X643.076 Y122.633
N6295 X643.268 Y122.729
N6300 X643.466 Y122.811
N6305 X643.669 Y122.878
N6310 X643.876 Y122.931
N6315 X644.087 Y122.969
N6320 X644.3 Y122.992
N6325 X644.514 Y123
N6330 X644.728 Y122.992
N6335 X644.941 Y122.969
N6340 X645.152 Y122.931
N6345 X645.359 Y122.878
N6350 X645.562 Y122.811
N6355 X645.76 Y122.729
N6360 X645.952 Y122.633
N6365 X646.136 Y122.524
N6370 X646.312 Y122.402
N6375 X646.479 Y122.267
N6380 X646.635 Y122.121
N6385 X653.732 Y115.024
N6390 X714.479 Y54.278 Z-12
N6395 X746.635 Y22.121
N6400 X746.781 Y21.965
N6405 X746.916 Y21.798
N6410 X747.038 Y21.622
N6415 X747.147 Y21.438
N6420 X747.243 Y21.246
N6425 X747.325 Y21.048
N6430 X747.392 Y20.845
N6435 X747.445 Y20.638
N6440 X747.483 Y20.427
N6445 X747.506 Y20.214
N6450 X747.514 Y20
N6455 X747.506 Y19.786
N6460 X747.483 Y19.573
N6465 X747.445 Y19.362
N6470 X747.392 Y19.155
N6475 X747.325 Y18.952
N6480 X747.243 Y18.754
N6485 X747.147 Y18.562
N6490 X747.038 Y18.378
N6495 X746.916 Y18.202
N6500 X746.781 Y18.035
N6505 X746.635 Y17.879
N6510 X746.479 Y17.733
N6515 X746.312 Y17.598
N6520 X746.136 Y17.476
N6525 X745.952 Y17.367
N6530 X745.76 Y17.271
N6535 X745.562 Y17.189
N6540 X745.359 Y17.122
N6545 X745.152 Y17.069
N6550 X744.941 Y17.031
N6555 X744.728 Y17.008
N6560 X744.514 Y17
N6565 X644.514
N6570 X644.3 Y17.008
N6575 X644.087 Y17.031
N6580 X643.876 Y17.069
N6585 X643.669 Y17.122
N6590 X643.466 Y17.189
N6595 X643.268 Y17.271
N6600 X643.076 Y17.367
N6605 X642.892 Y17.476
N6610 X642.716 Y17.598
N6615 X642.549 Y17.733
N6620 X642.393 Y17.879
N6625 X642.247 Y18.035
N6630 X642.112 Y18.202
N6635 X641.99 Y18.378
N6640 X641.881 Y18.562
N6645 X641.785 Y18.754
N6650 X641.703 Y18.952
N6655 X641.635 Y19.155
N6660 X641.583 Y19.362
N6665 X641.545 Y19.573
N6670 X641.522 Y19.786
N6675 X641.514 Y20
N6680 Y120
N6685 X641.522 Y120.214
N6690 X641.545 Y120.427
N6695 X641.583 Y120.638
N6700 X641.635 Y120.845
N6705 X641.703 Y121.048
N6710 X641.785 Y121.246
N6715 X641.881 Y121.438
N6720 X641.99 Y121.622
N6725 X642.112 Y121.798
N6730 X642.247 Y121.965
N6735 X642.393 Y122.121
N6740 X642.549 Y122.267
N6745 X642.716 Y122.402
N6750 X642.892 Y122.524
N6755 X643.076 Y122.633
N6760 X643.268 Y122.729
N6765 X643.466 Y122.811
N6770 X643.669 Y122.878
N6775 X643.876 Y122.931
N6780 X644.087 Y122.969
N6785 X644.3 Y122.992
N6790 X644.514 Y123
N6795 X644.728 Y122.992
N6800 X644.941 Y122.969
N6805 X645.152 Y122.931
N6810 X645.359 Y122.878
N6815 X645.562 Y122.811
N6820 X645.76 Y122.729
N6825 X645.952 Y122.633
N6830 X646.136 Y122.524
N6835 X646.312 Y122.402
N6840 X646.479 Y122.267
N6845 X646.635 Y122.121
N6850 X714.479 Y54.278
N6855 X746.635 Y22.121 Z-13.588
N6860 X746.781 Y21.965 Z-13.596
N6865 X746.916 Y21.798 Z-13.603
N6870 X747.038 Y21.622 Z-13.61
N6875 X747.147 Y21.438 Z-13.618
N6880 X747.243 Y21.246 Z-13.625
N6885 X747.325 Y21.048 Z-13.633
N6890 X747.392 Y20.845 Z-13.64
N6895 X747.445 Y20.638 Z-13.648
N6900 X747.483 Y20.427 Z-13.655
N6905 X747.506 Y20.214 Z-13.663
N6910 X747.514 Y20 Z-13.67
N6915 X747.506 Y19.786 Z-13.678
N6920 X747.483 Y19.573 Z-13.685
N6925 X747.445 Y19.362 Z-13.693
N6930 X747.392 Y19.155 Z-13.7
N6935 X747.325 Y18.952 Z-13.708
N6940 X747.243 Y18.754 Z-13.715
N6945 X747.147 Y18.562 Z-13.723
N6950 X747.038 Y18.378 Z-13.73
N6955 X746.916 Y18.202 Z-13.738
N6960 X746.781 Y18.035 Z-13.745
N6965 X746.635 Y17.879 Z-13.753
N6970 X746.479 Y17.733 Z-13.76
N6975 X746.312 Y17.598 Z-13.768
N6980 X746.136 Y17.476 Z-13.775
N6985 X745.952 Y17.367 Z-13.783
N6990 X745.76 Y17.271 Z-13.79
N6995 X745.562 Y17.189 Z-13.797
N7000 X745.359 Y17.122 Z-13.805
N7005 X745.152 Y17.069 Z-13.812
N7010 X744.941 Y17.031 Z-13.82
N7015 X744.728 Y17.008 Z-13.827
N7020 X744.514 Y17 Z-13.835
N7025 X711.15 Z-15
N7030 X644.514
N7035 X644.3 Y17.008
N7040 X644.087 Y17.031
N7045 X643.876 Y17.069
N7050 X643.669 Y17.122
N7055 X643.466 Y17.189
N7060 X643.268 Y17.271
N7065 X643.076 Y17.367
N7070 X642.892 Y17.476
N7075 X642.716 Y17.598
N7080 X642.549 Y17.733
N7085 X642.393 Y17.879
N7090 X642.247 Y18.035
N7095 X642.112 Y18.202
N7100 X641.99 Y18.378
N7105 X641.881 Y18.562
N7110 X641.785 Y18.754
N7115 X641.703 Y18.952
N7120 X641.635 Y19.155
N7125 X641.583 Y19.362
N7130 X641.545 Y19.573
N7135 X641.522 Y19.786
N7140 X641.514 Y20
N7145 Y120
N7150 X641.522 Y120.214
N7155 X641.545 Y120.427
N7160 X641.583 Y120.638
N7165 X641.635 Y120.845
N7170 X641.703 Y121.048
N7175 X641.785 Y121.246
N7180 X641.881 Y121.438
N7185 X641.99 Y121.622
N7190 X642.112 Y121.798
N7195 X642.247 Y121.965
N7200 X642.393 Y122.121
N7205 X642.549 Y122.267
N7210 X642.716 Y122.402
N7215 X642.892 Y122.524
N7220 X643.076 Y122.633
N7225 X643.268 Y122.729
N7230 X643.466 Y122.811
N7235 X643.669 Y122.878
N7240 X643.876 Y122.931
N7245 X644.087 Y122.969
N7250 X644.3 Y122.992
N7255 X644.514 Y123
N7260 X644.728 Y122.992
N7265 X644.941 Y122.969
N7270 X645.152 Y122.931
N7275 X645.359 Y122.878
N7280 X645.562 Y122.811
N7285 X645.76 Y122.729
N7290 X645.952 Y122.633
N7295 X646.136 Y122.524
N7300 X646.312 Y122.402
N7305 X646.479 Y122.267
N7310 X646.635 Y122.121
N7315 X714.479 Y54.278
N7320 X746.635 Y22.121
N7325 X746.781 Y21.965
N7330 X746.916 Y21.798
N7335 X747.038 Y21.622
N7340 X747.147 Y21.438
N7345 X747.243 Y21.246
N7350 X747.325 Y21.048
N7355 X747.392 Y20.845
N7360 X747.445 Y20.638
N7365 X747.483 Y20.427
N7370 X747.506 Y20.214
N7375 X747.514 Y20
N7380 X747.506 Y19.786
N7385 X747.483 Y19.573
N7390 X747.445 Y19.362
N7395 X747.392 Y19.155
N7400 X747.325 Y18.952
N7405 X747.243 Y18.754
N7410 X747.147 Y18.562
N7415 X747.038 Y18.378
N7420 X746.916 Y18.202
N7425 X746.781 Y18.035
N7430 X746.635 Y17.879
N7435 X746.479 Y17.733
N7440 X746.312 Y17.598
N7445 X746.136 Y17.476
N7450 X745.952 Y17.367
N7455 X745.76 Y17.271
N7460 X745.562 Y17.189
N7465 X745.359 Y17.122
N7470 X745.152 Y17.069
N7475 X744.941 Y17.031
N7480 X744.728 Y17.008
N7485 X744.514 Y17
N7490 X711.15
N7495 X673.5 Z-16.315
N7500 X672.514 Z-15
N7505 X666.514
N7510 X665.314 Z-16.601
N7515 X644.514 Z-17.327
N7520 X644.3 Y17.008 Z-17.334
N7525 X644.087 Y17.031 Z-17.342
N7530 X643.876 Y17.069 Z-17.349
N7535 X643.669 Y17.122 Z-17.357
N7540 X643.466 Y17.189 Z-17.364
N7545 X643.268 Y17.271 Z-17.372
N7550 X643.076 Y17.367 Z-17.379
N7555 X642.892 Y17.476 Z-17.387
N7560 X642.716 Y17.598 Z-17.394
N7565 X642.549 Y17.733 Z-17.402
N7570 X642.393 Y17.879 Z-17.409
N7575 X642.247 Y18.035 Z-17.417
N7580 X642.112 Y18.202 Z-17.424
N7585 X641.99 Y18.378 Z-17.432
N7590 X641.881 Y18.562 Z-17.439
N7595 X641.785 Y18.754 Z-17.447
N7600 X641.703 Y18.952 Z-17.454
N7605 X641.635 Y19.155 Z-17.462
N7610 X641.583 Y19.362 Z-17.469
N7615 X641.545 Y19.573 Z-17.477
N7620 X641.522 Y19.786 Z-17.484
N7625 X641.514 Y20 Z-17.492
N7630 Y34.56 Z-18
N7635 Y39.75
N7640 Y42 Z-15
N7645 Y48
N7650 Y50.25 Z-18
N7655 Y89.75
N7660 Y92 Z-15
N7665 Y98
N7670 Y100.25 Z-18
N7675 Y120
N7680 X641.522 Y120.214
N7685 X641.545 Y120.427
N7690 X641.583 Y120.638
N7695 X641.635 Y120.845
N7700 X641.703 Y121.048
N7705 X641.785 Y121.246
N7710 X641.881 Y121.438
N7715 X641.99 Y121.622
N7720 X642.112 Y121.798
N7725 X642.247 Y121.965
N7730 X642.393 Y122.121
N7735 X642.549 Y122.267
N7740 X642.716 Y122.402
N7745 X642.892 Y122.524
N7750 X643.076 Y122.633
N7755 X643.268 Y122.729
N7760 X643.466 Y122.811
N7765 X643.669 Y122.878
N7770 X643.876 Y122.931
N7775 X644.087 Y122.969
N7780 X644.3 Y122.992
N7785 X644.514 Y123
N7790 X644.728 Y122.992
N7795 X644.941 Y122.969
N7800 X645.152 Y122.931
N7805 X645.359 Y122.878
N7810 X645.562 Y122.811
N7815 X645.76 Y122.729
N7820 X645.952 Y122.633
N7825 X646.136 Y122.524
N7830 X646.312 Y122.402
N7835 X646.479 Y122.267
N7840 X646.635 Y122.121
N7845 X667.923 Y100.834
N7850 X669.514 Y99.243 Z-15
N7855 X673.757 Y95
N7860 X675.348 Y93.409 Z-18
N7865 X717.923 Y50.834
N7870 X719.514 Y49.243 Z-15
N7875 X723.757 Y45
N7880 X725.348 Y43.409 Z-18
N7885 X746.635 Y22.121
N7890 X746.781 Y21.965
N7895 X746.916 Y21.798
N7900 X747.038 Y21.622
N7905 X747.147 Y21.438
N7910 X747.243 Y21.246
N7915 X747.325 Y21.048
N7920 X747.392 Y20.845
N7925 X747.445 Y20.638
N7930 X747.483 Y20.427
N7935 X747.506 Y20.214
N7940 X747.514 Y20
N7945 X747.506 Y19.786
N7950 X747.483 Y19.573
N7955 X747.445 Y19.362
N7960 X747.392 Y19.155
N7965 X747.325 Y18.952
N7970 X747.243 Y18.754
N7975 X747.147 Y18.562
N7980 X747.038 Y18.378
N7985 X746.916 Y18.202
N7990 X746.781 Y18.035
N7995 X746.635 Y17.879
N8000 X746.479 Y17.733
N8005 X746.312 Y17.598
N8010 X746.136 Y17.476
N8015 X745.952 Y17.367
N8020 X745.76 Y17.271
N8025 X745.562 Y17.189
N8030 X745.359 Y17.122
N8035 X745.152 Y17.069
N8040 X744.941 Y17.031
N8045 X744.728 Y17.008
N8050 X744.514 Y17
N8055 X724.764
N8060 X722.514 Z-15
N8065 X716.514
N8070 X714.264 Z-18
N8075 X674.764
N8080 X672.514 Z-15
N8085 X666.514
N8090 X664.264 Z-18
N8095 X644.514
N8100 X644.3 Y17.008
N8105 X644.087 Y17.031
N8110 X643.876 Y17.069
N8115 X643.669 Y17.122
N8120 X643.466 Y17.189
N8125 X643.268 Y17.271
N8130 X643.076 Y17.367
N8135 X642.892 Y17.476
N8140 X642.716 Y17.598
N8145 X642.549 Y17.733
N8150 X642.393 Y17.879
N8155 X642.247 Y18.035
N8160 X642.112 Y18.202
N8165 X641.99 Y18.378
N8170 X641.881 Y18.562
N8175 X641.785 Y18.754
N8180 X641.703 Y18.952
N8185 X641.635 Y19.155
N8190 X641.583 Y19.362
N8195 X641.545 Y19.573
N8200 X641.522 Y19.786
N8205 X641.514 Y20
N8210 Y34.56
N8215 Y39.618 Z-18.177
N8220 Y42 Z-15
N8225 Y48
N8230 Y50.672 Z-18.563
N8235 Y63.197 Z-19
N8240 Y89
N8245 Y92 Z-15
N8250 Y98
N8255 Y101 Z-19
N8260 Y120
N8265 X641.522 Y120.214
N8270 X641.545 Y120.427
N8275 X641.583 Y120.638
N8280 X641.635 Y120.845
N8285 X641.703 Y121.048
N8290 X641.785 Y121.246
N8295 X641.881 Y121.438
N8300 X641.99 Y121.622
N8305 X642.112 Y121.798
N8310 X642.247 Y121.965
N8315 X642.393 Y122.121
N8320 X642.549 Y122.267
N8325 X642.716 Y122.402
N8330 X642.892 Y122.524
N8335 X643.076 Y122.633
N8340 X643.268 Y122.729
N8345 X643.466 Y122.811
N8350 X643.669 Y122.878
N8355 X643.876 Y122.931
N8360 X644.087 Y122.969
N8365 X644.3 Y122.992
N8370 X644.514 Y123
N8375 X644.728 Y122.992
N8380 X644.941 Y122.969
N8385 X645.152 Y122.931
N8390 X645.359 Y122.878
N8395 X645.562 Y122.811
N8400 X645.76 Y122.729
N8405 X645.952 Y122.633
N8410 X646.136 Y122.524
N8415 X646.312 Y122.402
N8420 X646.479 Y122.267
N8425 X646.635 Y122.121
N8430 X667.393 Y101.364
N8435 X669.514 Y99.243 Z-15
N8440 X673.757 Y95
N8445 X675.878 Y92.879 Z-19
N8450 X717.393 Y51.364
N8455 X719.514 Y49.243 Z-15
N8460 X723.757 Y45
N8465 X725.878 Y42.879 Z-19
N8470 X746.635 Y22.121
N8475 X746.781 Y21.965
N8480 X746.916 Y21.798
N8485 X747.038 Y21.622
N8490 X747.147 Y21.438
N8495 X747.243 Y21.246
N8500 X747.325 Y21.048
N8505 X747.392 Y20.845
N8510 X747.445 Y20.638
N8515 X747.483 Y20.427
N8520 X747.506 Y20.214
N8525 X747.514 Y20
N8530 X747.506 Y19.786
N8535 X747.483 Y19.573
N8540 X747.445 Y19.362
N8545 X747.392 Y19.155
N8550 X747.325 Y18.952
N8555 X747.243 Y18.754
N8560 X747.147 Y18.562
N8565 X747.038 Y18.378
N8570 X746.916 Y18.202
N8575 X746.781 Y18.035
N8580 X746.635 Y17.879
N8585 X746.479 Y17.733
N8590 X746.312 Y17.598
N8595 X746.136 Y17.476
N8600 X745.952 Y17.367
N8605 X745.76 Y17.271
N8610 X745.562 Y17.189
N8615 X745.359 Y17.122
N8620 X745.152 Y17.069
N8625 X744.941 Y17.031
N8630 X744.728 Y17.008
N8635 X744.514 Y17
N8640 X725.514
N8645 X722.514 Z-15
N8650 X716.514
N8655 X713.514 Z-19
N8660 X675.514
N8665 X672.514 Z-15
N8670 X666.514
N8675 X663.514 Z-19
N8680 X644.514
N8685 X644.3 Y17.008
N8690 X644.087 Y17.031
N8695 X643.876 Y17.069
N8700 X643.669 Y17.122
N8705 X643.466 Y17.189
N8710 X643.268 Y17.271
N8715 X643.076 Y17.367
N8720 X642.892 Y17.476
N8725 X642.716 Y17.598
N8730 X642.549 Y17.733
N8735 X642.393 Y17.879
N8740 X642.247 Y18.035
N8745 X642.112 Y18.202
N8750 X641.99 Y18.378
N8755 X641.881 Y18.562
N8760 X641.785 Y18.754
N8765 X641.703 Y18.952
N8770 X641.635 Y19.155
N8775 X641.583 Y19.362
N8780 X641.545 Y19.573
N8785 X641.522 Y19.786
N8790 X641.514 Y20
N8795 Y39
N8800 Y42 Z-15
N8805 Y48
N8810 Y51 Z-19
N8815 Y63.197
N8820 G0 Z15

(2D Contour3)
N8830 M9
N8835 X713.037 Y95.166
N8840 Z15
N8845 Z5
N8850 G1 Z4 F6000
N8855 Z3.1
N8860 X713.043 Y95.172 Z3.006
N8865 X713.058 Y95.187 Z2.915
N8870 X713.084 Y95.213 Z2.828
N8875 X713.118 Y95.247 Z2.747
N8880 X713.162 Y95.291 Z2.676
N8885 X713.212 Y95.341 Z2.615
N8890 X713.269 Y95.398 Z2.565
N8895 X713.331 Y95.459 Z2.529
N8900 X713.395 Y95.524 Z2.507
N8905 X713.462 Y95.591 Z2.5
N8910 X713.886 Y96.015
N8915 X713.947 Y96.086
N8920 X713.996 Y96.167
N8925 X714.032 Y96.254
N8930 X714.054 Y96.345
N8935 X714.062 Y96.439
N8940 X714.054 Y96.533
N8945 X714.032 Y96.625
N8950 X713.996 Y96.712
N8955 X713.947 Y96.792
N8960 X713.886 Y96.863
N8965 X642.871 Y167.879 Z-1.007
N8970 X642.725 Y168.035 Z-1.015
N8975 X642.59 Y168.202 Z-1.022
N8980 X642.468 Y168.378 Z-1.03
N8985 X642.359 Y168.562 Z-1.037
N8990 X642.263 Y168.754 Z-1.045
N8995 X642.181 Y168.952 Z-1.052
N9000 X642.114 Y169.155 Z-1.059
N9005 X642.061 Y169.362 Z-1.067
N9010 X642.023 Y169.573 Z-1.074
N9015 X642 Y169.786 Z-1.082
N9020 X641.992 Y170 Z-1.089
N9025 X642 Y170.214 Z-1.097
N9030 X642.023 Y170.427 Z-1.104
N9035 X642.061 Y170.638 Z-1.112
N9040 X642.114 Y170.845 Z-1.119
N9045 X642.181 Y171.048 Z-1.127
N9050 X642.263 Y171.246 Z-1.134
N9055 X642.359 Y171.438 Z-1.142
N9060 X642.468 Y171.622 Z-1.149
N9065 X642.59 Y171.798 Z-1.157
N9070 X642.725 Y171.965 Z-1.164
N9075 X642.871 Y172.121 Z-1.172
N9080 X643.027 Y172.267 Z-1.179
N9085 X643.194 Y172.402 Z-1.187
N9090 X643.37 Y172.524 Z-1.194
N9095 X643.554 Y172.633 Z-1.202
N9100 X643.746 Y172.729 Z-1.209
N9105 X643.944 Y172.811 Z-1.217
N9110 X644.147 Y172.878 Z-1.224
N9115 X644.354 Y172.931 Z-1.232
N9120 X644.565 Y172.969 Z-1.239
N9125 X644.778 Y172.992 Z-1.246
N9130 X644.992 Y173 Z-1.254
N9135 X694.992 Z-3
N9140 X744.992
N9145 X745.206 Y172.992
N9150 X745.419 Y172.969
N9155 X745.63 Y172.931
N9160 X745.837 Y172.878
N9165 X746.04 Y172.811
N9170 X746.238 Y172.729
N9175 X746.43 Y172.633
N9180 X746.614 Y172.524
N9185 X746.79 Y172.402
N9190 X746.957 Y172.267
N9195 X747.113 Y172.121
N9200 X747.259 Y171.965
N9205 X747.394 Y171.798
N9210 X747.516 Y171.622
N9215 X747.625 Y171.438
N9220 X747.721 Y171.246
N9225 X747.803 Y171.048
N9230 X747.87 Y170.845
N9235 X747.923 Y170.638
N9240 X747.961 Y170.427
N9245 X747.984 Y170.214
N9250 X747.992 Y170
N9255 Y70
N9260 X747.984 Y69.786
N9265 X747.961 Y69.573
N9270 X747.923 Y69.362
N9275 X747.87 Y69.155
N9280 X747.803 Y68.952
N9285 X747.721 Y68.754
N9290 X747.625 Y68.562
N9295 X747.516 Y68.378
N9300 X747.394 Y68.202
N9305 X747.259 Y68.035
N9310 X747.113 Y67.879
N9315 X746.957 Y67.733
N9320 X746.79 Y67.598
N9325 X746.614 Y67.476
N9330 X746.43 Y67.367
N9335 X746.238 Y67.271
N9340 X746.04 Y67.189
N9345 X745.837 Y67.122
N9350 X745.63 Y67.069
N9355 X745.419 Y67.031
N9360 X745.206 Y67.008
N9365 X744.992 Y67
N9370 X744.778 Y67.008
N9375 X744.565 Y67.031
N9380 X744.354 Y67.069
N9385 X744.147 Y67.122
N9390 X743.944 Y67.189
N9395 X743.746 Y67.271
N9400 X743.554 Y67.367
N9405 X743.37 Y67.476
N9410 X743.194 Y67.598
N9415 X743.027 Y67.733
N9420 X742.871 Y67.879
N9425 X642.871 Y167.879
N9430 X642.725 Y168.035
N9435 X642.59 Y168.202
N9440 X642.468 Y168.378
N9445 X642.359 Y168.562
N9450 X642.263 Y168.754
N9455 X642.181 Y168.952
N9460 X642.114 Y169.155
N9465 X642.061 Y169.362
N9470 X642.023 Y169.573
N9475 X642 Y169.786
N9480 X641.992 Y170
N9485 X642 Y170.214
N9490 X642.023 Y170.427
N9495 X642.061 Y170.638
N9500 X642.114 Y170.845
N9505 X642.181 Y171.048
N9510 X642.263 Y171.246
N9515 X642.359 Y171.438
N9520 X642.468 Y171.622
N9525 X642.59 Y171.798
N9530 X642.725 Y171.965
N9535 X642.871 Y172.121
N9540 X643.027 Y172.267
N9545 X643.194 Y172.402
N9550 X643.37 Y172.524
N9555 X643.554 Y172.633
N9560 X643.746 Y172.729
N9565 X643.944 Y172.811
N9570 X644.147 Y172.878
N9575 X644.354 Y172.931
N9580 X644.565 Y172.969
N9585 X644.778 Y172.992
N9590 X644.992 Y173
N9595 X694.992
N9600 X744.992 Z-4.746
N9605 X745.206 Y172.992 Z-4.754
N9610 X745.419 Y172.969 Z-4.761
N9615 X745.63 Y172.931 Z-4.768
N9620 X745.837 Y172.878 Z-4.776
N9625 X746.04 Y172.811 Z-4.783
N9630 X746.238 Y172.729 Z-4.791
N9635 X746.43 Y172.633 Z-4.798
N9640 X746.614 Y172.524 Z-4.806
N9645 X746.79 Y172.402 Z-4.813
N9650 X746.957 Y172.267 Z-4.821
N9655 X747.113 Y172.121 Z-4.828
N9660 X747.259 Y171.965 Z-4.836
N9665 X747.394 Y171.798 Z-4.843
N9670 X747.516 Y171.622 Z-4.851
N9675 X747.625 Y171.438 Z-4.858
N9680 X747.721 Y171.246 Z-4.866
N9685 X747.803 Y171.048 Z-4.873
N9690 X747.87 Y170.845 Z-4.881
N9695 X747.923 Y170.638 Z-4.888
N9700 X747.961 Y170.427 Z-4.896
N9705 X747.984 Y170.214 Z-4.903
N9710 X747.992 Y170 Z-4.911
N9715 Y138.804 Z-6
N9720 Y70
N9725 X747.984 Y69.786
N9730 X747.961 Y69.573
N9735 X747.923 Y69.362
N9740 X747.87 Y69.155
N9745 X747.803 Y68.952
N9750 X747.721 Y68.754
N9755 X747.625 Y68.562
N9760 X747.516 Y68.378
N9765 X747.394 Y68.202
N9770 X747.259 Y68.035
N9775 X747.113 Y67.879
N9780 X746.957 Y67.733
N9785 X746.79 Y67.598
N9790 X746.614 Y67.476
N9795 X746.43 Y67.367
N9800 X746.238 Y67.271
N9805 X746.04 Y67.189
N9810 X745.837 Y67.122
N9815 X745.63 Y67.069
N9820 X745.419 Y67.031
N9825 X745.206 Y67.008
N9830 X744.992 Y67
N9835 X744.778 Y67.008
N9840 X744.565 Y67.031
N9845 X744.354 Y67.069
N9850 X744.147 Y67.122
N9855 X743.944 Y67.189
N9860 X743.746 Y67.271
N9865 X743.554 Y67.367
N9870 X743.37 Y67.476
N9875 X743.194 Y67.598
N9880 X743.027 Y67.733
N9885 X742.871 Y67.879
N9890 X642.871 Y167.879
N9895 X642.725 Y168.035
N9900 X642.59 Y168.202
N9905 X642.468 Y168.378
N9910 X642.359 Y168.562
N9915 X642.263 Y168.754
N9920 X642.181 Y168.952
N9925 X642.114 Y169.155
N9930 X642.061 Y169.362
N9935 X642.023 Y169.573
N9940 X642 Y169.786
N9945 X641.992 Y170
N9950 X642 Y170.214
N9955 X642.023 Y170.427
N9960 X642.061 Y170.638
N9965 X642.114 Y170.845
N9970 X642.181 Y171.048
N9975 X642.263 Y171.246
N9980 X642.359 Y171.438
N9985 X642.468 Y171.622
N9990 X642.59 Y171.798
N9995 X642.725 Y171.965
N10000 X642.871 Y172.121
N10005 X643.027 Y172.267
N10010 X643.194 Y172.402
N10015 X643.37 Y172.524
N10020 X643.554 Y172.633
N10025 X643.746 Y172.729
N10030 X643.944 Y172.811
N10035 X644.147 Y172.878
N10040 X644.354 Y172.931
N10045 X644.565 Y172.969
N10050 X644.778 Y172.992
N10055 X644.992 Y173
N10060 X744.992
N10065 X745.206 Y172.992
N10070 X745.419 Y172.969
N10075 X745.63 Y172.931
N10080 X745.837 Y172.878
N10085 X746.04 Y172.811
N10090 X746.238 Y172.729
N10095 X746.43 Y172.633
N10100 X746.614 Y172.524
N10105 X746.79 Y172.402
N10110 X746.957 Y172.267
N10115 X747.113 Y172.121
N10120 X747.259 Y171.965
N10125 X747.394 Y171.798
N10130 X747.516 Y171.622
N10135 X747.625 Y171.438
N10140 X747.721 Y171.246
N10145 X747.803 Y171.048
N10150 X747.87 Y170.845
N10155 X747.923 Y170.638
N10160 X747.961 Y170.427
N10165 X747.984 Y170.214
N10170 X747.992 Y170
N10175 Y138.804
N10180 Y70 Z-8.403
N10185 X747.984 Y69.786 Z-8.41
N10190 X747.961 Y69.573 Z-8.418
N10195 X747.923 Y69.362 Z-8.425
N10200 X747.87 Y69.155 Z-8.433
N10205 X747.803 Y68.952 Z-8.44
N10210 X747.721 Y68.754 Z-8.448
N10215 X747.625 Y68.562 Z-8.455
N10220 X747.516 Y68.378 Z-8.463
N10225 X747.394 Y68.202 Z-8.47
N10230 X747.259 Y68.035 Z-8.477
N10235 X747.113 Y67.879 Z-8.485
N10240 X746.957 Y67.733 Z-8.492
N10245 X746.79 Y67.598 Z-8.5
N10250 X746.614 Y67.476 Z-8.507
N10255 X746.43 Y67.367 Z-8.515
N10260 X746.238 Y67.271 Z-8.522
N10265 X746.04 Y67.189 Z-8.53
N10270 X745.837 Y67.122 Z-8.537
N10275 X745.63 Y67.069 Z-8.545
N10280 X745.419 Y67.031 Z-8.552
N10285 X745.206 Y67.008 Z-8.56
N10290 X744.992 Y67 Z-8.567
N10295 X744.778 Y67.008 Z-8.575
N10300 X744.565 Y67.031 Z-8.582
N10305 X744.354 Y67.069 Z-8.59
N10310 X744.147 Y67.122 Z-8.597
N10315 X743.944 Y67.189 Z-8.605
N10320 X743.746 Y67.271 Z-8.612
N10325 X743.554 Y67.367 Z-8.62
N10330 X743.37 Y67.476 Z-8.627
N10335 X743.194 Y67.598 Z-8.635
N10340 X743.027 Y67.733 Z-8.642
N10345 X742.871 Y67.879 Z-8.65
N10350 X735.774 Y74.976 Z-9
N10355 X642.871 Y167.879
N10360 X642.725 Y168.035
N10365 X642.59 Y168.202
N10370 X642.468 Y168.378
N10375 X642.359 Y168.562
N10380 X642.263 Y168.754
N10385 X642.181 Y168.952
N10390 X642.114 Y169.155
N10395 X642.061 Y169.362
N10400 X642.023 Y169.573
N10405 X642 Y169.786
N10410 X641.992 Y170
N10415 X642 Y170.214
N10420 X642.023 Y170.427
N10425 X642.061 Y170.638
N10430 X642.114 Y170.845
N10435 X642.181 Y171.048
N10440 X642.263 Y171.246
N10445 X642.359 Y171.438
N10450 X642.468 Y171.622
N10455 X642.59 Y171.798
N10460 X642.725 Y171.965
N10465 X642.871 Y172.121
N10470 X643.027 Y172.267
N10475 X643.194 Y172.402
N10480 X643.37 Y172.524
N10485 X643.554 Y172.633
N10490 X643.746 Y172.729
N10495 X643.944 Y172.811
N10500 X644.147 Y172.878
N10505 X644.354 Y172.931
N10510 X644.565 Y172.969
N10515 X644.778 Y172.992
N10520 X644.992 Y173
N10525 X744.992
N10530 X745.206 Y172.992
N10535 X745.419 Y172.969
N10540 X745.63 Y172.931
N10545 X745.837 Y172.878
N10550 X746.04 Y172.811
N10555 X746.238 Y172.729
N10560 X746.43 Y172.633
N10565 X746.614 Y172.524
N10570 X746.79 Y172.402
N10575 X746.957 Y172.267
N10580 X747.113 Y172.121
N10585 X747.259 Y171.965
N10590 X747.394 Y171.798
N10595 X747.516 Y171.622
N10600 X747.625 Y171.438
N10605 X747.721 Y171.246
N10610 X747.803 Y171.048
N10615 X747.87 Y170.845
N10620 X747.923 Y170.638
N10625 X747.961 Y170.427
N10630 X747.984 Y170.214
N10635 X747.992 Y170
N10640 Y70
N10645 X747.984 Y69.786
N10650 X747.961 Y69.573
N10655 X747.923 Y69.362
N10660 X747.87 Y69.155
N10665 X747.803 Y68.952
N10670 X747.721 Y68.754
N10675 X747.625 Y68.562
N10680 X747.516 Y68.378
N10685 X747.394 Y68.202
N10690 X747.259 Y68.035
N10695 X747.113 Y67.879
N10700 X746.957 Y67.733
N10705 X746.79 Y67.598
N10710 X746.614 Y67.476
N10715 X746.43 Y67.367
N10720 X746.238 Y67.271
N10725 X746.04 Y67.189
N10730 X745.837 Y67.122
N10735 X745.63 Y67.069
N10740 X745.419 Y67.031
N10745 X745.206 Y67.008
N10750 X744.992 Y67
N10755 X744.778 Y67.008
N10760 X744.565 Y67.031
N10765 X744.354 Y67.069
N10770 X744.147 Y67.122
N10775 X743.944 Y67.189
N10780 X743.746 Y67.271
N10785 X743.554 Y67.367
N10790 X743.37 Y67.476
N10795 X743.194 Y67.598
N10800 X743.027 Y67.733
N10805 X742.871 Y67.879
N10810 X735.774 Y74.976
N10815 X675.027 Y135.722 Z-12
N10820 X642.871 Y167.879
N10825 X642.725 Y168.035
N10830 X642.59 Y168.202
N10835 X642.468 Y168.378
N10840 X642.359 Y168.562
N10845 X642.263 Y168.754
N10850 X642.181 Y168.952
N10855 X642.114 Y169.155
N10860 X642.061 Y169.362
N10865 X642.023 Y169.573
N10870 X642 Y169.786
N10875 X641.992 Y170
N10880 X642 Y170.214
N10885 X642.023 Y170.427
N10890 X642.061 Y170.638
N10895 X642.114 Y170.845
N10900 X642.181 Y171.048
N10905 X642.263 Y171.246
N10910 X642.359 Y171.438
N10915 X642.468 Y171.622
N10920 X642.59 Y171.798
N10925 X642.725 Y171.965
N10930 X642.871 Y172.121
N10935 X643.027 Y172.267
N10940 X643.194 Y172.402
N10945 X643.37 Y172.524
N10950 X643.554 Y172.633
N10955 X643.746 Y172.729
N10960 X643.944 Y172.811
N10965 X644.147 Y172.878
N10970 X644.354 Y172.931
N10975 X644.565 Y172.969
N10980 X644.778 Y172.992
N10985 X644.992 Y173
N10990 X744.992
N10995 X745.206 Y172.992
N11000 X745.419 Y172.969
N11005 X745.63 Y172.931
N11010 X745.837 Y172.878
N11015 X746.04 Y172.811
N11020 X746.238 Y172.729
N11025 X746.43 Y172.633
N11030 X746.614 Y172.524
N11035 X746.79 Y172.402
N11040 X746.957 Y172.267
N11045 X747.113 Y172.121
N11050 X747.259 Y171.965
N11055 X747.394 Y171.798
N11060 X747.516 Y171.622
N11065 X747.625 Y171.438
N11070 X747.721 Y171.246
N11075 X747.803 Y171.048
N11080 X747.87 Y170.845
N11085 X747.923 Y170.638
N11090 X747.961 Y170.427
N11095 X747.984 Y170.214
N11100 X747.992 Y170
N11105 Y70
N11110 X747.984 Y69.786
N11115 X747.961 Y69.573
N11120 X747.923 Y69.362
N11125 X747.87 Y69.155
N11130 X747.803 Y68.952
N11135 X747.721 Y68.754
N11140 X747.625 Y68.562
N11145 X747.516 Y68.378
N11150 X747.394 Y68.202
N11155 X747.259 Y68.035
N11160 X747.113 Y67.879
N11165 X746.957 Y67.733
N11170 X746.79 Y67.598
N11175 X746.614 Y67.476
N11180 X746.43 Y67.367
N11185 X746.238 Y67.271
N11190 X746.04 Y67.189
N11195 X745.837 Y67.122
N11200 X745.63 Y67.069
N11205 X745.419 Y67.031
N11210 X745.206 Y67.008
N11215 X744.992 Y67
N11220 X744.778 Y67.008
N11225 X744.565 Y67.031
N11230 X744.354 Y67.069
N11235 X744.147 Y67.122
N11240 X743.944 Y67.189
N11245 X743.746 Y67.271
N11250 X743.554 Y67.367
N11255 X743.37 Y67.476
N11260 X743.194 Y67.598
N11265 X743.027 Y67.733
N11270 X742.871 Y67.879
N11275 X675.027 Y135.722
N11280 X642.871 Y167.879 Z-13.588
N11285 X642.725 Y168.035 Z-13.596
N11290 X642.59 Y168.202 Z-13.603
N11295 X642.468 Y168.378 Z-13.61
N11300 X642.359 Y168.562 Z-13.618
N11305 X642.263 Y168.754 Z-13.625
N11310 X642.181 Y168.952 Z-13.633
N11315 X642.114 Y169.155 Z-13.64
N11320 X642.061 Y169.362 Z-13.648
N11325 X642.023 Y169.573 Z-13.655
N11330 X642 Y169.786 Z-13.663
N11335 X641.992 Y170 Z-13.67
N11340 X642 Y170.214 Z-13.678
N11345 X642.023 Y170.427 Z-13.685
N11350 X642.061 Y170.638 Z-13.693
N11355 X642.114 Y170.845 Z-13.7
N11360 X642.181 Y171.048 Z-13.708
N11365 X642.263 Y171.246 Z-13.715
N11370 X642.359 Y171.438 Z-13.723
N11375 X642.468 Y171.622 Z-13.73
N11380 X642.59 Y171.798 Z-13.738
N11385 X642.725 Y171.965 Z-13.745
N11390 X642.871 Y172.121 Z-13.753
N11395 X643.027 Y172.267 Z-13.76
N11400 X643.194 Y172.402 Z-13.768
N11405 X643.37 Y172.524 Z-13.775
N11410 X643.554 Y172.633 Z-13.783
N11415 X643.746 Y172.729 Z-13.79
N11420 X643.944 Y172.811 Z-13.797
N11425 X644.147 Y172.878 Z-13.805
N11430 X644.354 Y172.931 Z-13.812
N11435 X644.565 Y172.969 Z-13.82
N11440 X644.778 Y172.992 Z-13.827
N11445 X644.992 Y173 Z-13.835
N11450 X678.356 Z-15
N11455 X744.992
N11460 X745.206 Y172.992
N11465 X745.419 Y172.969
N11470 X745.63 Y172.931
N11475 X745.837 Y172.878
N11480 X746.04 Y172.811
N11485 X746.238 Y172.729
N11490 X746.43 Y172.633
N11495 X746.614 Y172.524
N11500 X746.79 Y172.402
N11505 X746.957 Y172.267
N11510 X747.113 Y172.121
N11515 X747.259 Y171.965
N11520 X747.394 Y171.798
N11525 X747.516 Y171.622
N11530 X747.625 Y171.438
N11535 X747.721 Y171.246
N11540 X747.803 Y171.048
N11545 X747.87 Y170.845
N11550 X747.923 Y170.638
N11555 X747.961 Y170.427
N11560 X747.984 Y170.214
N11565 X747.992 Y170
N11570 Y70
N11575 X747.984 Y69.786
N11580 X747.961 Y69.573
N11585 X747.923 Y69.362
N11590 X747.87 Y69.155
N11595 X747.803 Y68.952
N11600 X747.721 Y68.754
N11605 X747.625 Y68.562
N11610 X747.516 Y68.378
N11615 X747.394 Y68.202
N11620 X747.259 Y68.035
N11625 X747.113 Y67.879
N11630 X746.957 Y67.733
N11635 X746.79 Y67.598
N11640 X746.614 Y67.476
N11645 X746.43 Y67.367
N11650 X746.238 Y67.271
N11655 X746.04 Y67.189
N11660 X745.837 Y67.122
N11665 X745.63 Y67.069
N11670 X745.419 Y67.031
N11675 X745.206 Y67.008
N11680 X744.992 Y67
N11685 X744.778 Y67.008
N11690 X744.565 Y67.031
N11695 X744.354 Y67.069
N11700 X744.147 Y67.122
N11705 X743.944 Y67.189
N11710 X743.746 Y67.271
N11715 X743.554 Y67.367
N11720 X743.37 Y67.476
N11725 X743.194 Y67.598
N11730 X743.027 Y67.733
N11735 X742.871 Y67.879
N11740 X675.027 Y135.722
N11745 X642.871 Y167.879
N11750 X642.725 Y168.035
N11755 X642.59 Y168.202
N11760 X642.468 Y168.378
N11765 X642.359 Y168.562
N11770 X642.263 Y168.754
N11775 X642.181 Y168.952
N11780 X642.114 Y169.155
N11785 X642.061 Y169.362
N11790 X642.023 Y169.573
N11795 X642 Y169.786
N11800 X641.992 Y170
N11805 X642 Y170.214
N11810 X642.023 Y170.427
N11815 X642.061 Y170.638
N11820 X642.114 Y170.845
N11825 X642.181 Y171.048
N11830 X642.263 Y171.246
N11835 X642.359 Y171.438
N11840 X642.468 Y171.622
N11845 X642.59 Y171.798
N11850 X642.725 Y171.965
N11855 X642.871 Y172.121
N11860 X643.027 Y172.267
N11865 X643.194 Y172.402
N11870 X643.37 Y172.524
N11875 X643.554 Y172.633
N11880 X643.746 Y172.729
N11885 X643.944 Y172.811
N11890 X644.147 Y172.878
N11895 X644.354 Y172.931
N11900 X644.565 Y172.969
N11905 X644.778 Y172.992
N11910 X644.992 Y173
N11915 X678.356
N11920 X716.006 Z-16.315
N11925 X716.992 Z-15
N11930 X722.992
N11935 X724.193 Z-16.601
N11940 X744.992 Z-17.327
N11945 X745.206 Y172.992 Z-17.334
N11950 X745.419 Y172.969 Z-17.342
N11955 X745.63 Y172.931 Z-17.349
N11960 X745.837 Y172.878 Z-17.357
N11965 X746.04 Y172.811 Z-17.364
N11970 X746.238 Y172.729 Z-17.372
N11975 X746.43 Y172.633 Z-17.379
N11980 X746.614 Y172.524 Z-17.387
N11985 X746.79 Y172.402 Z-17.394
N11990 X746.957 Y172.267 Z-17.402
N11995 X747.113 Y172.121 Z-17.409
N12000 X747.259 Y171.965 Z-17.417
N12005 X747.394 Y171.798 Z-17.424
N12010 X747.516 Y171.622 Z-17.432
N12015 X747.625 Y171.438 Z-17.439
N12020 X747.721 Y171.246 Z-17.447
N12025 X747.803 Y171.048 Z-17.454
N12030 X747.87 Y170.845 Z-17.462
N12035 X747.923 Y170.638 Z-17.469
N12040 X747.961 Y170.427 Z-17.477
N12045 X747.984 Y170.214 Z-17.484
N12050 X747.992 Y170 Z-17.492
N12055 Y155.439 Z-18
N12060 Y150.25
N12065 Y148 Z-15
N12070 Y142
N12075 Y139.75 Z-18
N12080 Y100.25
N12085 Y98 Z-15
N12090 Y92
N12095 Y89.75 Z-18
N12100 Y70
N12105 X747.984 Y69.786
N12110 X747.961 Y69.573
N12115 X747.923 Y69.362
N12120 X747.87 Y69.155
N12125 X747.803 Y68.952
N12130 X747.721 Y68.754
N12135 X747.625 Y68.562
N12140 X747.516 Y68.378
N12145 X747.394 Y68.202
N12150 X747.259 Y68.035
N12155 X747.113 Y67.879
N12160 X746.957 Y67.733
N12165 X746.79 Y67.598
N12170 X746.614 Y67.476
N12175 X746.43 Y67.367
N12180 X746.238 Y67.271
N12185 X746.04 Y67.189
N12190 X745.837 Y67.122
N12195 X745.63 Y67.069
N12200 X745.419 Y67.031
N12205 X745.206 Y67.008
N12210 X744.992 Y67
N12215 X744.778 Y67.008
N12220 X744.565 Y67.031
N12225 X744.354 Y67.069
N12230 X744.147 Y67.122
N12235 X743.944 Y67.189
N12240 X743.746 Y67.271
N12245 X743.554 Y67.367
N12250 X743.37 Y67.476
N12255 X743.194 Y67.598
N12260 X743.027 Y67.733
N12265 X742.871 Y67.879
N12270 X721.583 Y89.166
N12275 X719.992 Y90.757 Z-15
N12280 X715.749 Y95
N12285 X714.158 Y96.591 Z-18
N12290 X671.583 Y139.166
N12295 X669.992 Y140.757 Z-15
N12300 X665.749 Y145
N12305 X664.158 Y146.591 Z-18
N12310 X642.871 Y167.879
N12315 X642.725 Y168.035
N12320 X642.59 Y168.202
N12325 X642.468 Y168.378
N12330 X642.359 Y168.562
N12335 X642.263 Y168.754
N12340 X642.181 Y168.952
N12345 X642.114 Y169.155
N12350 X642.061 Y169.362
N12355 X642.023 Y169.573
N12360 X642 Y169.786
N12365 X641.992 Y170
N12370 X642 Y170.214
N12375 X642.023 Y170.427
N12380 X642.061 Y170.638
N12385 X642.114 Y170.845
N12390 X642.181 Y171.048
N12395 X642.263 Y171.246
N12400 X642.359 Y171.438
N12405 X642.468 Y171.622
N12410 X642.59 Y171.798
N12415 X642.725 Y171.965
N12420 X642.871 Y172.121
N12425 X643.027 Y172.267
N12430 X643.194 Y172.402
N12435 X643.37 Y172.524
N12440 X643.554 Y172.633
N12445 X643.746 Y172.729
N12450 X643.944 Y172.811
N12455 X644.147 Y172.878
N12460 X644.354 Y172.931
N12465 X644.565 Y172.969
N12470 X644.778 Y172.992
N12475 X644.992 Y173
N12480 X664.742
N12485 X666.992 Z-15
N12490 X672.992
N12495 X675.242 Z-18
N12500 X714.742
N12505 X716.992 Z-15
N12510 X722.992
N12515 X725.242 Z-18
N12520 X744.992
N12525 X745.206 Y172.992
N12530 X745.419 Y172.969
N12535 X745.63 Y172.931
N12540 X745.837 Y172.878
N12545 X746.04 Y172.811
N12550 X746.238 Y172.729
N12555 X746.43 Y172.633
N12560 X746.614 Y172.524
N12565 X746.79 Y172.402
N12570 X746.957 Y172.267
N12575 X747.113 Y172.121
N12580 X747.259 Y171.965
N12585 X747.394 Y171.798
N12590 X747.516 Y171.622
N12595 X747.625 Y171.438
N12600 X747.721 Y171.246
N12605 X747.803 Y171.048
N12610 X747.87 Y170.845
N12615 X747.923 Y170.638
N12620 X747.961 Y170.427
N12625 X747.984 Y170.214
N12630 X747.992 Y170
N12635 Y155.439
N12640 Y150.382 Z-18.177
N12645 Y148 Z-15
N12650 Y142
N12655 Y139.328 Z-18.563
N12660 Y126.803 Z-19
N12665 Y101
N12670 Y98 Z-15
N12675 Y92
N12680 Y89 Z-19
N12685 Y70
N12690 X747.984 Y69.786
N12695 X747.961 Y69.573
N12700 X747.923 Y69.362
N12705 X747.87 Y69.155
N12710 X747.803 Y68.952
N12715 X747.721 Y68.754
N12720 X747.625 Y68.562
N12725 X747.516 Y68.378
N12730 X747.394 Y68.202
N12735 X747.259 Y68.035
N12740 X747.113 Y67.879
N12745 X746.957 Y67.733
N12750 X746.79 Y67.598
N12755 X746.614 Y67.476
N12760 X746.43 Y67.367
N12765 X746.238 Y67.271
N12770 X746.04 Y67.189
N12775 X745.837 Y67.122
N12780 X745.63 Y67.069
N12785 X745.419 Y67.031
N12790 X745.206 Y67.008
N12795 X744.992 Y67
N12800 X744.778 Y67.008
N12805 X744.565 Y67.031
N12810 X744.354 Y67.069
N12815 X744.147 Y67.122
N12820 X743.944 Y67.189
N12825 X743.746 Y67.271
N12830 X743.554 Y67.367
N12835 X743.37 Y67.476
N12840 X743.194 Y67.598
N12845 X743.027 Y67.733
N12850 X742.871 Y67.879
N12855 X722.113 Y88.636
N12860 X719.992 Y90.757 Z-15
N12865 X715.749 Y95
N12870 X713.628 Y97.121 Z-19
N12875 X672.113 Y138.636
N12880 X669.992 Y140.757 Z-15
N12885 X665.749 Y145
N12890 X663.628 Y147.121 Z-19
N12895 X642.871 Y167.879
N12900 X642.725 Y168.035
N12905 X642.59 Y168.202
N12910 X642.468 Y168.378
N12915 X642.359 Y168.562
N12920 X642.263 Y168.754
N12925 X642.181 Y168.952
N12930 X642.114 Y169.155
N12935 X642.061 Y169.362
N12940 X642.023 Y169.573
N12945 X642 Y169.786
N12950 X641.992 Y170
N12955 X642 Y170.214
N12960 X642.023 Y170.427
N12965 X642.061 Y170.638
N12970 X642.114 Y170.845
N12975 X642.181 Y171.048
N12980 X642.263 Y171.246
N12985 X642.359 Y171.438
N12990 X642.468 Y171.622
N12995 X642.59 Y171.798
N13000 X642.725 Y171.965
N13005 X642.871 Y172.121
N13010 X643.027 Y172.267
N13015 X643.194 Y172.402
N13020 X643.37 Y172.524
N13025 X643.554 Y172.633
N13030 X643.746 Y172.729
N13035 X643.944 Y172.811
N13040 X644.147 Y172.878
N13045 X644.354 Y172.931
N13050 X644.565 Y172.969
N13055 X644.778 Y172.992
N13060 X644.992 Y173
N13065 X663.992
N13070 X666.992 Z-15
N13075 X672.992
N13080 X675.992 Z-19
N13085 X713.992
N13090 X716.992 Z-15
N13095 X722.992
N13100 X725.992 Z-19
N13105 X744.992
N13110 X745.206 Y172.992
N13115 X745.419 Y172.969
N13120 X745.63 Y172.931
N13125 X745.837 Y172.878
N13130 X746.04 Y172.811
N13135 X746.238 Y172.729
N13140 X746.43 Y172.633
N13145 X746.614 Y172.524
N13150 X746.79 Y172.402
N13155 X746.957 Y172.267
N13160 X747.113 Y172.121
N13165 X747.259 Y171.965
N13170 X747.394 Y171.798
N13175 X747.516 Y171.622
N13180 X747.625 Y171.438
N13185 X747.721 Y171.246
N13190 X747.803 Y171.048
N13195 X747.87 Y170.845
N13200 X747.923 Y170.638
N13205 X747.961 Y170.427
N13210 X747.984 Y170.214
N13215 X747.992 Y170
N13220 Y151
N13225 Y148 Z-15
N13230 Y142
N13235 Y139 Z-19
N13240 Y126.803
N13245 G0 Z15
N13255 M9
N13260 G28 G91 Z0
N13265 G28 X0 Y0
N13270 M30
%
