%
(1001)
(SpannZangen_2_1)
(T0 D=6 CR=0 - ZMIN=-19 - flat end mill)
N10 G90 G94
N15 G17
N20 G21

(2D Contour1)
N25 M9
N30 T0 M6
N35 S24000 M3
N40 G54
N45 M9
N55 G0 X380.4 Y15.2
N60 G43 Z15 H0
N65 Z5
N70 G1 Z4 F6000
N75 Z3.1
N80 Y15.207 Z3.006
N85 Y15.229 Z2.915
N90 Y15.265 Z2.828
N95 Y15.315 Z2.747
N100 Y15.376 Z2.676
N105 Y15.447 Z2.615
N110 Y15.528 Z2.565
N115 Y15.615 Z2.529
N120 Y15.706 Z2.507
N125 Y15.8 Z2.5
N130 Y16.4
N135 X380.393 Y16.494
N140 X380.371 Y16.585
N145 X380.335 Y16.672
N150 X380.286 Y16.753
N155 X380.225 Y16.824
N160 X380.153 Y16.885
N165 X380.073 Y16.935
N170 X379.986 Y16.971
N175 X379.894 Y16.993
N180 X379.8 Y17
N185 X357 Z1.704
N190 X356.589 Y17.008 Z1.689
N195 X356.178 Y17.031 Z1.675
N200 X355.768 Y17.069 Z1.661
N205 X355.361 Y17.123 Z1.646
N210 X354.955 Y17.192 Z1.632
N215 X354.552 Y17.276 Z1.618
N220 X354.153 Y17.375 Z1.603
N225 X353.758 Y17.489 Z1.589
N230 X353.367 Y17.617 Z1.574
N235 X352.981 Y17.76 Z1.56
N240 X352.601 Y17.918 Z1.546
N245 X352.227 Y18.089 Z1.531
N250 X351.86 Y18.275 Z1.517
N255 X351.5 Y18.474 Z1.503
N260 X351.148 Y18.686 Z1.488
N265 X350.803 Y18.911 Z1.474
N270 X350.468 Y19.149 Z1.46
N275 X350.142 Y19.4 Z1.445
N280 X349.825 Y19.662 Z1.431
N285 X349.518 Y19.936 Z1.416
N290 X349.222 Y20.222 Z1.402
N295 X348.936 Y20.518 Z1.388
N300 X348.662 Y20.825 Z1.373
N305 X348.4 Y21.142 Z1.359
N310 X348.149 Y21.468 Z1.345
N315 X347.911 Y21.803 Z1.33
N320 X347.686 Y22.148 Z1.316
N325 X347.474 Y22.5 Z1.302
N330 X347.275 Y22.86 Z1.287
N335 X347.089 Y23.227 Z1.273
N340 X346.918 Y23.601 Z1.258
N345 X346.76 Y23.981 Z1.244
N350 X346.617 Y24.367 Z1.23
N355 X346.489 Y24.758 Z1.215
N360 X346.375 Y25.153 Z1.201
N365 X346.276 Y25.552 Z1.187
N370 X346.192 Y25.955 Z1.172
N375 X346.123 Y26.361 Z1.158
N380 X346.069 Y26.768 Z1.144
N385 X346.031 Y27.178 Z1.129
N390 X346.008 Y27.589 Z1.115
N395 X346 Y28 Z1.1
N400 Y70 Z-0.366
N405 X345.992 Y70.125 Z-0.371
N410 X345.969 Y70.249 Z-0.375
N415 X345.93 Y70.368 Z-0.379
N420 X345.876 Y70.482 Z-0.384
N425 X345.809 Y70.588 Z-0.388
N430 X345.729 Y70.685 Z-0.393
N435 X345.637 Y70.771 Z-0.397
N440 X345.536 Y70.844 Z-0.401
N445 X345.426 Y70.905 Z-0.406
N450 X345.309 Y70.951 Z-0.41
N455 X345.187 Y70.982 Z-0.415
N460 X345.063 Y70.998 Z-0.419
N465 X344.937 Z-0.423
N470 X344.813 Y70.982 Z-0.428
N475 X344.691 Y70.951 Z-0.432
N480 X344.574 Y70.905 Z-0.436
N485 X344.464 Y70.844 Z-0.441
N490 X344.363 Y70.771 Z-0.445
N495 X344.271 Y70.685 Z-0.45
N500 X344.191 Y70.588 Z-0.454
N505 X344.124 Y70.482 Z-0.458
N510 X344.07 Y70.368 Z-0.463
N515 X344.031 Y70.249 Z-0.467
N520 X344.008 Y70.125 Z-0.472
N525 X344 Y70 Z-0.476
N530 Y28 Z-1.943
N535 X343.992 Y27.589 Z-1.957
N540 X343.969 Y27.178 Z-1.971
N545 X343.931 Y26.768 Z-1.986
N550 X343.877 Y26.361 Z-2
N555 X343.808 Y25.955 Z-2.014
N560 X343.724 Y25.552 Z-2.029
N565 X343.625 Y25.153 Z-2.043
N570 X343.511 Y24.758 Z-2.058
N575 X343.383 Y24.367 Z-2.072
N580 X343.24 Y23.981 Z-2.086
N585 X343.082 Y23.601 Z-2.101
N590 X342.911 Y23.227 Z-2.115
N595 X342.725 Y22.86 Z-2.129
N600 X342.526 Y22.5 Z-2.144
N605 X342.314 Y22.148 Z-2.158
N610 X342.089 Y21.803 Z-2.173
N615 X341.851 Y21.468 Z-2.187
N620 X341.6 Y21.142 Z-2.201
N625 X341.338 Y20.825 Z-2.216
N630 X341.064 Y20.518 Z-2.23
N635 X340.778 Y20.222 Z-2.244
N640 X340.482 Y19.936 Z-2.259
N645 X340.175 Y19.662 Z-2.273
N650 X339.858 Y19.4 Z-2.287
N655 X339.532 Y19.149 Z-2.302
N660 X339.197 Y18.911 Z-2.316
N665 X338.852 Y18.686 Z-2.331
N670 X338.5 Y18.474 Z-2.345
N675 X338.14 Y18.275 Z-2.359
N680 X337.773 Y18.089 Z-2.374
N685 X337.399 Y17.918 Z-2.388
N690 X337.019 Y17.76 Z-2.402
N695 X336.633 Y17.617 Z-2.417
N700 X336.242 Y17.489 Z-2.431
N705 X335.847 Y17.375 Z-2.445
N710 X335.448 Y17.276 Z-2.46
N715 X335.045 Y17.192 Z-2.474
N720 X334.639 Y17.123 Z-2.489
N725 X334.232 Y17.069 Z-2.503
N730 X333.822 Y17.031 Z-2.517
N735 X333.411 Y17.008 Z-2.532
N740 X333 Y17 Z-2.546
N745 X320 Z-3
N750 X307
N755 X306.589 Y17.008
N760 X306.178 Y17.031
N765 X305.768 Y17.069
N770 X305.361 Y17.123
N775 X304.955 Y17.192
N780 X304.552 Y17.276
N785 X304.153 Y17.375
N790 X303.758 Y17.489
N795 X303.367 Y17.617
N800 X302.981 Y17.76
N805 X302.601 Y17.918
N810 X302.227 Y18.089
N815 X301.86 Y18.275
N820 X301.5 Y18.474
N825 X301.148 Y18.686
N830 X300.803 Y18.911
N835 X300.468 Y19.149
N840 X300.142 Y19.4
N845 X299.825 Y19.662
N850 X299.518 Y19.936
N855 X299.222 Y20.222
N860 X298.936 Y20.518
N865 X298.662 Y20.825
N870 X298.4 Y21.142
N875 X298.149 Y21.468
N880 X297.911 Y21.803
N885 X297.686 Y22.148
N890 X297.474 Y22.5
N895 X297.275 Y22.86
N900 X297.089 Y23.227
N905 X296.918 Y23.601
N910 X296.76 Y23.981
N915 X296.617 Y24.367
N920 X296.489 Y24.758
N925 X296.375 Y25.153
N930 X296.276 Y25.552
N935 X296.192 Y25.955
N940 X296.123 Y26.361
N945 X296.069 Y26.768
N950 X296.031 Y27.178
N955 X296.008 Y27.589
N960 X296 Y28
N965 Y70
N970 X295.992 Y70.125
N975 X295.969 Y70.249
N980 X295.93 Y70.368
N985 X295.876 Y70.482
N990 X295.809 Y70.588
N995 X295.729 Y70.685
N1000 X295.637 Y70.771
N1005 X295.536 Y70.844
N1010 X295.426 Y70.905
N1015 X295.309 Y70.951
N1020 X295.187 Y70.982
N1025 X295.063 Y70.998
N1030 X294.937
N1035 X294.813 Y70.982
N1040 X294.691 Y70.951
N1045 X294.574 Y70.905
N1050 X294.464 Y70.844
N1055 X294.363 Y70.771
N1060 X294.271 Y70.685
N1065 X294.191 Y70.588
N1070 X294.124 Y70.482
N1075 X294.07 Y70.368
N1080 X294.031 Y70.249
N1085 X294.008 Y70.125
N1090 X294 Y70
N1095 Y28
N1100 X293.992 Y27.589
N1105 X293.969 Y27.178
N1110 X293.931 Y26.768
N1115 X293.877 Y26.361
N1120 X293.808 Y25.955
N1125 X293.724 Y25.552
N1130 X293.625 Y25.153
N1135 X293.511 Y24.758
N1140 X293.383 Y24.367
N1145 X293.24 Y23.981
N1150 X293.082 Y23.601
N1155 X292.911 Y23.227
N1160 X292.725 Y22.86
N1165 X292.526 Y22.5
N1170 X292.314 Y22.148
N1175 X292.089 Y21.803
N1180 X291.851 Y21.468
N1185 X291.6 Y21.142
N1190 X291.338 Y20.825
N1195 X291.064 Y20.518
N1200 X290.778 Y20.222
N1205 X290.482 Y19.936
N1210 X290.175 Y19.662
N1215 X289.858 Y19.4
N1220 X289.532 Y19.149
N1225 X289.197 Y18.911
N1230 X288.852 Y18.686
N1235 X288.5 Y18.474
N1240 X288.14 Y18.275
N1245 X287.773 Y18.089
N1250 X287.399 Y17.918
N1255 X287.019 Y17.76
N1260 X286.633 Y17.617
N1265 X286.242 Y17.489
N1270 X285.847 Y17.375
N1275 X285.448 Y17.276
N1280 X285.045 Y17.192
N1285 X284.639 Y17.123
N1290 X284.232 Y17.069
N1295 X283.822 Y17.031
N1300 X283.411 Y17.008
N1305 X283 Y17
N1310 X257
N1315 X256.589 Y17.008
N1320 X256.178 Y17.031
N1325 X255.768 Y17.069
N1330 X255.361 Y17.123
N1335 X254.955 Y17.192
N1340 X254.552 Y17.276
N1345 X254.153 Y17.375
N1350 X253.758 Y17.489
N1355 X253.367 Y17.617
N1360 X252.981 Y17.76
N1365 X252.601 Y17.918
N1370 X252.227 Y18.089
N1375 X251.86 Y18.275
N1380 X251.5 Y18.474
N1385 X251.148 Y18.686
N1390 X250.803 Y18.911
N1395 X250.468 Y19.149
N1400 X250.142 Y19.4
N1405 X249.825 Y19.662
N1410 X249.518 Y19.936
N1415 X249.222 Y20.222
N1420 X248.936 Y20.518
N1425 X248.662 Y20.825
N1430 X248.4 Y21.142
N1435 X248.149 Y21.468
N1440 X247.911 Y21.803
N1445 X247.686 Y22.148
N1450 X247.474 Y22.5
N1455 X247.275 Y22.86
N1460 X247.089 Y23.227
N1465 X246.918 Y23.601
N1470 X246.76 Y23.981
N1475 X246.617 Y24.367
N1480 X246.489 Y24.758
N1485 X246.375 Y25.153
N1490 X246.276 Y25.552
N1495 X246.192 Y25.955
N1500 X246.123 Y26.361
N1505 X246.069 Y26.768
N1510 X246.031 Y27.178
N1515 X246.008 Y27.589
N1520 X246 Y28
N1525 Y70
N1530 X245.992 Y70.125
N1535 X245.969 Y70.249
N1540 X245.93 Y70.368
N1545 X245.876 Y70.482
N1550 X245.809 Y70.588
N1555 X245.729 Y70.685
N1560 X245.637 Y70.771
N1565 X245.536 Y70.844
N1570 X245.426 Y70.905
N1575 X245.309 Y70.951
N1580 X245.187 Y70.982
N1585 X245.063 Y70.998
N1590 X244.937
N1595 X244.813 Y70.982
N1600 X244.691 Y70.951
N1605 X244.574 Y70.905
N1610 X244.464 Y70.844
N1615 X244.363 Y70.771
N1620 X244.271 Y70.685
N1625 X244.191 Y70.588
N1630 X244.124 Y70.482
N1635 X244.07 Y70.368
N1640 X244.031 Y70.249
N1645 X244.008 Y70.125
N1650 X244 Y70
N1655 Y28
N1660 X243.992 Y27.589
N1665 X243.969 Y27.178
N1670 X243.931 Y26.768
N1675 X243.877 Y26.361
N1680 X243.808 Y25.955
N1685 X243.724 Y25.552
N1690 X243.625 Y25.153
N1695 X243.511 Y24.758
N1700 X243.383 Y24.367
N1705 X243.24 Y23.981
N1710 X243.082 Y23.601
N1715 X242.911 Y23.227
N1720 X242.725 Y22.86
N1725 X242.526 Y22.5
N1730 X242.314 Y22.148
N1735 X242.089 Y21.803
N1740 X241.851 Y21.468
N1745 X241.6 Y21.142
N1750 X241.338 Y20.825
N1755 X241.064 Y20.518
N1760 X240.778 Y20.222
N1765 X240.482 Y19.936
N1770 X240.175 Y19.662
N1775 X239.858 Y19.4
N1780 X239.532 Y19.149
N1785 X239.197 Y18.911
N1790 X238.852 Y18.686
N1795 X238.5 Y18.474
N1800 X238.14 Y18.275
N1805 X237.773 Y18.089
N1810 X237.399 Y17.918
N1815 X237.019 Y17.76
N1820 X236.633 Y17.617
N1825 X236.242 Y17.489
N1830 X235.847 Y17.375
N1835 X235.448 Y17.276
N1840 X235.045 Y17.192
N1845 X234.639 Y17.123
N1850 X234.232 Y17.069
N1855 X233.822 Y17.031
N1860 X233.411 Y17.008
N1865 X233 Y17
N1870 X207
N1875 X206.589 Y17.008
N1880 X206.178 Y17.031
N1885 X205.768 Y17.069
N1890 X205.361 Y17.123
N1895 X204.955 Y17.192
N1900 X204.552 Y17.276
N1905 X204.153 Y17.375
N1910 X203.758 Y17.489
N1915 X203.367 Y17.617
N1920 X202.981 Y17.76
N1925 X202.601 Y17.918
N1930 X202.227 Y18.089
N1935 X201.86 Y18.275
N1940 X201.5 Y18.474
N1945 X201.148 Y18.686
N1950 X200.803 Y18.911
N1955 X200.468 Y19.149
N1960 X200.142 Y19.4
N1965 X199.825 Y19.662
N1970 X199.518 Y19.936
N1975 X199.222 Y20.222
N1980 X198.936 Y20.518
N1985 X198.662 Y20.825
N1990 X198.4 Y21.142
N1995 X198.149 Y21.468
N2000 X197.911 Y21.803
N2005 X197.686 Y22.148
N2010 X197.474 Y22.5
N2015 X197.275 Y22.86
N2020 X197.089 Y23.227
N2025 X196.918 Y23.601
N2030 X196.76 Y23.981
N2035 X196.617 Y24.367
N2040 X196.489 Y24.758
N2045 X196.375 Y25.153
N2050 X196.276 Y25.552
N2055 X196.192 Y25.955
N2060 X196.123 Y26.361
N2065 X196.069 Y26.768
N2070 X196.031 Y27.178
N2075 X196.008 Y27.589
N2080 X196 Y28
N2085 Y70
N2090 X195.992 Y70.125
N2095 X195.969 Y70.249
N2100 X195.93 Y70.368
N2105 X195.876 Y70.482
N2110 X195.809 Y70.588
N2115 X195.729 Y70.685
N2120 X195.637 Y70.771
N2125 X195.536 Y70.844
N2130 X195.426 Y70.905
N2135 X195.309 Y70.951
N2140 X195.187 Y70.982
N2145 X195.063 Y70.998
N2150 X194.937
N2155 X194.813 Y70.982
N2160 X194.691 Y70.951
N2165 X194.574 Y70.905
N2170 X194.464 Y70.844
N2175 X194.363 Y70.771
N2180 X194.271 Y70.685
N2185 X194.191 Y70.588
N2190 X194.124 Y70.482
N2195 X194.07 Y70.368
N2200 X194.031 Y70.249
N2205 X194.008 Y70.125
N2210 X194 Y70
N2215 Y28
N2220 X193.992 Y27.589
N2225 X193.969 Y27.178
N2230 X193.931 Y26.768
N2235 X193.877 Y26.361
N2240 X193.808 Y25.955
N2245 X193.724 Y25.552
N2250 X193.625 Y25.153
N2255 X193.511 Y24.758
N2260 X193.383 Y24.367
N2265 X193.24 Y23.981
N2270 X193.082 Y23.601
N2275 X192.911 Y23.227
N2280 X192.725 Y22.86
N2285 X192.526 Y22.5
N2290 X192.314 Y22.148
N2295 X192.089 Y21.803
N2300 X191.851 Y21.468
N2305 X191.6 Y21.142
N2310 X191.338 Y20.825
N2315 X191.064 Y20.518
N2320 X190.778 Y20.222
N2325 X190.482 Y19.936
N2330 X190.175 Y19.662
N2335 X189.858 Y19.4
N2340 X189.532 Y19.149
N2345 X189.197 Y18.911
N2350 X188.852 Y18.686
N2355 X188.5 Y18.474
N2360 X188.14 Y18.275
N2365 X187.773 Y18.089
N2370 X187.399 Y17.918
N2375 X187.019 Y17.76
N2380 X186.633 Y17.617
N2385 X186.242 Y17.489
N2390 X185.847 Y17.375
N2395 X185.448 Y17.276
N2400 X185.045 Y17.192
N2405 X184.639 Y17.123
N2410 X184.232 Y17.069
N2415 X183.822 Y17.031
N2420 X183.411 Y17.008
N2425 X183 Y17
N2430 X157
N2435 X156.589 Y17.008
N2440 X156.178 Y17.031
N2445 X155.768 Y17.069
N2450 X155.361 Y17.123
N2455 X154.955 Y17.192
N2460 X154.552 Y17.276
N2465 X154.153 Y17.375
N2470 X153.758 Y17.489
N2475 X153.367 Y17.617
N2480 X152.981 Y17.76
N2485 X152.601 Y17.918
N2490 X152.227 Y18.089
N2495 X151.86 Y18.275
N2500 X151.5 Y18.474
N2505 X151.148 Y18.686
N2510 X150.803 Y18.911
N2515 X150.468 Y19.149
N2520 X150.142 Y19.4
N2525 X149.825 Y19.662
N2530 X149.518 Y19.936
N2535 X149.222 Y20.222
N2540 X148.936 Y20.518
N2545 X148.662 Y20.825
N2550 X148.4 Y21.142
N2555 X148.149 Y21.468
N2560 X147.911 Y21.803
N2565 X147.686 Y22.148
N2570 X147.474 Y22.5
N2575 X147.275 Y22.86
N2580 X147.089 Y23.227
N2585 X146.918 Y23.601
N2590 X146.76 Y23.981
N2595 X146.617 Y24.367
N2600 X146.489 Y24.758
N2605 X146.375 Y25.153
N2610 X146.276 Y25.552
N2615 X146.192 Y25.955
N2620 X146.123 Y26.361
N2625 X146.069 Y26.768
N2630 X146.031 Y27.178
N2635 X146.008 Y27.589
N2640 X146 Y28
N2645 Y70
N2650 X145.992 Y70.125
N2655 X145.969 Y70.249
N2660 X145.93 Y70.368
N2665 X145.876 Y70.482
N2670 X145.809 Y70.588
N2675 X145.729 Y70.685
N2680 X145.637 Y70.771
N2685 X145.536 Y70.844
N2690 X145.426 Y70.905
N2695 X145.309 Y70.951
N2700 X145.187 Y70.982
N2705 X145.063 Y70.998
N2710 X144.937
N2715 X144.813 Y70.982
N2720 X144.691 Y70.951
N2725 X144.574 Y70.905
N2730 X144.464 Y70.844
N2735 X144.363 Y70.771
N2740 X144.271 Y70.685
N2745 X144.191 Y70.588
N2750 X144.124 Y70.482
N2755 X144.07 Y70.368
N2760 X144.031 Y70.249
N2765 X144.008 Y70.125
N2770 X144 Y70
N2775 Y28
N2780 X143.992 Y27.589
N2785 X143.969 Y27.178
N2790 X143.931 Y26.768
N2795 X143.877 Y26.361
N2800 X143.808 Y25.955
N2805 X143.724 Y25.552
N2810 X143.625 Y25.153
N2815 X143.511 Y24.758
N2820 X143.383 Y24.367
N2825 X143.24 Y23.981
N2830 X143.082 Y23.601
N2835 X142.911 Y23.227
N2840 X142.725 Y22.86
N2845 X142.526 Y22.5
N2850 X142.314 Y22.148
N2855 X142.089 Y21.803
N2860 X141.851 Y21.468
N2865 X141.6 Y21.142
N2870 X141.338 Y20.825
N2875 X141.064 Y20.518
N2880 X140.778 Y20.222
N2885 X140.482 Y19.936
N2890 X140.175 Y19.662
N2895 X139.858 Y19.4
N2900 X139.532 Y19.149
N2905 X139.197 Y18.911
N2910 X138.852 Y18.686
N2915 X138.5 Y18.474
N2920 X138.14 Y18.275
N2925 X137.773 Y18.089
N2930 X137.399 Y17.918
N2935 X137.019 Y17.76
N2940 X136.633 Y17.617
N2945 X136.242 Y17.489
N2950 X135.847 Y17.375
N2955 X135.448 Y17.276
N2960 X135.045 Y17.192
N2965 X134.639 Y17.123
N2970 X134.232 Y17.069
N2975 X133.822 Y17.031
N2980 X133.411 Y17.008
N2985 X133 Y17
N2990 X107
N2995 X106.589 Y17.008
N3000 X106.178 Y17.031
N3005 X105.768 Y17.069
N3010 X105.361 Y17.123
N3015 X104.955 Y17.192
N3020 X104.552 Y17.276
N3025 X104.153 Y17.375
N3030 X103.758 Y17.489
N3035 X103.367 Y17.617
N3040 X102.981 Y17.76
N3045 X102.601 Y17.918
N3050 X102.227 Y18.089
N3055 X101.86 Y18.275
N3060 X101.5 Y18.474
N3065 X101.148 Y18.686
N3070 X100.803 Y18.911
N3075 X100.468 Y19.149
N3080 X100.142 Y19.4
N3085 X99.825 Y19.662
N3090 X99.518 Y19.936
N3095 X99.222 Y20.222
N3100 X98.936 Y20.518
N3105 X98.662 Y20.825
N3110 X98.4 Y21.142
N3115 X98.149 Y21.468
N3120 X97.911 Y21.803
N3125 X97.686 Y22.148
N3130 X97.474 Y22.5
N3135 X97.275 Y22.86
N3140 X97.089 Y23.227
N3145 X96.918 Y23.601
N3150 X96.76 Y23.981
N3155 X96.617 Y24.367
N3160 X96.489 Y24.758
N3165 X96.375 Y25.153
N3170 X96.276 Y25.552
N3175 X96.192 Y25.955
N3180 X96.123 Y26.361
N3185 X96.069 Y26.768
N3190 X96.031 Y27.178
N3195 X96.008 Y27.589
N3200 X96 Y28
N3205 Y70
N3210 X95.992 Y70.125
N3215 X95.969 Y70.249
N3220 X95.93 Y70.368
N3225 X95.876 Y70.482
N3230 X95.809 Y70.588
N3235 X95.729 Y70.685
N3240 X95.637 Y70.771
N3245 X95.536 Y70.844
N3250 X95.426 Y70.905
N3255 X95.309 Y70.951
N3260 X95.187 Y70.982
N3265 X95.063 Y70.998
N3270 X94.937
N3275 X94.813 Y70.982
N3280 X94.691 Y70.951
N3285 X94.574 Y70.905
N3290 X94.464 Y70.844
N3295 X94.363 Y70.771
N3300 X94.271 Y70.685
N3305 X94.191 Y70.588
N3310 X94.124 Y70.482
N3315 X94.07 Y70.368
N3320 X94.031 Y70.249
N3325 X94.008 Y70.125
N3330 X94 Y70
N3335 Y28
N3340 X93.992 Y27.589
N3345 X93.969 Y27.178
N3350 X93.931 Y26.768
N3355 X93.877 Y26.361
N3360 X93.808 Y25.955
N3365 X93.724 Y25.552
N3370 X93.625 Y25.153
N3375 X93.511 Y24.758
N3380 X93.383 Y24.367
N3385 X93.24 Y23.981
N3390 X93.082 Y23.601
N3395 X92.911 Y23.227
N3400 X92.725 Y22.86
N3405 X92.526 Y22.5
N3410 X92.314 Y22.148
N3415 X92.089 Y21.803
N3420 X91.851 Y21.468
N3425 X91.6 Y21.142
N3430 X91.338 Y20.825
N3435 X91.064 Y20.518
N3440 X90.778 Y20.222
N3445 X90.482 Y19.936
N3450 X90.175 Y19.662
N3455 X89.858 Y19.4
N3460 X89.532 Y19.149
N3465 X89.197 Y18.911
N3470 X88.852 Y18.686
N3475 X88.5 Y18.474
N3480 X88.14 Y18.275
N3485 X87.773 Y18.089
N3490 X87.399 Y17.918
N3495 X87.019 Y17.76
N3500 X86.633 Y17.617
N3505 X86.242 Y17.489
N3510 X85.847 Y17.375
N3515 X85.448 Y17.276
N3520 X85.045 Y17.192
N3525 X84.639 Y17.123
N3530 X84.232 Y17.069
N3535 X83.822 Y17.031
N3540 X83.411 Y17.008
N3545 X83 Y17
N3550 X57
N3555 X56.589 Y17.008
N3560 X56.178 Y17.031
N3565 X55.768 Y17.069
N3570 X55.361 Y17.123
N3575 X54.955 Y17.192
N3580 X54.552 Y17.276
N3585 X54.153 Y17.375
N3590 X53.758 Y17.489
N3595 X53.367 Y17.617
N3600 X52.981 Y17.76
N3605 X52.601 Y17.918
N3610 X52.227 Y18.089
N3615 X51.86 Y18.275
N3620 X51.5 Y18.474
N3625 X51.148 Y18.686
N3630 X50.803 Y18.911
N3635 X50.468 Y19.149
N3640 X50.142 Y19.4
N3645 X49.825 Y19.662
N3650 X49.518 Y19.936
N3655 X49.222 Y20.222
N3660 X48.936 Y20.518
N3665 X48.662 Y20.825
N3670 X48.4 Y21.142
N3675 X48.149 Y21.468
N3680 X47.911 Y21.803
N3685 X47.686 Y22.148
N3690 X47.474 Y22.5
N3695 X47.275 Y22.86
N3700 X47.089 Y23.227
N3705 X46.918 Y23.601
N3710 X46.76 Y23.981
N3715 X46.617 Y24.367
N3720 X46.489 Y24.758
N3725 X46.375 Y25.153
N3730 X46.276 Y25.552
N3735 X46.192 Y25.955
N3740 X46.123 Y26.361
N3745 X46.069 Y26.768
N3750 X46.031 Y27.178
N3755 X46.008 Y27.589
N3760 X46 Y28
N3765 Y70
N3770 X45.992 Y70.125
N3775 X45.969 Y70.249
N3780 X45.93 Y70.368
N3785 X45.876 Y70.482
N3790 X45.809 Y70.588
N3795 X45.729 Y70.685
N3800 X45.637 Y70.771
N3805 X45.536 Y70.844
N3810 X45.426 Y70.905
N3815 X45.309 Y70.951
N3820 X45.187 Y70.982
N3825 X45.063 Y70.998
N3830 X44.937
N3835 X44.813 Y70.982
N3840 X44.691 Y70.951
N3845 X44.574 Y70.905
N3850 X44.464 Y70.844
N3855 X44.363 Y70.771
N3860 X44.271 Y70.685
N3865 X44.191 Y70.588
N3870 X44.124 Y70.482
N3875 X44.07 Y70.368
N3880 X44.031 Y70.249
N3885 X44.008 Y70.125
N3890 X44 Y70
N3895 Y28
N3900 X43.992 Y27.589
N3905 X43.969 Y27.178
N3910 X43.931 Y26.768
N3915 X43.877 Y26.361
N3920 X43.808 Y25.955
N3925 X43.724 Y25.552
N3930 X43.625 Y25.153
N3935 X43.511 Y24.758
N3940 X43.383 Y24.367
N3945 X43.24 Y23.981
N3950 X43.082 Y23.601
N3955 X42.911 Y23.227
N3960 X42.725 Y22.86
N3965 X42.526 Y22.5
N3970 X42.314 Y22.148
N3975 X42.089 Y21.803
N3980 X41.851 Y21.468
N3985 X41.6 Y21.142
N3990 X41.338 Y20.825
N3995 X41.064 Y20.518
N4000 X40.778 Y20.222
N4005 X40.482 Y19.936
N4010 X40.175 Y19.662
N4015 X39.858 Y19.4
N4020 X39.532 Y19.149
N4025 X39.197 Y18.911
N4030 X38.852 Y18.686
N4035 X38.5 Y18.474
N4040 X38.14 Y18.275
N4045 X37.773 Y18.089
N4050 X37.399 Y17.918
N4055 X37.019 Y17.76
N4060 X36.633 Y17.617
N4065 X36.242 Y17.489
N4070 X35.847 Y17.375
N4075 X35.448 Y17.276
N4080 X35.045 Y17.192
N4085 X34.639 Y17.123
N4090 X34.232 Y17.069
N4095 X33.822 Y17.031
N4100 X33.411 Y17.008
N4105 X33 Y17
N4110 X20
N4115 X19.786 Y17.008
N4120 X19.573 Y17.031
N4125 X19.362 Y17.069
N4130 X19.155 Y17.122
N4135 X18.952 Y17.189
N4140 X18.754 Y17.271
N4145 X18.562 Y17.367
N4150 X18.378 Y17.476
N4155 X18.202 Y17.598
N4160 X18.035 Y17.733
N4165 X17.879 Y17.879
N4170 X17.733 Y18.035
N4175 X17.598 Y18.202
N4180 X17.476 Y18.378
N4185 X17.367 Y18.562
N4190 X17.271 Y18.754
N4195 X17.189 Y18.952
N4200 X17.122 Y19.155
N4205 X17.069 Y19.362
N4210 X17.031 Y19.573
N4215 X17.008 Y19.786
N4220 X17 Y20
N4225 Y170
N4230 X17.008 Y170.214
N4235 X17.031 Y170.427
N4240 X17.069 Y170.638
N4245 X17.122 Y170.845
N4250 X17.189 Y171.048
N4255 X17.271 Y171.246
N4260 X17.367 Y171.438
N4265 X17.476 Y171.622
N4270 X17.598 Y171.798
N4275 X17.733 Y171.965
N4280 X17.879 Y172.121
N4285 X18.035 Y172.267
N4290 X18.202 Y172.402
N4295 X18.378 Y172.524
N4300 X18.562 Y172.633
N4305 X18.754 Y172.729
N4310 X18.952 Y172.811
N4315 X19.155 Y172.878
N4320 X19.362 Y172.931
N4325 X19.573 Y172.969
N4330 X19.786 Y172.992
N4335 X20 Y173
N4340 X620
N4345 X620.214 Y172.992
N4350 X620.427 Y172.969
N4355 X620.638 Y172.931
N4360 X620.845 Y172.878
N4365 X621.048 Y172.811
N4370 X621.246 Y172.729
N4375 X621.438 Y172.633
N4380 X621.622 Y172.524
N4385 X621.798 Y172.402
N4390 X621.965 Y172.267
N4395 X622.121 Y172.121
N4400 X622.267 Y171.965
N4405 X622.402 Y171.798
N4410 X622.524 Y171.622
N4415 X622.633 Y171.438
N4420 X622.729 Y171.246
N4425 X622.811 Y171.048
N4430 X622.878 Y170.845
N4435 X622.931 Y170.638
N4440 X622.969 Y170.427
N4445 X622.992 Y170.214
N4450 X623 Y170
N4455 Y20
N4460 X622.992 Y19.786
N4465 X622.969 Y19.573
N4470 X622.931 Y19.362
N4475 X622.878 Y19.155
N4480 X622.811 Y18.952
N4485 X622.729 Y18.754
N4490 X622.633 Y18.562
N4495 X622.524 Y18.378
N4500 X622.402 Y18.202
N4505 X622.267 Y18.035
N4510 X622.121 Y17.879
N4515 X621.965 Y17.733
N4520 X621.798 Y17.598
N4525 X621.622 Y17.476
N4530 X621.438 Y17.367
N4535 X621.246 Y17.271
N4540 X621.048 Y17.189
N4545 X620.845 Y17.122
N4550 X620.638 Y17.069
N4555 X620.427 Y17.031
N4560 X620.214 Y17.008
N4565 X620 Y17
N4570 X607
N4575 X606.589 Y17.008
N4580 X606.178 Y17.031
N4585 X605.768 Y17.069
N4590 X605.361 Y17.123
N4595 X604.955 Y17.192
N4600 X604.552 Y17.276
N4605 X604.153 Y17.375
N4610 X603.758 Y17.489
N4615 X603.367 Y17.617
N4620 X602.981 Y17.76
N4625 X602.601 Y17.918
N4630 X602.227 Y18.089
N4635 X601.86 Y18.275
N4640 X601.5 Y18.474
N4645 X601.148 Y18.686
N4650 X600.803 Y18.911
N4655 X600.468 Y19.149
N4660 X600.142 Y19.4
N4665 X599.825 Y19.662
N4670 X599.518 Y19.936
N4675 X599.222 Y20.222
N4680 X598.936 Y20.518
N4685 X598.662 Y20.825
N4690 X598.4 Y21.142
N4695 X598.149 Y21.468
N4700 X597.911 Y21.803
N4705 X597.686 Y22.148
N4710 X597.474 Y22.5
N4715 X597.275 Y22.86
N4720 X597.089 Y23.227
N4725 X596.918 Y23.601
N4730 X596.76 Y23.981
N4735 X596.617 Y24.367
N4740 X596.489 Y24.758
N4745 X596.375 Y25.153
N4750 X596.276 Y25.552
N4755 X596.192 Y25.955
N4760 X596.123 Y26.361
N4765 X596.069 Y26.768
N4770 X596.031 Y27.178
N4775 X596.008 Y27.589
N4780 X596 Y28
N4785 Y70
N4790 X595.992 Y70.125
N4795 X595.969 Y70.249
N4800 X595.93 Y70.368
N4805 X595.876 Y70.482
N4810 X595.809 Y70.588
N4815 X595.729 Y70.685
N4820 X595.637 Y70.771
N4825 X595.536 Y70.844
N4830 X595.426 Y70.905
N4835 X595.309 Y70.951
N4840 X595.187 Y70.982
N4845 X595.063 Y70.998
N4850 X594.937
N4855 X594.813 Y70.982
N4860 X594.691 Y70.951
N4865 X594.574 Y70.905
N4870 X594.464 Y70.844
N4875 X594.363 Y70.771
N4880 X594.271 Y70.685
N4885 X594.191 Y70.588
N4890 X594.124 Y70.482
N4895 X594.07 Y70.368
N4900 X594.031 Y70.249
N4905 X594.008 Y70.125
N4910 X594 Y70
N4915 Y28
N4920 X593.992 Y27.589
N4925 X593.969 Y27.178
N4930 X593.931 Y26.768
N4935 X593.877 Y26.361
N4940 X593.808 Y25.955
N4945 X593.724 Y25.552
N4950 X593.625 Y25.153
N4955 X593.511 Y24.758
N4960 X593.383 Y24.367
N4965 X593.24 Y23.981
N4970 X593.082 Y23.601
N4975 X592.911 Y23.227
N4980 X592.725 Y22.86
N4985 X592.526 Y22.5
N4990 X592.314 Y22.148
N4995 X592.089 Y21.803
N5000 X591.851 Y21.468
N5005 X591.6 Y21.142
N5010 X591.338 Y20.825
N5015 X591.064 Y20.518
N5020 X590.778 Y20.222
N5025 X590.482 Y19.936
N5030 X590.175 Y19.662
N5035 X589.858 Y19.4
N5040 X589.532 Y19.149
N5045 X589.197 Y18.911
N5050 X588.852 Y18.686
N5055 X588.5 Y18.474
N5060 X588.14 Y18.275
N5065 X587.773 Y18.089
N5070 X587.399 Y17.918
N5075 X587.019 Y17.76
N5080 X586.633 Y17.617
N5085 X586.242 Y17.489
N5090 X585.847 Y17.375
N5095 X585.448 Y17.276
N5100 X585.045 Y17.192
N5105 X584.639 Y17.123
N5110 X584.232 Y17.069
N5115 X583.822 Y17.031
N5120 X583.411 Y17.008
N5125 X583 Y17
N5130 X557
N5135 X556.589 Y17.008
N5140 X556.178 Y17.031
N5145 X555.768 Y17.069
N5150 X555.361 Y17.123
N5155 X554.955 Y17.192
N5160 X554.552 Y17.276
N5165 X554.153 Y17.375
N5170 X553.758 Y17.489
N5175 X553.367 Y17.617
N5180 X552.981 Y17.76
N5185 X552.601 Y17.918
N5190 X552.227 Y18.089
N5195 X551.86 Y18.275
N5200 X551.5 Y18.474
N5205 X551.148 Y18.686
N5210 X550.803 Y18.911
N5215 X550.468 Y19.149
N5220 X550.142 Y19.4
N5225 X549.825 Y19.662
N5230 X549.518 Y19.936
N5235 X549.222 Y20.222
N5240 X548.936 Y20.518
N5245 X548.662 Y20.825
N5250 X548.4 Y21.142
N5255 X548.149 Y21.468
N5260 X547.911 Y21.803
N5265 X547.686 Y22.148
N5270 X547.474 Y22.5
N5275 X547.275 Y22.86
N5280 X547.089 Y23.227
N5285 X546.918 Y23.601
N5290 X546.76 Y23.981
N5295 X546.617 Y24.367
N5300 X546.489 Y24.758
N5305 X546.375 Y25.153
N5310 X546.276 Y25.552
N5315 X546.192 Y25.955
N5320 X546.123 Y26.361
N5325 X546.069 Y26.768
N5330 X546.031 Y27.178
N5335 X546.008 Y27.589
N5340 X546 Y28
N5345 Y70
N5350 X545.992 Y70.125
N5355 X545.969 Y70.249
N5360 X545.93 Y70.368
N5365 X545.876 Y70.482
N5370 X545.809 Y70.588
N5375 X545.729 Y70.685
N5380 X545.637 Y70.771
N5385 X545.536 Y70.844
N5390 X545.426 Y70.905
N5395 X545.309 Y70.951
N5400 X545.187 Y70.982
N5405 X545.063 Y70.998
N5410 X544.937
N5415 X544.813 Y70.982
N5420 X544.691 Y70.951
N5425 X544.574 Y70.905
N5430 X544.464 Y70.844
N5435 X544.363 Y70.771
N5440 X544.271 Y70.685
N5445 X544.191 Y70.588
N5450 X544.124 Y70.482
N5455 X544.07 Y70.368
N5460 X544.031 Y70.249
N5465 X544.008 Y70.125
N5470 X544 Y70
N5475 Y28
N5480 X543.992 Y27.589
N5485 X543.969 Y27.178
N5490 X543.931 Y26.768
N5495 X543.877 Y26.361
N5500 X543.808 Y25.955
N5505 X543.724 Y25.552
N5510 X543.625 Y25.153
N5515 X543.511 Y24.758
N5520 X543.383 Y24.367
N5525 X543.24 Y23.981
N5530 X543.082 Y23.601
N5535 X542.911 Y23.227
N5540 X542.725 Y22.86
N5545 X542.526 Y22.5
N5550 X542.314 Y22.148
N5555 X542.089 Y21.803
N5560 X541.851 Y21.468
N5565 X541.6 Y21.142
N5570 X541.338 Y20.825
N5575 X541.064 Y20.518
N5580 X540.778 Y20.222
N5585 X540.482 Y19.936
N5590 X540.175 Y19.662
N5595 X539.858 Y19.4
N5600 X539.532 Y19.149
N5605 X539.197 Y18.911
N5610 X538.852 Y18.686
N5615 X538.5 Y18.474
N5620 X538.14 Y18.275
N5625 X537.773 Y18.089
N5630 X537.399 Y17.918
N5635 X537.019 Y17.76
N5640 X536.633 Y17.617
N5645 X536.242 Y17.489
N5650 X535.847 Y17.375
N5655 X535.448 Y17.276
N5660 X535.045 Y17.192
N5665 X534.639 Y17.123
N5670 X534.232 Y17.069
N5675 X533.822 Y17.031
N5680 X533.411 Y17.008
N5685 X533 Y17
N5690 X507
N5695 X506.589 Y17.008
N5700 X506.178 Y17.031
N5705 X505.768 Y17.069
N5710 X505.361 Y17.123
N5715 X504.955 Y17.192
N5720 X504.552 Y17.276
N5725 X504.153 Y17.375
N5730 X503.758 Y17.489
N5735 X503.367 Y17.617
N5740 X502.981 Y17.76
N5745 X502.601 Y17.918
N5750 X502.227 Y18.089
N5755 X501.86 Y18.275
N5760 X501.5 Y18.474
N5765 X501.148 Y18.686
N5770 X500.803 Y18.911
N5775 X500.468 Y19.149
N5780 X500.142 Y19.4
N5785 X499.825 Y19.662
N5790 X499.518 Y19.936
N5795 X499.222 Y20.222
N5800 X498.936 Y20.518
N5805 X498.662 Y20.825
N5810 X498.4 Y21.142
N5815 X498.149 Y21.468
N5820 X497.911 Y21.803
N5825 X497.686 Y22.148
N5830 X497.474 Y22.5
N5835 X497.275 Y22.86
N5840 X497.089 Y23.227
N5845 X496.918 Y23.601
N5850 X496.76 Y23.981
N5855 X496.617 Y24.367
N5860 X496.489 Y24.758
N5865 X496.375 Y25.153
N5870 X496.276 Y25.552
N5875 X496.192 Y25.955
N5880 X496.123 Y26.361
N5885 X496.069 Y26.768
N5890 X496.031 Y27.178
N5895 X496.008 Y27.589
N5900 X496 Y28
N5905 Y70
N5910 X495.992 Y70.125
N5915 X495.969 Y70.249
N5920 X495.93 Y70.368
N5925 X495.876 Y70.482
N5930 X495.809 Y70.588
N5935 X495.729 Y70.685
N5940 X495.637 Y70.771
N5945 X495.536 Y70.844
N5950 X495.426 Y70.905
N5955 X495.309 Y70.951
N5960 X495.187 Y70.982
N5965 X495.063 Y70.998
N5970 X494.937
N5975 X494.813 Y70.982
N5980 X494.691 Y70.951
N5985 X494.574 Y70.905
N5990 X494.464 Y70.844
N5995 X494.363 Y70.771
N6000 X494.271 Y70.685
N6005 X494.191 Y70.588
N6010 X494.124 Y70.482
N6015 X494.07 Y70.368
N6020 X494.031 Y70.249
N6025 X494.008 Y70.125
N6030 X494 Y70
N6035 Y28
N6040 X493.992 Y27.589
N6045 X493.969 Y27.178
N6050 X493.931 Y26.768
N6055 X493.877 Y26.361
N6060 X493.808 Y25.955
N6065 X493.724 Y25.552
N6070 X493.625 Y25.153
N6075 X493.511 Y24.758
N6080 X493.383 Y24.367
N6085 X493.24 Y23.981
N6090 X493.082 Y23.601
N6095 X492.911 Y23.227
N6100 X492.725 Y22.86
N6105 X492.526 Y22.5
N6110 X492.314 Y22.148
N6115 X492.089 Y21.803
N6120 X491.851 Y21.468
N6125 X491.6 Y21.142
N6130 X491.338 Y20.825
N6135 X491.064 Y20.518
N6140 X490.778 Y20.222
N6145 X490.482 Y19.936
N6150 X490.175 Y19.662
N6155 X489.858 Y19.4
N6160 X489.532 Y19.149
N6165 X489.197 Y18.911
N6170 X488.852 Y18.686
N6175 X488.5 Y18.474
N6180 X488.14 Y18.275
N6185 X487.773 Y18.089
N6190 X487.399 Y17.918
N6195 X487.019 Y17.76
N6200 X486.633 Y17.617
N6205 X486.242 Y17.489
N6210 X485.847 Y17.375
N6215 X485.448 Y17.276
N6220 X485.045 Y17.192
N6225 X484.639 Y17.123
N6230 X484.232 Y17.069
N6235 X483.822 Y17.031
N6240 X483.411 Y17.008
N6245 X483 Y17
N6250 X457
N6255 X456.589 Y17.008
N6260 X456.178 Y17.031
N6265 X455.768 Y17.069
N6270 X455.361 Y17.123
N6275 X454.955 Y17.192
N6280 X454.552 Y17.276
N6285 X454.153 Y17.375
N6290 X453.758 Y17.489
N6295 X453.367 Y17.617
N6300 X452.981 Y17.76
N6305 X452.601 Y17.918
N6310 X452.227 Y18.089
N6315 X451.86 Y18.275
N6320 X451.5 Y18.474
N6325 X451.148 Y18.686
N6330 X450.803 Y18.911
N6335 X450.468 Y19.149
N6340 X450.142 Y19.4
N6345 X449.825 Y19.662
N6350 X449.518 Y19.936
N6355 X449.222 Y20.222
N6360 X448.936 Y20.518
N6365 X448.662 Y20.825
N6370 X448.4 Y21.142
N6375 X448.149 Y21.468
N6380 X447.911 Y21.803
N6385 X447.686 Y22.148
N6390 X447.474 Y22.5
N6395 X447.275 Y22.86
N6400 X447.089 Y23.227
N6405 X446.918 Y23.601
N6410 X446.76 Y23.981
N6415 X446.617 Y24.367
N6420 X446.489 Y24.758
N6425 X446.375 Y25.153
N6430 X446.276 Y25.552
N6435 X446.192 Y25.955
N6440 X446.123 Y26.361
N6445 X446.069 Y26.768
N6450 X446.031 Y27.178
N6455 X446.008 Y27.589
N6460 X446 Y28
N6465 Y70
N6470 X445.992 Y70.125
N6475 X445.969 Y70.249
N6480 X445.93 Y70.368
N6485 X445.876 Y70.482
N6490 X445.809 Y70.588
N6495 X445.729 Y70.685
N6500 X445.637 Y70.771
N6505 X445.536 Y70.844
N6510 X445.426 Y70.905
N6515 X445.309 Y70.951
N6520 X445.187 Y70.982
N6525 X445.063 Y70.998
N6530 X444.937
N6535 X444.813 Y70.982
N6540 X444.691 Y70.951
N6545 X444.574 Y70.905
N6550 X444.464 Y70.844
N6555 X444.363 Y70.771
N6560 X444.271 Y70.685
N6565 X444.191 Y70.588
N6570 X444.124 Y70.482
N6575 X444.07 Y70.368
N6580 X444.031 Y70.249
N6585 X444.008 Y70.125
N6590 X444 Y70
N6595 Y28
N6600 X443.992 Y27.589
N6605 X443.969 Y27.178
N6610 X443.931 Y26.768
N6615 X443.877 Y26.361
N6620 X443.808 Y25.955
N6625 X443.724 Y25.552
N6630 X443.625 Y25.153
N6635 X443.511 Y24.758
N6640 X443.383 Y24.367
N6645 X443.24 Y23.981
N6650 X443.082 Y23.601
N6655 X442.911 Y23.227
N6660 X442.725 Y22.86
N6665 X442.526 Y22.5
N6670 X442.314 Y22.148
N6675 X442.089 Y21.803
N6680 X441.851 Y21.468
N6685 X441.6 Y21.142
N6690 X441.338 Y20.825
N6695 X441.064 Y20.518
N6700 X440.778 Y20.222
N6705 X440.482 Y19.936
N6710 X440.175 Y19.662
N6715 X439.858 Y19.4
N6720 X439.532 Y19.149
N6725 X439.197 Y18.911
N6730 X438.852 Y18.686
N6735 X438.5 Y18.474
N6740 X438.14 Y18.275
N6745 X437.773 Y18.089
N6750 X437.399 Y17.918
N6755 X437.019 Y17.76
N6760 X436.633 Y17.617
N6765 X436.242 Y17.489
N6770 X435.847 Y17.375
N6775 X435.448 Y17.276
N6780 X435.045 Y17.192
N6785 X434.639 Y17.123
N6790 X434.232 Y17.069
N6795 X433.822 Y17.031
N6800 X433.411 Y17.008
N6805 X433 Y17
N6810 X407
N6815 X406.589 Y17.008
N6820 X406.178 Y17.031
N6825 X405.768 Y17.069
N6830 X405.361 Y17.123
N6835 X404.955 Y17.192
N6840 X404.552 Y17.276
N6845 X404.153 Y17.375
N6850 X403.758 Y17.489
N6855 X403.367 Y17.617
N6860 X402.981 Y17.76
N6865 X402.601 Y17.918
N6870 X402.227 Y18.089
N6875 X401.86 Y18.275
N6880 X401.5 Y18.474
N6885 X401.148 Y18.686
N6890 X400.803 Y18.911
N6895 X400.468 Y19.149
N6900 X400.142 Y19.4
N6905 X399.825 Y19.662
N6910 X399.518 Y19.936
N6915 X399.222 Y20.222
N6920 X398.936 Y20.518
N6925 X398.662 Y20.825
N6930 X398.4 Y21.142
N6935 X398.149 Y21.468
N6940 X397.911 Y21.803
N6945 X397.686 Y22.148
N6950 X397.474 Y22.5
N6955 X397.275 Y22.86
N6960 X397.089 Y23.227
N6965 X396.918 Y23.601
N6970 X396.76 Y23.981
N6975 X396.617 Y24.367
N6980 X396.489 Y24.758
N6985 X396.375 Y25.153
N6990 X396.276 Y25.552
N6995 X396.192 Y25.955
N7000 X396.123 Y26.361
N7005 X396.069 Y26.768
N7010 X396.031 Y27.178
N7015 X396.008 Y27.589
N7020 X396 Y28
N7025 Y70
N7030 X395.992 Y70.125
N7035 X395.969 Y70.249
N7040 X395.93 Y70.368
N7045 X395.876 Y70.482
N7050 X395.809 Y70.588
N7055 X395.729 Y70.685
N7060 X395.637 Y70.771
N7065 X395.536 Y70.844
N7070 X395.426 Y70.905
N7075 X395.309 Y70.951
N7080 X395.187 Y70.982
N7085 X395.063 Y70.998
N7090 X394.937
N7095 X394.813 Y70.982
N7100 X394.691 Y70.951
N7105 X394.574 Y70.905
N7110 X394.464 Y70.844
N7115 X394.363 Y70.771
N7120 X394.271 Y70.685
N7125 X394.191 Y70.588
N7130 X394.124 Y70.482
N7135 X394.07 Y70.368
N7140 X394.031 Y70.249
N7145 X394.008 Y70.125
N7150 X394 Y70
N7155 Y28
N7160 X393.992 Y27.589
N7165 X393.969 Y27.178
N7170 X393.931 Y26.768
N7175 X393.877 Y26.361
N7180 X393.808 Y25.955
N7185 X393.724 Y25.552
N7190 X393.625 Y25.153
N7195 X393.511 Y24.758
N7200 X393.383 Y24.367
N7205 X393.24 Y23.981
N7210 X393.082 Y23.601
N7215 X392.911 Y23.227
N7220 X392.725 Y22.86
N7225 X392.526 Y22.5
N7230 X392.314 Y22.148
N7235 X392.089 Y21.803
N7240 X391.851 Y21.468
N7245 X391.6 Y21.142
N7250 X391.338 Y20.825
N7255 X391.064 Y20.518
N7260 X390.778 Y20.222
N7265 X390.482 Y19.936
N7270 X390.175 Y19.662
N7275 X389.858 Y19.4
N7280 X389.532 Y19.149
N7285 X389.197 Y18.911
N7290 X388.852 Y18.686
N7295 X388.5 Y18.474
N7300 X388.14 Y18.275
N7305 X387.773 Y18.089
N7310 X387.399 Y17.918
N7315 X387.019 Y17.76
N7320 X386.633 Y17.617
N7325 X386.242 Y17.489
N7330 X385.847 Y17.375
N7335 X385.448 Y17.276
N7340 X385.045 Y17.192
N7345 X384.639 Y17.123
N7350 X384.232 Y17.069
N7355 X383.822 Y17.031
N7360 X383.411 Y17.008
N7365 X383 Y17
N7370 X357
N7375 X356.589 Y17.008
N7380 X356.178 Y17.031
N7385 X355.768 Y17.069
N7390 X355.361 Y17.123
N7395 X354.955 Y17.192
N7400 X354.552 Y17.276
N7405 X354.153 Y17.375
N7410 X353.758 Y17.489
N7415 X353.367 Y17.617
N7420 X352.981 Y17.76
N7425 X352.601 Y17.918
N7430 X352.227 Y18.089
N7435 X351.86 Y18.275
N7440 X351.5 Y18.474
N7445 X351.148 Y18.686
N7450 X350.803 Y18.911
N7455 X350.468 Y19.149
N7460 X350.142 Y19.4
N7465 X349.825 Y19.662
N7470 X349.518 Y19.936
N7475 X349.222 Y20.222
N7480 X348.936 Y20.518
N7485 X348.662 Y20.825
N7490 X348.4 Y21.142
N7495 X348.149 Y21.468
N7500 X347.911 Y21.803
N7505 X347.686 Y22.148
N7510 X347.474 Y22.5
N7515 X347.275 Y22.86
N7520 X347.089 Y23.227
N7525 X346.918 Y23.601
N7530 X346.76 Y23.981
N7535 X346.617 Y24.367
N7540 X346.489 Y24.758
N7545 X346.375 Y25.153
N7550 X346.276 Y25.552
N7555 X346.192 Y25.955
N7560 X346.123 Y26.361
N7565 X346.069 Y26.768
N7570 X346.031 Y27.178
N7575 X346.008 Y27.589
N7580 X346 Y28
N7585 Y70
N7590 X345.992 Y70.125
N7595 X345.969 Y70.249
N7600 X345.93 Y70.368
N7605 X345.876 Y70.482
N7610 X345.809 Y70.588
N7615 X345.729 Y70.685
N7620 X345.637 Y70.771
N7625 X345.536 Y70.844
N7630 X345.426 Y70.905
N7635 X345.309 Y70.951
N7640 X345.187 Y70.982
N7645 X345.063 Y70.998
N7650 X344.937
N7655 X344.813 Y70.982
N7660 X344.691 Y70.951
N7665 X344.574 Y70.905
N7670 X344.464 Y70.844
N7675 X344.363 Y70.771
N7680 X344.271 Y70.685
N7685 X344.191 Y70.588
N7690 X344.124 Y70.482
N7695 X344.07 Y70.368
N7700 X344.031 Y70.249
N7705 X344.008 Y70.125
N7710 X344 Y70
N7715 Y28
N7720 X343.992 Y27.589
N7725 X343.969 Y27.178
N7730 X343.931 Y26.768
N7735 X343.877 Y26.361
N7740 X343.808 Y25.955
N7745 X343.724 Y25.552
N7750 X343.625 Y25.153
N7755 X343.511 Y24.758
N7760 X343.383 Y24.367
N7765 X343.24 Y23.981
N7770 X343.082 Y23.601
N7775 X342.911 Y23.227
N7780 X342.725 Y22.86
N7785 X342.526 Y22.5
N7790 X342.314 Y22.148
N7795 X342.089 Y21.803
N7800 X341.851 Y21.468
N7805 X341.6 Y21.142
N7810 X341.338 Y20.825
N7815 X341.064 Y20.518
N7820 X340.778 Y20.222
N7825 X340.482 Y19.936
N7830 X340.175 Y19.662
N7835 X339.858 Y19.4
N7840 X339.532 Y19.149
N7845 X339.197 Y18.911
N7850 X338.852 Y18.686
N7855 X338.5 Y18.474
N7860 X338.14 Y18.275
N7865 X337.773 Y18.089
N7870 X337.399 Y17.918
N7875 X337.019 Y17.76
N7880 X336.633 Y17.617
N7885 X336.242 Y17.489
N7890 X335.847 Y17.375
N7895 X335.448 Y17.276
N7900 X335.045 Y17.192
N7905 X334.639 Y17.123
N7910 X334.232 Y17.069
N7915 X333.822 Y17.031
N7920 X333.411 Y17.008
N7925 X333 Y17
N7930 X320
N7935 X307 Z-3.145
N7940 X306.589 Y17.008 Z-3.15
N7945 X306.178 Y17.031 Z-3.154
N7950 X305.768 Y17.069 Z-3.159
N7955 X305.361 Y17.123 Z-3.163
N7960 X304.955 Y17.192 Z-3.168
N7965 X304.552 Y17.276 Z-3.172
N7970 X304.153 Y17.375 Z-3.177
N7975 X303.758 Y17.489 Z-3.182
N7980 X303.367 Y17.617 Z-3.186
N7985 X302.981 Y17.76 Z-3.191
N7990 X302.601 Y17.918 Z-3.195
N7995 X302.227 Y18.089 Z-3.2
N8000 X301.86 Y18.275 Z-3.205
N8005 X301.5 Y18.474 Z-3.209
N8010 X301.148 Y18.686 Z-3.214
N8015 X300.803 Y18.911 Z-3.218
N8020 X300.468 Y19.149 Z-3.223
N8025 X300.142 Y19.4 Z-3.227
N8030 X299.825 Y19.662 Z-3.232
N8035 X299.518 Y19.936 Z-3.237
N8040 X299.222 Y20.222 Z-3.241
N8045 X298.936 Y20.518 Z-3.246
N8050 X298.662 Y20.825 Z-3.25
N8055 X298.4 Y21.142 Z-3.255
N8060 X298.149 Y21.468 Z-3.26
N8065 X297.911 Y21.803 Z-3.264
N8070 X297.686 Y22.148 Z-3.269
N8075 X297.474 Y22.5 Z-3.273
N8080 X297.275 Y22.86 Z-3.278
N8085 X297.089 Y23.227 Z-3.282
N8090 X296.918 Y23.601 Z-3.287
N8095 X296.76 Y23.981 Z-3.292
N8100 X296.617 Y24.367 Z-3.296
N8105 X296.489 Y24.758 Z-3.301
N8110 X296.375 Y25.153 Z-3.305
N8115 X296.276 Y25.552 Z-3.31
N8120 X296.192 Y25.955 Z-3.315
N8125 X296.123 Y26.361 Z-3.319
N8130 X296.069 Y26.768 Z-3.324
N8135 X296.031 Y27.178 Z-3.328
N8140 X296.008 Y27.589 Z-3.333
N8145 X296 Y28 Z-3.338
N8150 Y70 Z-3.806
N8155 X295.992 Y70.125 Z-3.807
N8160 X295.969 Y70.249 Z-3.809
N8165 X295.93 Y70.368 Z-3.81
N8170 X295.876 Y70.482 Z-3.811
N8175 X295.809 Y70.588 Z-3.813
N8180 X295.729 Y70.685 Z-3.814
N8185 X295.637 Y70.771 Z-3.816
N8190 X295.536 Y70.844 Z-3.817
N8195 X295.426 Y70.905 Z-3.818
N8200 X295.309 Y70.951 Z-3.82
N8205 X295.187 Y70.982 Z-3.821
N8210 X295.063 Y70.998 Z-3.823
N8215 X294.937 Z-3.824
N8220 X294.813 Y70.982 Z-3.825
N8225 X294.691 Y70.951 Z-3.827
N8230 X294.574 Y70.905 Z-3.828
N8235 X294.464 Y70.844 Z-3.83
N8240 X294.363 Y70.771 Z-3.831
N8245 X294.271 Y70.685 Z-3.832
N8250 X294.191 Y70.588 Z-3.834
N8255 X294.124 Y70.482 Z-3.835
N8260 X294.07 Y70.368 Z-3.837
N8265 X294.031 Y70.249 Z-3.838
N8270 X294.008 Y70.125 Z-3.839
N8275 X294 Y70 Z-3.841
N8280 Y28 Z-4.309
N8285 X293.992 Y27.589 Z-4.314
N8290 X293.969 Y27.178 Z-4.318
N8295 X293.931 Y26.768 Z-4.323
N8300 X293.877 Y26.361 Z-4.327
N8305 X293.808 Y25.955 Z-4.332
N8310 X293.724 Y25.552 Z-4.336
N8315 X293.625 Y25.153 Z-4.341
N8320 X293.511 Y24.758 Z-4.346
N8325 X293.383 Y24.367 Z-4.35
N8330 X293.24 Y23.981 Z-4.355
N8335 X293.082 Y23.601 Z-4.359
N8340 X292.911 Y23.227 Z-4.364
N8345 X292.725 Y22.86 Z-4.369
N8350 X292.526 Y22.5 Z-4.373
N8355 X292.314 Y22.148 Z-4.378
N8360 X292.089 Y21.803 Z-4.382
N8365 X291.851 Y21.468 Z-4.387
N8370 X291.6 Y21.142 Z-4.391
N8375 X291.338 Y20.825 Z-4.396
N8380 X291.064 Y20.518 Z-4.401
N8385 X290.778 Y20.222 Z-4.405
N8390 X290.482 Y19.936 Z-4.41
N8395 X290.175 Y19.662 Z-4.414
N8400 X289.858 Y19.4 Z-4.419
N8405 X289.532 Y19.149 Z-4.424
N8410 X289.197 Y18.911 Z-4.428
N8415 X288.852 Y18.686 Z-4.433
N8420 X288.5 Y18.474 Z-4.437
N8425 X288.14 Y18.275 Z-4.442
N8430 X287.773 Y18.089 Z-4.446
N8435 X287.399 Y17.918 Z-4.451
N8440 X287.019 Y17.76 Z-4.456
N8445 X286.633 Y17.617 Z-4.46
N8450 X286.242 Y17.489 Z-4.465
N8455 X285.847 Y17.375 Z-4.469
N8460 X285.448 Y17.276 Z-4.474
N8465 X285.045 Y17.192 Z-4.479
N8470 X284.639 Y17.123 Z-4.483
N8475 X284.232 Y17.069 Z-4.488
N8480 X283.822 Y17.031 Z-4.492
N8485 X283.411 Y17.008 Z-4.497
N8490 X283 Y17 Z-4.502
N8495 X257 Z-4.791
N8500 X256.589 Y17.008 Z-4.796
N8505 X256.178 Y17.031 Z-4.801
N8510 X255.768 Y17.069 Z-4.805
N8515 X255.361 Y17.123 Z-4.81
N8520 X254.955 Y17.192 Z-4.814
N8525 X254.552 Y17.276 Z-4.819
N8530 X254.153 Y17.375 Z-4.823
N8535 X253.758 Y17.489 Z-4.828
N8540 X253.367 Y17.617 Z-4.833
N8545 X252.981 Y17.76 Z-4.837
N8550 X252.601 Y17.918 Z-4.842
N8555 X252.227 Y18.089 Z-4.846
N8560 X251.86 Y18.275 Z-4.851
N8565 X251.5 Y18.474 Z-4.856
N8570 X251.148 Y18.686 Z-4.86
N8575 X250.803 Y18.911 Z-4.865
N8580 X250.468 Y19.149 Z-4.869
N8585 X250.142 Y19.4 Z-4.874
N8590 X249.825 Y19.662 Z-4.878
N8595 X249.518 Y19.936 Z-4.883
N8600 X249.222 Y20.222 Z-4.888
N8605 X248.936 Y20.518 Z-4.892
N8610 X248.662 Y20.825 Z-4.897
N8615 X248.4 Y21.142 Z-4.901
N8620 X248.149 Y21.468 Z-4.906
N8625 X247.911 Y21.803 Z-4.911
N8630 X247.686 Y22.148 Z-4.915
N8635 X247.474 Y22.5 Z-4.92
N8640 X247.275 Y22.86 Z-4.924
N8645 X247.089 Y23.227 Z-4.929
N8650 X246.918 Y23.601 Z-4.934
N8655 X246.76 Y23.981 Z-4.938
N8660 X246.617 Y24.367 Z-4.943
N8665 X246.489 Y24.758 Z-4.947
N8670 X246.375 Y25.153 Z-4.952
N8675 X246.276 Y25.552 Z-4.956
N8680 X246.192 Y25.955 Z-4.961
N8685 X246.123 Y26.361 Z-4.966
N8690 X246.069 Y26.768 Z-4.97
N8695 X246.031 Y27.178 Z-4.975
N8700 X246.008 Y27.589 Z-4.979
N8705 X246 Y28 Z-4.984
N8710 Y70 Z-5.452
N8715 X245.992 Y70.125 Z-5.454
N8720 X245.969 Y70.249 Z-5.455
N8725 X245.93 Y70.368 Z-5.456
N8730 X245.876 Y70.482 Z-5.458
N8735 X245.809 Y70.588 Z-5.459
N8740 X245.729 Y70.685 Z-5.461
N8745 X245.637 Y70.771 Z-5.462
N8750 X245.536 Y70.844 Z-5.463
N8755 X245.426 Y70.905 Z-5.465
N8760 X245.309 Y70.951 Z-5.466
N8765 X245.187 Y70.982 Z-5.468
N8770 X245.063 Y70.998 Z-5.469
N8775 X244.937 Z-5.47
N8780 X244.813 Y70.982 Z-5.472
N8785 X244.691 Y70.951 Z-5.473
N8790 X244.574 Y70.905 Z-5.475
N8795 X244.464 Y70.844 Z-5.476
N8800 X244.363 Y70.771 Z-5.477
N8805 X244.271 Y70.685 Z-5.479
N8810 X244.191 Y70.588 Z-5.48
N8815 X244.124 Y70.482 Z-5.482
N8820 X244.07 Y70.368 Z-5.483
N8825 X244.031 Y70.249 Z-5.484
N8830 X244.008 Y70.125 Z-5.486
N8835 X244 Y70 Z-5.487
N8840 Y28 Z-5.955
N8845 X243.993 Y27.6 Z-5.96
N8850 X243.971 Y27.2 Z-5.964
N8855 X243.934 Y26.801 Z-5.969
N8860 X243.884 Y26.404 Z-5.973
N8865 X243.818 Y26.009 Z-5.978
N8870 X243.739 Y25.616 Z-5.982
N8875 X243.645 Y25.227 Z-5.987
N8880 X243.537 Y24.842 Z-5.991
N8885 X243.415 Y24.46 Z-5.996
N8890 X243.279 Y24.083 Z-6
N8895 X243.124 Y23.699
N8900 X242.955 Y23.32
N8905 X242.771 Y22.948
N8910 X242.574 Y22.583
N8915 X242.363 Y22.226
N8920 X242.138 Y21.877
N8925 X241.901 Y21.537
N8930 X241.651 Y21.206
N8935 X241.389 Y20.885
N8940 X241.115 Y20.573
N8945 X240.829 Y20.273
N8950 X240.532 Y19.983
N8955 X240.224 Y19.705
N8960 X239.906 Y19.438
N8965 X239.579 Y19.184
N8970 X239.242 Y18.942
N8975 X238.896 Y18.713
N8980 X238.541 Y18.498
N8985 X238.179 Y18.296
N8990 X237.81 Y18.107
N8995 X237.433 Y17.933
N9000 X237.051 Y17.773
N9005 X236.662 Y17.628
N9010 X236.268 Y17.497
N9015 X235.87 Y17.381
N9020 X235.468 Y17.28
N9025 X235.062 Y17.195
N9030 X234.653 Y17.125
N9035 X234.242 Y17.07
N9040 X233.829 Y17.031
N9045 X233.415 Y17.008
N9050 X233 Y17
N9055 X207
N9060 X206.589 Y17.008
N9065 X206.178 Y17.031
N9070 X205.768 Y17.069
N9075 X205.361 Y17.123
N9080 X204.955 Y17.192
N9085 X204.552 Y17.276
N9090 X204.153 Y17.375
N9095 X203.758 Y17.489
N9100 X203.367 Y17.617
N9105 X202.981 Y17.76
N9110 X202.601 Y17.918
N9115 X202.227 Y18.089
N9120 X201.86 Y18.275
N9125 X201.5 Y18.474
N9130 X201.148 Y18.686
N9135 X200.803 Y18.911
N9140 X200.468 Y19.149
N9145 X200.142 Y19.4
N9150 X199.825 Y19.662
N9155 X199.518 Y19.936
N9160 X199.222 Y20.222
N9165 X198.936 Y20.518
N9170 X198.662 Y20.825
N9175 X198.4 Y21.142
N9180 X198.149 Y21.468
N9185 X197.911 Y21.803
N9190 X197.686 Y22.148
N9195 X197.474 Y22.5
N9200 X197.275 Y22.86
N9205 X197.089 Y23.227
N9210 X196.918 Y23.601
N9215 X196.76 Y23.981
N9220 X196.617 Y24.367
N9225 X196.489 Y24.758
N9230 X196.375 Y25.153
N9235 X196.276 Y25.552
N9240 X196.192 Y25.955
N9245 X196.123 Y26.361
N9250 X196.069 Y26.768
N9255 X196.031 Y27.178
N9260 X196.008 Y27.589
N9265 X196 Y28
N9270 Y70
N9275 X195.992 Y70.125
N9280 X195.969 Y70.249
N9285 X195.93 Y70.368
N9290 X195.876 Y70.482
N9295 X195.809 Y70.588
N9300 X195.729 Y70.685
N9305 X195.637 Y70.771
N9310 X195.536 Y70.844
N9315 X195.426 Y70.905
N9320 X195.309 Y70.951
N9325 X195.187 Y70.982
N9330 X195.063 Y70.998
N9335 X194.937
N9340 X194.813 Y70.982
N9345 X194.691 Y70.951
N9350 X194.574 Y70.905
N9355 X194.464 Y70.844
N9360 X194.363 Y70.771
N9365 X194.271 Y70.685
N9370 X194.191 Y70.588
N9375 X194.124 Y70.482
N9380 X194.07 Y70.368
N9385 X194.031 Y70.249
N9390 X194.008 Y70.125
N9395 X194 Y70
N9400 Y28
N9405 X193.992 Y27.589
N9410 X193.969 Y27.178
N9415 X193.931 Y26.768
N9420 X193.877 Y26.361
N9425 X193.808 Y25.955
N9430 X193.724 Y25.552
N9435 X193.625 Y25.153
N9440 X193.511 Y24.758
N9445 X193.383 Y24.367
N9450 X193.24 Y23.981
N9455 X193.082 Y23.601
N9460 X192.911 Y23.227
N9465 X192.725 Y22.86
N9470 X192.526 Y22.5
N9475 X192.314 Y22.148
N9480 X192.089 Y21.803
N9485 X191.851 Y21.468
N9490 X191.6 Y21.142
N9495 X191.338 Y20.825
N9500 X191.064 Y20.518
N9505 X190.778 Y20.222
N9510 X190.482 Y19.936
N9515 X190.175 Y19.662
N9520 X189.858 Y19.4
N9525 X189.532 Y19.149
N9530 X189.197 Y18.911
N9535 X188.852 Y18.686
N9540 X188.5 Y18.474
N9545 X188.14 Y18.275
N9550 X187.773 Y18.089
N9555 X187.399 Y17.918
N9560 X187.019 Y17.76
N9565 X186.633 Y17.617
N9570 X186.242 Y17.489
N9575 X185.847 Y17.375
N9580 X185.448 Y17.276
N9585 X185.045 Y17.192
N9590 X184.639 Y17.123
N9595 X184.232 Y17.069
N9600 X183.822 Y17.031
N9605 X183.411 Y17.008
N9610 X183 Y17
N9615 X157
N9620 X156.589 Y17.008
N9625 X156.178 Y17.031
N9630 X155.768 Y17.069
N9635 X155.361 Y17.123
N9640 X154.955 Y17.192
N9645 X154.552 Y17.276
N9650 X154.153 Y17.375
N9655 X153.758 Y17.489
N9660 X153.367 Y17.617
N9665 X152.981 Y17.76
N9670 X152.601 Y17.918
N9675 X152.227 Y18.089
N9680 X151.86 Y18.275
N9685 X151.5 Y18.474
N9690 X151.148 Y18.686
N9695 X150.803 Y18.911
N9700 X150.468 Y19.149
N9705 X150.142 Y19.4
N9710 X149.825 Y19.662
N9715 X149.518 Y19.936
N9720 X149.222 Y20.222
N9725 X148.936 Y20.518
N9730 X148.662 Y20.825
N9735 X148.4 Y21.142
N9740 X148.149 Y21.468
N9745 X147.911 Y21.803
N9750 X147.686 Y22.148
N9755 X147.474 Y22.5
N9760 X147.275 Y22.86
N9765 X147.089 Y23.227
N9770 X146.918 Y23.601
N9775 X146.76 Y23.981
N9780 X146.617 Y24.367
N9785 X146.489 Y24.758
N9790 X146.375 Y25.153
N9795 X146.276 Y25.552
N9800 X146.192 Y25.955
N9805 X146.123 Y26.361
N9810 X146.069 Y26.768
N9815 X146.031 Y27.178
N9820 X146.008 Y27.589
N9825 X146 Y28
N9830 Y70
N9835 X145.992 Y70.125
N9840 X145.969 Y70.249
N9845 X145.93 Y70.368
N9850 X145.876 Y70.482
N9855 X145.809 Y70.588
N9860 X145.729 Y70.685
N9865 X145.637 Y70.771
N9870 X145.536 Y70.844
N9875 X145.426 Y70.905
N9880 X145.309 Y70.951
N9885 X145.187 Y70.982
N9890 X145.063 Y70.998
N9895 X144.937
N9900 X144.813 Y70.982
N9905 X144.691 Y70.951
N9910 X144.574 Y70.905
N9915 X144.464 Y70.844
N9920 X144.363 Y70.771
N9925 X144.271 Y70.685
N9930 X144.191 Y70.588
N9935 X144.124 Y70.482
N9940 X144.07 Y70.368
N9945 X144.031 Y70.249
N9950 X144.008 Y70.125
N9955 X144 Y70
N9960 Y28
N9965 X143.992 Y27.589
N9970 X143.969 Y27.178
N9975 X143.931 Y26.768
N9980 X143.877 Y26.361
N9985 X143.808 Y25.955
N9990 X143.724 Y25.552
N9995 X143.625 Y25.153
N10000 X143.511 Y24.758
N10005 X143.383 Y24.367
N10010 X143.24 Y23.981
N10015 X143.082 Y23.601
N10020 X142.911 Y23.227
N10025 X142.725 Y22.86
N10030 X142.526 Y22.5
N10035 X142.314 Y22.148
N10040 X142.089 Y21.803
N10045 X141.851 Y21.468
N10050 X141.6 Y21.142
N10055 X141.338 Y20.825
N10060 X141.064 Y20.518
N10065 X140.778 Y20.222
N10070 X140.482 Y19.936
N10075 X140.175 Y19.662
N10080 X139.858 Y19.4
N10085 X139.532 Y19.149
N10090 X139.197 Y18.911
N10095 X138.852 Y18.686
N10100 X138.5 Y18.474
N10105 X138.14 Y18.275
N10110 X137.773 Y18.089
N10115 X137.399 Y17.918
N10120 X137.019 Y17.76
N10125 X136.633 Y17.617
N10130 X136.242 Y17.489
N10135 X135.847 Y17.375
N10140 X135.448 Y17.276
N10145 X135.045 Y17.192
N10150 X134.639 Y17.123
N10155 X134.232 Y17.069
N10160 X133.822 Y17.031
N10165 X133.411 Y17.008
N10170 X133 Y17
N10175 X107
N10180 X106.589 Y17.008
N10185 X106.178 Y17.031
N10190 X105.768 Y17.069
N10195 X105.361 Y17.123
N10200 X104.955 Y17.192
N10205 X104.552 Y17.276
N10210 X104.153 Y17.375
N10215 X103.758 Y17.489
N10220 X103.367 Y17.617
N10225 X102.981 Y17.76
N10230 X102.601 Y17.918
N10235 X102.227 Y18.089
N10240 X101.86 Y18.275
N10245 X101.5 Y18.474
N10250 X101.148 Y18.686
N10255 X100.803 Y18.911
N10260 X100.468 Y19.149
N10265 X100.142 Y19.4
N10270 X99.825 Y19.662
N10275 X99.518 Y19.936
N10280 X99.222 Y20.222
N10285 X98.936 Y20.518
N10290 X98.662 Y20.825
N10295 X98.4 Y21.142
N10300 X98.149 Y21.468
N10305 X97.911 Y21.803
N10310 X97.686 Y22.148
N10315 X97.474 Y22.5
N10320 X97.275 Y22.86
N10325 X97.089 Y23.227
N10330 X96.918 Y23.601
N10335 X96.76 Y23.981
N10340 X96.617 Y24.367
N10345 X96.489 Y24.758
N10350 X96.375 Y25.153
N10355 X96.276 Y25.552
N10360 X96.192 Y25.955
N10365 X96.123 Y26.361
N10370 X96.069 Y26.768
N10375 X96.031 Y27.178
N10380 X96.008 Y27.589
N10385 X96 Y28
N10390 Y70
N10395 X95.992 Y70.125
N10400 X95.969 Y70.249
N10405 X95.93 Y70.368
N10410 X95.876 Y70.482
N10415 X95.809 Y70.588
N10420 X95.729 Y70.685
N10425 X95.637 Y70.771
N10430 X95.536 Y70.844
N10435 X95.426 Y70.905
N10440 X95.309 Y70.951
N10445 X95.187 Y70.982
N10450 X95.063 Y70.998
N10455 X94.937
N10460 X94.813 Y70.982
N10465 X94.691 Y70.951
N10470 X94.574 Y70.905
N10475 X94.464 Y70.844
N10480 X94.363 Y70.771
N10485 X94.271 Y70.685
N10490 X94.191 Y70.588
N10495 X94.124 Y70.482
N10500 X94.07 Y70.368
N10505 X94.031 Y70.249
N10510 X94.008 Y70.125
N10515 X94 Y70
N10520 Y28
N10525 X93.992 Y27.589
N10530 X93.969 Y27.178
N10535 X93.931 Y26.768
N10540 X93.877 Y26.361
N10545 X93.808 Y25.955
N10550 X93.724 Y25.552
N10555 X93.625 Y25.153
N10560 X93.511 Y24.758
N10565 X93.383 Y24.367
N10570 X93.24 Y23.981
N10575 X93.082 Y23.601
N10580 X92.911 Y23.227
N10585 X92.725 Y22.86
N10590 X92.526 Y22.5
N10595 X92.314 Y22.148
N10600 X92.089 Y21.803
N10605 X91.851 Y21.468
N10610 X91.6 Y21.142
N10615 X91.338 Y20.825
N10620 X91.064 Y20.518
N10625 X90.778 Y20.222
N10630 X90.482 Y19.936
N10635 X90.175 Y19.662
N10640 X89.858 Y19.4
N10645 X89.532 Y19.149
N10650 X89.197 Y18.911
N10655 X88.852 Y18.686
N10660 X88.5 Y18.474
N10665 X88.14 Y18.275
N10670 X87.773 Y18.089
N10675 X87.399 Y17.918
N10680 X87.019 Y17.76
N10685 X86.633 Y17.617
N10690 X86.242 Y17.489
N10695 X85.847 Y17.375
N10700 X85.448 Y17.276
N10705 X85.045 Y17.192
N10710 X84.639 Y17.123
N10715 X84.232 Y17.069
N10720 X83.822 Y17.031
N10725 X83.411 Y17.008
N10730 X83 Y17
N10735 X57
N10740 X56.589 Y17.008
N10745 X56.178 Y17.031
N10750 X55.768 Y17.069
N10755 X55.361 Y17.123
N10760 X54.955 Y17.192
N10765 X54.552 Y17.276
N10770 X54.153 Y17.375
N10775 X53.758 Y17.489
N10780 X53.367 Y17.617
N10785 X52.981 Y17.76
N10790 X52.601 Y17.918
N10795 X52.227 Y18.089
N10800 X51.86 Y18.275
N10805 X51.5 Y18.474
N10810 X51.148 Y18.686
N10815 X50.803 Y18.911
N10820 X50.468 Y19.149
N10825 X50.142 Y19.4
N10830 X49.825 Y19.662
N10835 X49.518 Y19.936
N10840 X49.222 Y20.222
N10845 X48.936 Y20.518
N10850 X48.662 Y20.825
N10855 X48.4 Y21.142
N10860 X48.149 Y21.468
N10865 X47.911 Y21.803
N10870 X47.686 Y22.148
N10875 X47.474 Y22.5
N10880 X47.275 Y22.86
N10885 X47.089 Y23.227
N10890 X46.918 Y23.601
N10895 X46.76 Y23.981
N10900 X46.617 Y24.367
N10905 X46.489 Y24.758
N10910 X46.375 Y25.153
N10915 X46.276 Y25.552
N10920 X46.192 Y25.955
N10925 X46.123 Y26.361
N10930 X46.069 Y26.768
N10935 X46.031 Y27.178
N10940 X46.008 Y27.589
N10945 X46 Y28
N10950 Y70
N10955 X45.992 Y70.125
N10960 X45.969 Y70.249
N10965 X45.93 Y70.368
N10970 X45.876 Y70.482
N10975 X45.809 Y70.588
N10980 X45.729 Y70.685
N10985 X45.637 Y70.771
N10990 X45.536 Y70.844
N10995 X45.426 Y70.905
N11000 X45.309 Y70.951
N11005 X45.187 Y70.982
N11010 X45.063 Y70.998
N11015 X44.937
N11020 X44.813 Y70.982
N11025 X44.691 Y70.951
N11030 X44.574 Y70.905
N11035 X44.464 Y70.844
N11040 X44.363 Y70.771
N11045 X44.271 Y70.685
N11050 X44.191 Y70.588
N11055 X44.124 Y70.482
N11060 X44.07 Y70.368
N11065 X44.031 Y70.249
N11070 X44.008 Y70.125
N11075 X44 Y70
N11080 Y28
N11085 X43.992 Y27.589
N11090 X43.969 Y27.178
N11095 X43.931 Y26.768
N11100 X43.877 Y26.361
N11105 X43.808 Y25.955
N11110 X43.724 Y25.552
N11115 X43.625 Y25.153
N11120 X43.511 Y24.758
N11125 X43.383 Y24.367
N11130 X43.24 Y23.981
N11135 X43.082 Y23.601
N11140 X42.911 Y23.227
N11145 X42.725 Y22.86
N11150 X42.526 Y22.5
N11155 X42.314 Y22.148
N11160 X42.089 Y21.803
N11165 X41.851 Y21.468
N11170 X41.6 Y21.142
N11175 X41.338 Y20.825
N11180 X41.064 Y20.518
N11185 X40.778 Y20.222
N11190 X40.482 Y19.936
N11195 X40.175 Y19.662
N11200 X39.858 Y19.4
N11205 X39.532 Y19.149
N11210 X39.197 Y18.911
N11215 X38.852 Y18.686
N11220 X38.5 Y18.474
N11225 X38.14 Y18.275
N11230 X37.773 Y18.089
N11235 X37.399 Y17.918
N11240 X37.019 Y17.76
N11245 X36.633 Y17.617
N11250 X36.242 Y17.489
N11255 X35.847 Y17.375
N11260 X35.448 Y17.276
N11265 X35.045 Y17.192
N11270 X34.639 Y17.123
N11275 X34.232 Y17.069
N11280 X33.822 Y17.031
N11285 X33.411 Y17.008
N11290 X33 Y17
N11295 X20
N11300 X19.786 Y17.008
N11305 X19.573 Y17.031
N11310 X19.362 Y17.069
N11315 X19.155 Y17.122
N11320 X18.952 Y17.189
N11325 X18.754 Y17.271
N11330 X18.562 Y17.367
N11335 X18.378 Y17.476
N11340 X18.202 Y17.598
N11345 X18.035 Y17.733
N11350 X17.879 Y17.879
N11355 X17.733 Y18.035
N11360 X17.598 Y18.202
N11365 X17.476 Y18.378
N11370 X17.367 Y18.562
N11375 X17.271 Y18.754
N11380 X17.189 Y18.952
N11385 X17.122 Y19.155
N11390 X17.069 Y19.362
N11395 X17.031 Y19.573
N11400 X17.008 Y19.786
N11405 X17 Y20
N11410 Y170
N11415 X17.008 Y170.214
N11420 X17.031 Y170.427
N11425 X17.069 Y170.638
N11430 X17.122 Y170.845
N11435 X17.189 Y171.048
N11440 X17.271 Y171.246
N11445 X17.367 Y171.438
N11450 X17.476 Y171.622
N11455 X17.598 Y171.798
N11460 X17.733 Y171.965
N11465 X17.879 Y172.121
N11470 X18.035 Y172.267
N11475 X18.202 Y172.402
N11480 X18.378 Y172.524
N11485 X18.562 Y172.633
N11490 X18.754 Y172.729
N11495 X18.952 Y172.811
N11500 X19.155 Y172.878
N11505 X19.362 Y172.931
N11510 X19.573 Y172.969
N11515 X19.786 Y172.992
N11520 X20 Y173
N11525 X620
N11530 X620.214 Y172.992
N11535 X620.427 Y172.969
N11540 X620.638 Y172.931
N11545 X620.845 Y172.878
N11550 X621.048 Y172.811
N11555 X621.246 Y172.729
N11560 X621.438 Y172.633
N11565 X621.622 Y172.524
N11570 X621.798 Y172.402
N11575 X621.965 Y172.267
N11580 X622.121 Y172.121
N11585 X622.267 Y171.965
N11590 X622.402 Y171.798
N11595 X622.524 Y171.622
N11600 X622.633 Y171.438
N11605 X622.729 Y171.246
N11610 X622.811 Y171.048
N11615 X622.878 Y170.845
N11620 X622.931 Y170.638
N11625 X622.969 Y170.427
N11630 X622.992 Y170.214
N11635 X623 Y170
N11640 Y20
N11645 X622.992 Y19.786
N11650 X622.969 Y19.573
N11655 X622.931 Y19.362
N11660 X622.878 Y19.155
N11665 X622.811 Y18.952
N11670 X622.729 Y18.754
N11675 X622.633 Y18.562
N11680 X622.524 Y18.378
N11685 X622.402 Y18.202
N11690 X622.267 Y18.035
N11695 X622.121 Y17.879
N11700 X621.965 Y17.733
N11705 X621.798 Y17.598
N11710 X621.622 Y17.476
N11715 X621.438 Y17.367
N11720 X621.246 Y17.271
N11725 X621.048 Y17.189
N11730 X620.845 Y17.122
N11735 X620.638 Y17.069
N11740 X620.427 Y17.031
N11745 X620.214 Y17.008
N11750 X620 Y17
N11755 X607
N11760 X606.589 Y17.008
N11765 X606.178 Y17.031
N11770 X605.768 Y17.069
N11775 X605.361 Y17.123
N11780 X604.955 Y17.192
N11785 X604.552 Y17.276
N11790 X604.153 Y17.375
N11795 X603.758 Y17.489
N11800 X603.367 Y17.617
N11805 X602.981 Y17.76
N11810 X602.601 Y17.918
N11815 X602.227 Y18.089
N11820 X601.86 Y18.275
N11825 X601.5 Y18.474
N11830 X601.148 Y18.686
N11835 X600.803 Y18.911
N11840 X600.468 Y19.149
N11845 X600.142 Y19.4
N11850 X599.825 Y19.662
N11855 X599.518 Y19.936
N11860 X599.222 Y20.222
N11865 X598.936 Y20.518
N11870 X598.662 Y20.825
N11875 X598.4 Y21.142
N11880 X598.149 Y21.468
N11885 X597.911 Y21.803
N11890 X597.686 Y22.148
N11895 X597.474 Y22.5
N11900 X597.275 Y22.86
N11905 X597.089 Y23.227
N11910 X596.918 Y23.601
N11915 X596.76 Y23.981
N11920 X596.617 Y24.367
N11925 X596.489 Y24.758
N11930 X596.375 Y25.153
N11935 X596.276 Y25.552
N11940 X596.192 Y25.955
N11945 X596.123 Y26.361
N11950 X596.069 Y26.768
N11955 X596.031 Y27.178
N11960 X596.008 Y27.589
N11965 X596 Y28
N11970 Y70
N11975 X595.992 Y70.125
N11980 X595.969 Y70.249
N11985 X595.93 Y70.368
N11990 X595.876 Y70.482
N11995 X595.809 Y70.588
N12000 X595.729 Y70.685
N12005 X595.637 Y70.771
N12010 X595.536 Y70.844
N12015 X595.426 Y70.905
N12020 X595.309 Y70.951
N12025 X595.187 Y70.982
N12030 X595.063 Y70.998
N12035 X594.937
N12040 X594.813 Y70.982
N12045 X594.691 Y70.951
N12050 X594.574 Y70.905
N12055 X594.464 Y70.844
N12060 X594.363 Y70.771
N12065 X594.271 Y70.685
N12070 X594.191 Y70.588
N12075 X594.124 Y70.482
N12080 X594.07 Y70.368
N12085 X594.031 Y70.249
N12090 X594.008 Y70.125
N12095 X594 Y70
N12100 Y28
N12105 X593.992 Y27.589
N12110 X593.969 Y27.178
N12115 X593.931 Y26.768
N12120 X593.877 Y26.361
N12125 X593.808 Y25.955
N12130 X593.724 Y25.552
N12135 X593.625 Y25.153
N12140 X593.511 Y24.758
N12145 X593.383 Y24.367
N12150 X593.24 Y23.981
N12155 X593.082 Y23.601
N12160 X592.911 Y23.227
N12165 X592.725 Y22.86
N12170 X592.526 Y22.5
N12175 X592.314 Y22.148
N12180 X592.089 Y21.803
N12185 X591.851 Y21.468
N12190 X591.6 Y21.142
N12195 X591.338 Y20.825
N12200 X591.064 Y20.518
N12205 X590.778 Y20.222
N12210 X590.482 Y19.936
N12215 X590.175 Y19.662
N12220 X589.858 Y19.4
N12225 X589.532 Y19.149
N12230 X589.197 Y18.911
N12235 X588.852 Y18.686
N12240 X588.5 Y18.474
N12245 X588.14 Y18.275
N12250 X587.773 Y18.089
N12255 X587.399 Y17.918
N12260 X587.019 Y17.76
N12265 X586.633 Y17.617
N12270 X586.242 Y17.489
N12275 X585.847 Y17.375
N12280 X585.448 Y17.276
N12285 X585.045 Y17.192
N12290 X584.639 Y17.123
N12295 X584.232 Y17.069
N12300 X583.822 Y17.031
N12305 X583.411 Y17.008
N12310 X583 Y17
N12315 X557
N12320 X556.589 Y17.008
N12325 X556.178 Y17.031
N12330 X555.768 Y17.069
N12335 X555.361 Y17.123
N12340 X554.955 Y17.192
N12345 X554.552 Y17.276
N12350 X554.153 Y17.375
N12355 X553.758 Y17.489
N12360 X553.367 Y17.617
N12365 X552.981 Y17.76
N12370 X552.601 Y17.918
N12375 X552.227 Y18.089
N12380 X551.86 Y18.275
N12385 X551.5 Y18.474
N12390 X551.148 Y18.686
N12395 X550.803 Y18.911
N12400 X550.468 Y19.149
N12405 X550.142 Y19.4
N12410 X549.825 Y19.662
N12415 X549.518 Y19.936
N12420 X549.222 Y20.222
N12425 X548.936 Y20.518
N12430 X548.662 Y20.825
N12435 X548.4 Y21.142
N12440 X548.149 Y21.468
N12445 X547.911 Y21.803
N12450 X547.686 Y22.148
N12455 X547.474 Y22.5
N12460 X547.275 Y22.86
N12465 X547.089 Y23.227
N12470 X546.918 Y23.601
N12475 X546.76 Y23.981
N12480 X546.617 Y24.367
N12485 X546.489 Y24.758
N12490 X546.375 Y25.153
N12495 X546.276 Y25.552
N12500 X546.192 Y25.955
N12505 X546.123 Y26.361
N12510 X546.069 Y26.768
N12515 X546.031 Y27.178
N12520 X546.008 Y27.589
N12525 X546 Y28
N12530 Y70
N12535 X545.992 Y70.125
N12540 X545.969 Y70.249
N12545 X545.93 Y70.368
N12550 X545.876 Y70.482
N12555 X545.809 Y70.588
N12560 X545.729 Y70.685
N12565 X545.637 Y70.771
N12570 X545.536 Y70.844
N12575 X545.426 Y70.905
N12580 X545.309 Y70.951
N12585 X545.187 Y70.982
N12590 X545.063 Y70.998
N12595 X544.937
N12600 X544.813 Y70.982
N12605 X544.691 Y70.951
N12610 X544.574 Y70.905
N12615 X544.464 Y70.844
N12620 X544.363 Y70.771
N12625 X544.271 Y70.685
N12630 X544.191 Y70.588
N12635 X544.124 Y70.482
N12640 X544.07 Y70.368
N12645 X544.031 Y70.249
N12650 X544.008 Y70.125
N12655 X544 Y70
N12660 Y28
N12665 X543.992 Y27.589
N12670 X543.969 Y27.178
N12675 X543.931 Y26.768
N12680 X543.877 Y26.361
N12685 X543.808 Y25.955
N12690 X543.724 Y25.552
N12695 X543.625 Y25.153
N12700 X543.511 Y24.758
N12705 X543.383 Y24.367
N12710 X543.24 Y23.981
N12715 X543.082 Y23.601
N12720 X542.911 Y23.227
N12725 X542.725 Y22.86
N12730 X542.526 Y22.5
N12735 X542.314 Y22.148
N12740 X542.089 Y21.803
N12745 X541.851 Y21.468
N12750 X541.6 Y21.142
N12755 X541.338 Y20.825
N12760 X541.064 Y20.518
N12765 X540.778 Y20.222
N12770 X540.482 Y19.936
N12775 X540.175 Y19.662
N12780 X539.858 Y19.4
N12785 X539.532 Y19.149
N12790 X539.197 Y18.911
N12795 X538.852 Y18.686
N12800 X538.5 Y18.474
N12805 X538.14 Y18.275
N12810 X537.773 Y18.089
N12815 X537.399 Y17.918
N12820 X537.019 Y17.76
N12825 X536.633 Y17.617
N12830 X536.242 Y17.489
N12835 X535.847 Y17.375
N12840 X535.448 Y17.276
N12845 X535.045 Y17.192
N12850 X534.639 Y17.123
N12855 X534.232 Y17.069
N12860 X533.822 Y17.031
N12865 X533.411 Y17.008
N12870 X533 Y17
N12875 X507
N12880 X506.589 Y17.008
N12885 X506.178 Y17.031
N12890 X505.768 Y17.069
N12895 X505.361 Y17.123
N12900 X504.955 Y17.192
N12905 X504.552 Y17.276
N12910 X504.153 Y17.375
N12915 X503.758 Y17.489
N12920 X503.367 Y17.617
N12925 X502.981 Y17.76
N12930 X502.601 Y17.918
N12935 X502.227 Y18.089
N12940 X501.86 Y18.275
N12945 X501.5 Y18.474
N12950 X501.148 Y18.686
N12955 X500.803 Y18.911
N12960 X500.468 Y19.149
N12965 X500.142 Y19.4
N12970 X499.825 Y19.662
N12975 X499.518 Y19.936
N12980 X499.222 Y20.222
N12985 X498.936 Y20.518
N12990 X498.662 Y20.825
N12995 X498.4 Y21.142
N13000 X498.149 Y21.468
N13005 X497.911 Y21.803
N13010 X497.686 Y22.148
N13015 X497.474 Y22.5
N13020 X497.275 Y22.86
N13025 X497.089 Y23.227
N13030 X496.918 Y23.601
N13035 X496.76 Y23.981
N13040 X496.617 Y24.367
N13045 X496.489 Y24.758
N13050 X496.375 Y25.153
N13055 X496.276 Y25.552
N13060 X496.192 Y25.955
N13065 X496.123 Y26.361
N13070 X496.069 Y26.768
N13075 X496.031 Y27.178
N13080 X496.008 Y27.589
N13085 X496 Y28
N13090 Y70
N13095 X495.992 Y70.125
N13100 X495.969 Y70.249
N13105 X495.93 Y70.368
N13110 X495.876 Y70.482
N13115 X495.809 Y70.588
N13120 X495.729 Y70.685
N13125 X495.637 Y70.771
N13130 X495.536 Y70.844
N13135 X495.426 Y70.905
N13140 X495.309 Y70.951
N13145 X495.187 Y70.982
N13150 X495.063 Y70.998
N13155 X494.937
N13160 X494.813 Y70.982
N13165 X494.691 Y70.951
N13170 X494.574 Y70.905
N13175 X494.464 Y70.844
N13180 X494.363 Y70.771
N13185 X494.271 Y70.685
N13190 X494.191 Y70.588
N13195 X494.124 Y70.482
N13200 X494.07 Y70.368
N13205 X494.031 Y70.249
N13210 X494.008 Y70.125
N13215 X494 Y70
N13220 Y28
N13225 X493.992 Y27.589
N13230 X493.969 Y27.178
N13235 X493.931 Y26.768
N13240 X493.877 Y26.361
N13245 X493.808 Y25.955
N13250 X493.724 Y25.552
N13255 X493.625 Y25.153
N13260 X493.511 Y24.758
N13265 X493.383 Y24.367
N13270 X493.24 Y23.981
N13275 X493.082 Y23.601
N13280 X492.911 Y23.227
N13285 X492.725 Y22.86
N13290 X492.526 Y22.5
N13295 X492.314 Y22.148
N13300 X492.089 Y21.803
N13305 X491.851 Y21.468
N13310 X491.6 Y21.142
N13315 X491.338 Y20.825
N13320 X491.064 Y20.518
N13325 X490.778 Y20.222
N13330 X490.482 Y19.936
N13335 X490.175 Y19.662
N13340 X489.858 Y19.4
N13345 X489.532 Y19.149
N13350 X489.197 Y18.911
N13355 X488.852 Y18.686
N13360 X488.5 Y18.474
N13365 X488.14 Y18.275
N13370 X487.773 Y18.089
N13375 X487.399 Y17.918
N13380 X487.019 Y17.76
N13385 X486.633 Y17.617
N13390 X486.242 Y17.489
N13395 X485.847 Y17.375
N13400 X485.448 Y17.276
N13405 X485.045 Y17.192
N13410 X484.639 Y17.123
N13415 X484.232 Y17.069
N13420 X483.822 Y17.031
N13425 X483.411 Y17.008
N13430 X483 Y17
N13435 X457
N13440 X456.589 Y17.008
N13445 X456.178 Y17.031
N13450 X455.768 Y17.069
N13455 X455.361 Y17.123
N13460 X454.955 Y17.192
N13465 X454.552 Y17.276
N13470 X454.153 Y17.375
N13475 X453.758 Y17.489
N13480 X453.367 Y17.617
N13485 X452.981 Y17.76
N13490 X452.601 Y17.918
N13495 X452.227 Y18.089
N13500 X451.86 Y18.275
N13505 X451.5 Y18.474
N13510 X451.148 Y18.686
N13515 X450.803 Y18.911
N13520 X450.468 Y19.149
N13525 X450.142 Y19.4
N13530 X449.825 Y19.662
N13535 X449.518 Y19.936
N13540 X449.222 Y20.222
N13545 X448.936 Y20.518
N13550 X448.662 Y20.825
N13555 X448.4 Y21.142
N13560 X448.149 Y21.468
N13565 X447.911 Y21.803
N13570 X447.686 Y22.148
N13575 X447.474 Y22.5
N13580 X447.275 Y22.86
N13585 X447.089 Y23.227
N13590 X446.918 Y23.601
N13595 X446.76 Y23.981
N13600 X446.617 Y24.367
N13605 X446.489 Y24.758
N13610 X446.375 Y25.153
N13615 X446.276 Y25.552
N13620 X446.192 Y25.955
N13625 X446.123 Y26.361
N13630 X446.069 Y26.768
N13635 X446.031 Y27.178
N13640 X446.008 Y27.589
N13645 X446 Y28
N13650 Y70
N13655 X445.992 Y70.125
N13660 X445.969 Y70.249
N13665 X445.93 Y70.368
N13670 X445.876 Y70.482
N13675 X445.809 Y70.588
N13680 X445.729 Y70.685
N13685 X445.637 Y70.771
N13690 X445.536 Y70.844
N13695 X445.426 Y70.905
N13700 X445.309 Y70.951
N13705 X445.187 Y70.982
N13710 X445.063 Y70.998
N13715 X444.937
N13720 X444.813 Y70.982
N13725 X444.691 Y70.951
N13730 X444.574 Y70.905
N13735 X444.464 Y70.844
N13740 X444.363 Y70.771
N13745 X444.271 Y70.685
N13750 X444.191 Y70.588
N13755 X444.124 Y70.482
N13760 X444.07 Y70.368
N13765 X444.031 Y70.249
N13770 X444.008 Y70.125
N13775 X444 Y70
N13780 Y28
N13785 X443.992 Y27.589
N13790 X443.969 Y27.178
N13795 X443.931 Y26.768
N13800 X443.877 Y26.361
N13805 X443.808 Y25.955
N13810 X443.724 Y25.552
N13815 X443.625 Y25.153
N13820 X443.511 Y24.758
N13825 X443.383 Y24.367
N13830 X443.24 Y23.981
N13835 X443.082 Y23.601
N13840 X442.911 Y23.227
N13845 X442.725 Y22.86
N13850 X442.526 Y22.5
N13855 X442.314 Y22.148
N13860 X442.089 Y21.803
N13865 X441.851 Y21.468
N13870 X441.6 Y21.142
N13875 X441.338 Y20.825
N13880 X441.064 Y20.518
N13885 X440.778 Y20.222
N13890 X440.482 Y19.936
N13895 X440.175 Y19.662
N13900 X439.858 Y19.4
N13905 X439.532 Y19.149
N13910 X439.197 Y18.911
N13915 X438.852 Y18.686
N13920 X438.5 Y18.474
N13925 X438.14 Y18.275
N13930 X437.773 Y18.089
N13935 X437.399 Y17.918
N13940 X437.019 Y17.76
N13945 X436.633 Y17.617
N13950 X436.242 Y17.489
N13955 X435.847 Y17.375
N13960 X435.448 Y17.276
N13965 X435.045 Y17.192
N13970 X434.639 Y17.123
N13975 X434.232 Y17.069
N13980 X433.822 Y17.031
N13985 X433.411 Y17.008
N13990 X433 Y17
N13995 X407
N14000 X406.589 Y17.008
N14005 X406.178 Y17.031
N14010 X405.768 Y17.069
N14015 X405.361 Y17.123
N14020 X404.955 Y17.192
N14025 X404.552 Y17.276
N14030 X404.153 Y17.375
N14035 X403.758 Y17.489
N14040 X403.367 Y17.617
N14045 X402.981 Y17.76
N14050 X402.601 Y17.918
N14055 X402.227 Y18.089
N14060 X401.86 Y18.275
N14065 X401.5 Y18.474
N14070 X401.148 Y18.686
N14075 X400.803 Y18.911
N14080 X400.468 Y19.149
N14085 X400.142 Y19.4
N14090 X399.825 Y19.662
N14095 X399.518 Y19.936
N14100 X399.222 Y20.222
N14105 X398.936 Y20.518
N14110 X398.662 Y20.825
N14115 X398.4 Y21.142
N14120 X398.149 Y21.468
N14125 X397.911 Y21.803
N14130 X397.686 Y22.148
N14135 X397.474 Y22.5
N14140 X397.275 Y22.86
N14145 X397.089 Y23.227
N14150 X396.918 Y23.601
N14155 X396.76 Y23.981
N14160 X396.617 Y24.367
N14165 X396.489 Y24.758
N14170 X396.375 Y25.153
N14175 X396.276 Y25.552
N14180 X396.192 Y25.955
N14185 X396.123 Y26.361
N14190 X396.069 Y26.768
N14195 X396.031 Y27.178
N14200 X396.008 Y27.589
N14205 X396 Y28
N14210 Y70
N14215 X395.992 Y70.125
N14220 X395.969 Y70.249
N14225 X395.93 Y70.368
N14230 X395.876 Y70.482
N14235 X395.809 Y70.588
N14240 X395.729 Y70.685
N14245 X395.637 Y70.771
N14250 X395.536 Y70.844
N14255 X395.426 Y70.905
N14260 X395.309 Y70.951
N14265 X395.187 Y70.982
N14270 X395.063 Y70.998
N14275 X394.937
N14280 X394.813 Y70.982
N14285 X394.691 Y70.951
N14290 X394.574 Y70.905
N14295 X394.464 Y70.844
N14300 X394.363 Y70.771
N14305 X394.271 Y70.685
N14310 X394.191 Y70.588
N14315 X394.124 Y70.482
N14320 X394.07 Y70.368
N14325 X394.031 Y70.249
N14330 X394.008 Y70.125
N14335 X394 Y70
N14340 Y28
N14345 X393.992 Y27.589
N14350 X393.969 Y27.178
N14355 X393.931 Y26.768
N14360 X393.877 Y26.361
N14365 X393.808 Y25.955
N14370 X393.724 Y25.552
N14375 X393.625 Y25.153
N14380 X393.511 Y24.758
N14385 X393.383 Y24.367
N14390 X393.24 Y23.981
N14395 X393.082 Y23.601
N14400 X392.911 Y23.227
N14405 X392.725 Y22.86
N14410 X392.526 Y22.5
N14415 X392.314 Y22.148
N14420 X392.089 Y21.803
N14425 X391.851 Y21.468
N14430 X391.6 Y21.142
N14435 X391.338 Y20.825
N14440 X391.064 Y20.518
N14445 X390.778 Y20.222
N14450 X390.482 Y19.936
N14455 X390.175 Y19.662
N14460 X389.858 Y19.4
N14465 X389.532 Y19.149
N14470 X389.197 Y18.911
N14475 X388.852 Y18.686
N14480 X388.5 Y18.474
N14485 X388.14 Y18.275
N14490 X387.773 Y18.089
N14495 X387.399 Y17.918
N14500 X387.019 Y17.76
N14505 X386.633 Y17.617
N14510 X386.242 Y17.489
N14515 X385.847 Y17.375
N14520 X385.448 Y17.276
N14525 X385.045 Y17.192
N14530 X384.639 Y17.123
N14535 X384.232 Y17.069
N14540 X383.822 Y17.031
N14545 X383.411 Y17.008
N14550 X383 Y17
N14555 X357
N14560 X356.589 Y17.008
N14565 X356.178 Y17.031
N14570 X355.768 Y17.069
N14575 X355.361 Y17.123
N14580 X354.955 Y17.192
N14585 X354.552 Y17.276
N14590 X354.153 Y17.375
N14595 X353.758 Y17.489
N14600 X353.367 Y17.617
N14605 X352.981 Y17.76
N14610 X352.601 Y17.918
N14615 X352.227 Y18.089
N14620 X351.86 Y18.275
N14625 X351.5 Y18.474
N14630 X351.148 Y18.686
N14635 X350.803 Y18.911
N14640 X350.468 Y19.149
N14645 X350.142 Y19.4
N14650 X349.825 Y19.662
N14655 X349.518 Y19.936
N14660 X349.222 Y20.222
N14665 X348.936 Y20.518
N14670 X348.662 Y20.825
N14675 X348.4 Y21.142
N14680 X348.149 Y21.468
N14685 X347.911 Y21.803
N14690 X347.686 Y22.148
N14695 X347.474 Y22.5
N14700 X347.275 Y22.86
N14705 X347.089 Y23.227
N14710 X346.918 Y23.601
N14715 X346.76 Y23.981
N14720 X346.617 Y24.367
N14725 X346.489 Y24.758
N14730 X346.375 Y25.153
N14735 X346.276 Y25.552
N14740 X346.192 Y25.955
N14745 X346.123 Y26.361
N14750 X346.069 Y26.768
N14755 X346.031 Y27.178
N14760 X346.008 Y27.589
N14765 X346 Y28
N14770 Y70
N14775 X345.992 Y70.125
N14780 X345.969 Y70.249
N14785 X345.93 Y70.368
N14790 X345.876 Y70.482
N14795 X345.809 Y70.588
N14800 X345.729 Y70.685
N14805 X345.637 Y70.771
N14810 X345.536 Y70.844
N14815 X345.426 Y70.905
N14820 X345.309 Y70.951
N14825 X345.187 Y70.982
N14830 X345.063 Y70.998
N14835 X344.937
N14840 X344.813 Y70.982
N14845 X344.691 Y70.951
N14850 X344.574 Y70.905
N14855 X344.464 Y70.844
N14860 X344.363 Y70.771
N14865 X344.271 Y70.685
N14870 X344.191 Y70.588
N14875 X344.124 Y70.482
N14880 X344.07 Y70.368
N14885 X344.031 Y70.249
N14890 X344.008 Y70.125
N14895 X344 Y70
N14900 Y28
N14905 X343.992 Y27.589
N14910 X343.969 Y27.178
N14915 X343.931 Y26.768
N14920 X343.877 Y26.361
N14925 X343.808 Y25.955
N14930 X343.724 Y25.552
N14935 X343.625 Y25.153
N14940 X343.511 Y24.758
N14945 X343.383 Y24.367
N14950 X343.24 Y23.981
N14955 X343.082 Y23.601
N14960 X342.911 Y23.227
N14965 X342.725 Y22.86
N14970 X342.526 Y22.5
N14975 X342.314 Y22.148
N14980 X342.089 Y21.803
N14985 X341.851 Y21.468
N14990 X341.6 Y21.142
N14995 X341.338 Y20.825
N15000 X341.064 Y20.518
N15005 X340.778 Y20.222
N15010 X340.482 Y19.936
N15015 X340.175 Y19.662
N15020 X339.858 Y19.4
N15025 X339.532 Y19.149
N15030 X339.197 Y18.911
N15035 X338.852 Y18.686
N15040 X338.5 Y18.474
N15045 X338.14 Y18.275
N15050 X337.773 Y18.089
N15055 X337.399 Y17.918
N15060 X337.019 Y17.76
N15065 X336.633 Y17.617
N15070 X336.242 Y17.489
N15075 X335.847 Y17.375
N15080 X335.448 Y17.276
N15085 X335.045 Y17.192
N15090 X334.639 Y17.123
N15095 X334.232 Y17.069
N15100 X333.822 Y17.031
N15105 X333.411 Y17.008
N15110 X333 Y17
N15115 X320
N15120 X307
N15125 X306.589 Y17.008
N15130 X306.178 Y17.031
N15135 X305.768 Y17.069
N15140 X305.361 Y17.123
N15145 X304.955 Y17.192
N15150 X304.552 Y17.276
N15155 X304.153 Y17.375
N15160 X303.758 Y17.489
N15165 X303.367 Y17.617
N15170 X302.981 Y17.76
N15175 X302.601 Y17.918
N15180 X302.227 Y18.089
N15185 X301.86 Y18.275
N15190 X301.5 Y18.474
N15195 X301.148 Y18.686
N15200 X300.803 Y18.911
N15205 X300.468 Y19.149
N15210 X300.142 Y19.4
N15215 X299.825 Y19.662
N15220 X299.518 Y19.936
N15225 X299.222 Y20.222
N15230 X298.936 Y20.518
N15235 X298.662 Y20.825
N15240 X298.4 Y21.142
N15245 X298.149 Y21.468
N15250 X297.911 Y21.803
N15255 X297.686 Y22.148
N15260 X297.474 Y22.5
N15265 X297.275 Y22.86
N15270 X297.089 Y23.227
N15275 X296.918 Y23.601
N15280 X296.76 Y23.981
N15285 X296.617 Y24.367
N15290 X296.489 Y24.758
N15295 X296.375 Y25.153
N15300 X296.276 Y25.552
N15305 X296.192 Y25.955
N15310 X296.123 Y26.361
N15315 X296.069 Y26.768
N15320 X296.031 Y27.178
N15325 X296.008 Y27.589
N15330 X296 Y28
N15335 Y70
N15340 X295.992 Y70.125
N15345 X295.969 Y70.249
N15350 X295.93 Y70.368
N15355 X295.876 Y70.482
N15360 X295.809 Y70.588
N15365 X295.729 Y70.685
N15370 X295.637 Y70.771
N15375 X295.536 Y70.844
N15380 X295.426 Y70.905
N15385 X295.309 Y70.951
N15390 X295.187 Y70.982
N15395 X295.063 Y70.998
N15400 X294.937
N15405 X294.813 Y70.982
N15410 X294.691 Y70.951
N15415 X294.574 Y70.905
N15420 X294.464 Y70.844
N15425 X294.363 Y70.771
N15430 X294.271 Y70.685
N15435 X294.191 Y70.588
N15440 X294.124 Y70.482
N15445 X294.07 Y70.368
N15450 X294.031 Y70.249
N15455 X294.008 Y70.125
N15460 X294 Y70
N15465 Y28
N15470 X293.992 Y27.589
N15475 X293.969 Y27.178
N15480 X293.931 Y26.768
N15485 X293.877 Y26.361
N15490 X293.808 Y25.955
N15495 X293.724 Y25.552
N15500 X293.625 Y25.153
N15505 X293.511 Y24.758
N15510 X293.383 Y24.367
N15515 X293.24 Y23.981
N15520 X293.082 Y23.601
N15525 X292.911 Y23.227
N15530 X292.725 Y22.86
N15535 X292.526 Y22.5
N15540 X292.314 Y22.148
N15545 X292.089 Y21.803
N15550 X291.851 Y21.468
N15555 X291.6 Y21.142
N15560 X291.338 Y20.825
N15565 X291.064 Y20.518
N15570 X290.778 Y20.222
N15575 X290.482 Y19.936
N15580 X290.175 Y19.662
N15585 X289.858 Y19.4
N15590 X289.532 Y19.149
N15595 X289.197 Y18.911
N15600 X288.852 Y18.686
N15605 X288.5 Y18.474
N15610 X288.14 Y18.275
N15615 X287.773 Y18.089
N15620 X287.399 Y17.918
N15625 X287.019 Y17.76
N15630 X286.633 Y17.617
N15635 X286.242 Y17.489
N15640 X285.847 Y17.375
N15645 X285.448 Y17.276
N15650 X285.045 Y17.192
N15655 X284.639 Y17.123
N15660 X284.232 Y17.069
N15665 X283.822 Y17.031
N15670 X283.411 Y17.008
N15675 X283 Y17
N15680 X257
N15685 X256.589 Y17.008
N15690 X256.178 Y17.031
N15695 X255.768 Y17.069
N15700 X255.361 Y17.123
N15705 X254.955 Y17.192
N15710 X254.552 Y17.276
N15715 X254.153 Y17.375
N15720 X253.758 Y17.489
N15725 X253.367 Y17.617
N15730 X252.981 Y17.76
N15735 X252.601 Y17.918
N15740 X252.227 Y18.089
N15745 X251.86 Y18.275
N15750 X251.5 Y18.474
N15755 X251.148 Y18.686
N15760 X250.803 Y18.911
N15765 X250.468 Y19.149
N15770 X250.142 Y19.4
N15775 X249.825 Y19.662
N15780 X249.518 Y19.936
N15785 X249.222 Y20.222
N15790 X248.936 Y20.518
N15795 X248.662 Y20.825
N15800 X248.4 Y21.142
N15805 X248.149 Y21.468
N15810 X247.911 Y21.803
N15815 X247.686 Y22.148
N15820 X247.474 Y22.5
N15825 X247.275 Y22.86
N15830 X247.089 Y23.227
N15835 X246.918 Y23.601
N15840 X246.76 Y23.981
N15845 X246.617 Y24.367
N15850 X246.489 Y24.758
N15855 X246.375 Y25.153
N15860 X246.276 Y25.552
N15865 X246.192 Y25.955
N15870 X246.123 Y26.361
N15875 X246.069 Y26.768
N15880 X246.031 Y27.178
N15885 X246.008 Y27.589
N15890 X246 Y28
N15895 Y70
N15900 X245.992 Y70.125
N15905 X245.969 Y70.249
N15910 X245.93 Y70.368
N15915 X245.876 Y70.482
N15920 X245.809 Y70.588
N15925 X245.729 Y70.685
N15930 X245.637 Y70.771
N15935 X245.536 Y70.844
N15940 X245.426 Y70.905
N15945 X245.309 Y70.951
N15950 X245.187 Y70.982
N15955 X245.063 Y70.998
N15960 X244.937
N15965 X244.813 Y70.982
N15970 X244.691 Y70.951
N15975 X244.574 Y70.905
N15980 X244.464 Y70.844
N15985 X244.363 Y70.771
N15990 X244.271 Y70.685
N15995 X244.191 Y70.588
N16000 X244.124 Y70.482
N16005 X244.07 Y70.368
N16010 X244.031 Y70.249
N16015 X244.008 Y70.125
N16020 X244 Y70
N16025 Y28
N16030 X243.993 Y27.6
N16035 X243.971 Y27.2
N16040 X243.934 Y26.801
N16045 X243.884 Y26.404
N16050 X243.818 Y26.009
N16055 X243.739 Y25.616
N16060 X243.645 Y25.227
N16065 X243.537 Y24.842
N16070 X243.415 Y24.46
N16075 X243.279 Y24.083
N16080 X243.124 Y23.699 Z-6.005
N16085 X242.955 Y23.32 Z-6.009
N16090 X242.771 Y22.948 Z-6.014
N16095 X242.574 Y22.583 Z-6.018
N16100 X242.363 Y22.226 Z-6.023
N16105 X242.138 Y21.877 Z-6.028
N16110 X241.901 Y21.537 Z-6.032
N16115 X241.651 Y21.206 Z-6.037
N16120 X241.389 Y20.885 Z-6.042
N16125 X241.115 Y20.573 Z-6.046
N16130 X240.829 Y20.273 Z-6.051
N16135 X240.532 Y19.983 Z-6.055
N16140 X240.224 Y19.705 Z-6.06
N16145 X239.906 Y19.438 Z-6.065
N16150 X239.579 Y19.184 Z-6.069
N16155 X239.242 Y18.942 Z-6.074
N16160 X238.896 Y18.713 Z-6.079
N16165 X238.541 Y18.498 Z-6.083
N16170 X238.179 Y18.296 Z-6.088
N16175 X237.81 Y18.107 Z-6.092
N16180 X237.433 Y17.933 Z-6.097
N16185 X237.051 Y17.773 Z-6.102
N16190 X236.662 Y17.628 Z-6.106
N16195 X236.268 Y17.497 Z-6.111
N16200 X235.87 Y17.381 Z-6.116
N16205 X235.468 Y17.28 Z-6.12
N16210 X235.062 Y17.195 Z-6.125
N16215 X234.653 Y17.125 Z-6.129
N16220 X234.242 Y17.07 Z-6.134
N16225 X233.829 Y17.031 Z-6.139
N16230 X233.415 Y17.008 Z-6.143
N16235 X233 Y17 Z-6.148
N16240 X207 Z-6.438
N16245 X206.589 Y17.008 Z-6.442
N16250 X206.178 Y17.031 Z-6.447
N16255 X205.768 Y17.069 Z-6.452
N16260 X205.361 Y17.123 Z-6.456
N16265 X204.955 Y17.192 Z-6.461
N16270 X204.552 Y17.276 Z-6.465
N16275 X204.153 Y17.375 Z-6.47
N16280 X203.758 Y17.489 Z-6.474
N16285 X203.367 Y17.617 Z-6.479
N16290 X202.981 Y17.76 Z-6.484
N16295 X202.601 Y17.918 Z-6.488
N16300 X202.227 Y18.089 Z-6.493
N16305 X201.86 Y18.275 Z-6.497
N16310 X201.5 Y18.474 Z-6.502
N16315 X201.148 Y18.686 Z-6.507
N16320 X200.803 Y18.911 Z-6.511
N16325 X200.468 Y19.149 Z-6.516
N16330 X200.142 Y19.4 Z-6.52
N16335 X199.825 Y19.662 Z-6.525
N16340 X199.518 Y19.936 Z-6.53
N16345 X199.222 Y20.222 Z-6.534
N16350 X198.936 Y20.518 Z-6.539
N16355 X198.662 Y20.825 Z-6.543
N16360 X198.4 Y21.142 Z-6.548
N16365 X198.149 Y21.468 Z-6.552
N16370 X197.911 Y21.803 Z-6.557
N16375 X197.686 Y22.148 Z-6.562
N16380 X197.474 Y22.5 Z-6.566
N16385 X197.275 Y22.86 Z-6.571
N16390 X197.089 Y23.227 Z-6.575
N16395 X196.918 Y23.601 Z-6.58
N16400 X196.76 Y23.981 Z-6.585
N16405 X196.617 Y24.367 Z-6.589
N16410 X196.489 Y24.758 Z-6.594
N16415 X196.375 Y25.153 Z-6.598
N16420 X196.276 Y25.552 Z-6.603
N16425 X196.192 Y25.955 Z-6.607
N16430 X196.123 Y26.361 Z-6.612
N16435 X196.069 Y26.768 Z-6.617
N16440 X196.031 Y27.178 Z-6.621
N16445 X196.008 Y27.589 Z-6.626
N16450 X196 Y28 Z-6.63
N16455 Y70 Z-7.099
N16460 X195.992 Y70.125 Z-7.1
N16465 X195.969 Y70.249 Z-7.101
N16470 X195.93 Y70.368 Z-7.103
N16475 X195.876 Y70.482 Z-7.104
N16480 X195.809 Y70.588 Z-7.106
N16485 X195.729 Y70.685 Z-7.107
N16490 X195.637 Y70.771 Z-7.108
N16495 X195.536 Y70.844 Z-7.11
N16500 X195.426 Y70.905 Z-7.111
N16505 X195.309 Y70.951 Z-7.113
N16510 X195.187 Y70.982 Z-7.114
N16515 X195.063 Y70.998 Z-7.115
N16520 X194.937 Z-7.117
N16525 X194.813 Y70.982 Z-7.118
N16530 X194.691 Y70.951 Z-7.12
N16535 X194.574 Y70.905 Z-7.121
N16540 X194.464 Y70.844 Z-7.122
N16545 X194.363 Y70.771 Z-7.124
N16550 X194.271 Y70.685 Z-7.125
N16555 X194.191 Y70.588 Z-7.127
N16560 X194.124 Y70.482 Z-7.128
N16565 X194.07 Y70.368 Z-7.129
N16570 X194.031 Y70.249 Z-7.131
N16575 X194.008 Y70.125 Z-7.132
N16580 X194 Y70 Z-7.134
N16585 Y28 Z-7.602
N16590 X193.992 Y27.589 Z-7.606
N16595 X193.969 Y27.178 Z-7.611
N16600 X193.931 Y26.768 Z-7.616
N16605 X193.877 Y26.361 Z-7.62
N16610 X193.808 Y25.955 Z-7.625
N16615 X193.724 Y25.552 Z-7.629
N16620 X193.625 Y25.153 Z-7.634
N16625 X193.511 Y24.758 Z-7.638
N16630 X193.383 Y24.367 Z-7.643
N16635 X193.24 Y23.981 Z-7.648
N16640 X193.082 Y23.601 Z-7.652
N16645 X192.911 Y23.227 Z-7.657
N16650 X192.725 Y22.86 Z-7.661
N16655 X192.526 Y22.5 Z-7.666
N16660 X192.314 Y22.148 Z-7.671
N16665 X192.089 Y21.803 Z-7.675
N16670 X191.851 Y21.468 Z-7.68
N16675 X191.6 Y21.142 Z-7.684
N16680 X191.338 Y20.825 Z-7.689
N16685 X191.064 Y20.518 Z-7.694
N16690 X190.778 Y20.222 Z-7.698
N16695 X190.482 Y19.936 Z-7.703
N16700 X190.175 Y19.662 Z-7.707
N16705 X189.858 Y19.4 Z-7.712
N16710 X189.532 Y19.149 Z-7.716
N16715 X189.197 Y18.911 Z-7.721
N16720 X188.852 Y18.686 Z-7.726
N16725 X188.5 Y18.474 Z-7.73
N16730 X188.14 Y18.275 Z-7.735
N16735 X187.773 Y18.089 Z-7.739
N16740 X187.399 Y17.918 Z-7.744
N16745 X187.019 Y17.76 Z-7.749
N16750 X186.633 Y17.617 Z-7.753
N16755 X186.242 Y17.489 Z-7.758
N16760 X185.847 Y17.375 Z-7.762
N16765 X185.448 Y17.276 Z-7.767
N16770 X185.045 Y17.192 Z-7.771
N16775 X184.639 Y17.123 Z-7.776
N16780 X184.232 Y17.069 Z-7.781
N16785 X183.822 Y17.031 Z-7.785
N16790 X183.411 Y17.008 Z-7.79
N16795 X183 Y17 Z-7.794
N16800 X157 Z-8.084
N16805 X156.589 Y17.008 Z-8.089
N16810 X156.178 Y17.031 Z-8.093
N16815 X155.768 Y17.069 Z-8.098
N16820 X155.361 Y17.123 Z-8.103
N16825 X154.955 Y17.192 Z-8.107
N16830 X154.552 Y17.276 Z-8.112
N16835 X154.153 Y17.375 Z-8.116
N16840 X153.758 Y17.489 Z-8.121
N16845 X153.367 Y17.617 Z-8.126
N16850 X152.981 Y17.76 Z-8.13
N16855 X152.601 Y17.918 Z-8.135
N16860 X152.227 Y18.089 Z-8.139
N16865 X151.86 Y18.275 Z-8.144
N16870 X151.5 Y18.474 Z-8.148
N16875 X151.148 Y18.686 Z-8.153
N16880 X150.803 Y18.911 Z-8.158
N16885 X150.468 Y19.149 Z-8.162
N16890 X150.142 Y19.4 Z-8.167
N16895 X149.825 Y19.662 Z-8.171
N16900 X149.518 Y19.936 Z-8.176
N16905 X149.222 Y20.222 Z-8.181
N16910 X148.936 Y20.518 Z-8.185
N16915 X148.662 Y20.825 Z-8.19
N16920 X148.4 Y21.142 Z-8.194
N16925 X148.149 Y21.468 Z-8.199
N16930 X147.911 Y21.803 Z-8.203
N16935 X147.686 Y22.148 Z-8.208
N16940 X147.474 Y22.5 Z-8.213
N16945 X147.275 Y22.86 Z-8.217
N16950 X147.089 Y23.227 Z-8.222
N16955 X146.918 Y23.601 Z-8.226
N16960 X146.76 Y23.981 Z-8.231
N16965 X146.617 Y24.367 Z-8.236
N16970 X146.489 Y24.758 Z-8.24
N16975 X146.375 Y25.153 Z-8.245
N16980 X146.276 Y25.552 Z-8.249
N16985 X146.192 Y25.955 Z-8.254
N16990 X146.123 Y26.361 Z-8.259
N16995 X146.069 Y26.768 Z-8.263
N17000 X146.031 Y27.178 Z-8.268
N17005 X146.008 Y27.589 Z-8.272
N17010 X146 Y28 Z-8.277
N17015 Y70 Z-8.745
N17020 X145.992 Y70.125 Z-8.746
N17025 X145.969 Y70.249 Z-8.748
N17030 X145.93 Y70.368 Z-8.749
N17035 X145.876 Y70.482 Z-8.751
N17040 X145.809 Y70.588 Z-8.752
N17045 X145.729 Y70.685 Z-8.753
N17050 X145.637 Y70.771 Z-8.755
N17055 X145.536 Y70.844 Z-8.756
N17060 X145.426 Y70.905 Z-8.758
N17065 X145.309 Y70.951 Z-8.759
N17070 X145.187 Y70.982 Z-8.76
N17075 X145.063 Y70.998 Z-8.762
N17080 X144.937 Z-8.763
N17085 X144.813 Y70.982 Z-8.765
N17090 X144.691 Y70.951 Z-8.766
N17095 X144.574 Y70.905 Z-8.767
N17100 X144.464 Y70.844 Z-8.769
N17105 X144.363 Y70.771 Z-8.77
N17110 X144.271 Y70.685 Z-8.772
N17115 X144.191 Y70.588 Z-8.773
N17120 X144.124 Y70.482 Z-8.774
N17125 X144.07 Y70.368 Z-8.776
N17130 X144.031 Y70.249 Z-8.777
N17135 X144.008 Y70.125 Z-8.779
N17140 X144 Y70 Z-8.78
N17145 Y50.27 Z-9
N17150 Y28
N17155 X143.992 Y27.589
N17160 X143.969 Y27.178
N17165 X143.931 Y26.768
N17170 X143.877 Y26.361
N17175 X143.808 Y25.955
N17180 X143.724 Y25.552
N17185 X143.625 Y25.153
N17190 X143.511 Y24.758
N17195 X143.383 Y24.367
N17200 X143.24 Y23.981
N17205 X143.082 Y23.601
N17210 X142.911 Y23.227
N17215 X142.725 Y22.86
N17220 X142.526 Y22.5
N17225 X142.314 Y22.148
N17230 X142.089 Y21.803
N17235 X141.851 Y21.468
N17240 X141.6 Y21.142
N17245 X141.338 Y20.825
N17250 X141.064 Y20.518
N17255 X140.778 Y20.222
N17260 X140.482 Y19.936
N17265 X140.175 Y19.662
N17270 X139.858 Y19.4
N17275 X139.532 Y19.149
N17280 X139.197 Y18.911
N17285 X138.852 Y18.686
N17290 X138.5 Y18.474
N17295 X138.14 Y18.275
N17300 X137.773 Y18.089
N17305 X137.399 Y17.918
N17310 X137.019 Y17.76
N17315 X136.633 Y17.617
N17320 X136.242 Y17.489
N17325 X135.847 Y17.375
N17330 X135.448 Y17.276
N17335 X135.045 Y17.192
N17340 X134.639 Y17.123
N17345 X134.232 Y17.069
N17350 X133.822 Y17.031
N17355 X133.411 Y17.008
N17360 X133 Y17
N17365 X107
N17370 X106.589 Y17.008
N17375 X106.178 Y17.031
N17380 X105.768 Y17.069
N17385 X105.361 Y17.123
N17390 X104.955 Y17.192
N17395 X104.552 Y17.276
N17400 X104.153 Y17.375
N17405 X103.758 Y17.489
N17410 X103.367 Y17.617
N17415 X102.981 Y17.76
N17420 X102.601 Y17.918
N17425 X102.227 Y18.089
N17430 X101.86 Y18.275
N17435 X101.5 Y18.474
N17440 X101.148 Y18.686
N17445 X100.803 Y18.911
N17450 X100.468 Y19.149
N17455 X100.142 Y19.4
N17460 X99.825 Y19.662
N17465 X99.518 Y19.936
N17470 X99.222 Y20.222
N17475 X98.936 Y20.518
N17480 X98.662 Y20.825
N17485 X98.4 Y21.142
N17490 X98.149 Y21.468
N17495 X97.911 Y21.803
N17500 X97.686 Y22.148
N17505 X97.474 Y22.5
N17510 X97.275 Y22.86
N17515 X97.089 Y23.227
N17520 X96.918 Y23.601
N17525 X96.76 Y23.981
N17530 X96.617 Y24.367
N17535 X96.489 Y24.758
N17540 X96.375 Y25.153
N17545 X96.276 Y25.552
N17550 X96.192 Y25.955
N17555 X96.123 Y26.361
N17560 X96.069 Y26.768
N17565 X96.031 Y27.178
N17570 X96.008 Y27.589
N17575 X96 Y28
N17580 Y70
N17585 X95.992 Y70.125
N17590 X95.969 Y70.249
N17595 X95.93 Y70.368
N17600 X95.876 Y70.482
N17605 X95.809 Y70.588
N17610 X95.729 Y70.685
N17615 X95.637 Y70.771
N17620 X95.536 Y70.844
N17625 X95.426 Y70.905
N17630 X95.309 Y70.951
N17635 X95.187 Y70.982
N17640 X95.063 Y70.998
N17645 X94.937
N17650 X94.813 Y70.982
N17655 X94.691 Y70.951
N17660 X94.574 Y70.905
N17665 X94.464 Y70.844
N17670 X94.363 Y70.771
N17675 X94.271 Y70.685
N17680 X94.191 Y70.588
N17685 X94.124 Y70.482
N17690 X94.07 Y70.368
N17695 X94.031 Y70.249
N17700 X94.008 Y70.125
N17705 X94 Y70
N17710 Y28
N17715 X93.992 Y27.589
N17720 X93.969 Y27.178
N17725 X93.931 Y26.768
N17730 X93.877 Y26.361
N17735 X93.808 Y25.955
N17740 X93.724 Y25.552
N17745 X93.625 Y25.153
N17750 X93.511 Y24.758
N17755 X93.383 Y24.367
N17760 X93.24 Y23.981
N17765 X93.082 Y23.601
N17770 X92.911 Y23.227
N17775 X92.725 Y22.86
N17780 X92.526 Y22.5
N17785 X92.314 Y22.148
N17790 X92.089 Y21.803
N17795 X91.851 Y21.468
N17800 X91.6 Y21.142
N17805 X91.338 Y20.825
N17810 X91.064 Y20.518
N17815 X90.778 Y20.222
N17820 X90.482 Y19.936
N17825 X90.175 Y19.662
N17830 X89.858 Y19.4
N17835 X89.532 Y19.149
N17840 X89.197 Y18.911
N17845 X88.852 Y18.686
N17850 X88.5 Y18.474
N17855 X88.14 Y18.275
N17860 X87.773 Y18.089
N17865 X87.399 Y17.918
N17870 X87.019 Y17.76
N17875 X86.633 Y17.617
N17880 X86.242 Y17.489
N17885 X85.847 Y17.375
N17890 X85.448 Y17.276
N17895 X85.045 Y17.192
N17900 X84.639 Y17.123
N17905 X84.232 Y17.069
N17910 X83.822 Y17.031
N17915 X83.411 Y17.008
N17920 X83 Y17
N17925 X57
N17930 X56.589 Y17.008
N17935 X56.178 Y17.031
N17940 X55.768 Y17.069
N17945 X55.361 Y17.123
N17950 X54.955 Y17.192
N17955 X54.552 Y17.276
N17960 X54.153 Y17.375
N17965 X53.758 Y17.489
N17970 X53.367 Y17.617
N17975 X52.981 Y17.76
N17980 X52.601 Y17.918
N17985 X52.227 Y18.089
N17990 X51.86 Y18.275
N17995 X51.5 Y18.474
N18000 X51.148 Y18.686
N18005 X50.803 Y18.911
N18010 X50.468 Y19.149
N18015 X50.142 Y19.4
N18020 X49.825 Y19.662
N18025 X49.518 Y19.936
N18030 X49.222 Y20.222
N18035 X48.936 Y20.518
N18040 X48.662 Y20.825
N18045 X48.4 Y21.142
N18050 X48.149 Y21.468
N18055 X47.911 Y21.803
N18060 X47.686 Y22.148
N18065 X47.474 Y22.5
N18070 X47.275 Y22.86
N18075 X47.089 Y23.227
N18080 X46.918 Y23.601
N18085 X46.76 Y23.981
N18090 X46.617 Y24.367
N18095 X46.489 Y24.758
N18100 X46.375 Y25.153
N18105 X46.276 Y25.552
N18110 X46.192 Y25.955
N18115 X46.123 Y26.361
N18120 X46.069 Y26.768
N18125 X46.031 Y27.178
N18130 X46.008 Y27.589
N18135 X46 Y28
N18140 Y70
N18145 X45.992 Y70.125
N18150 X45.969 Y70.249
N18155 X45.93 Y70.368
N18160 X45.876 Y70.482
N18165 X45.809 Y70.588
N18170 X45.729 Y70.685
N18175 X45.637 Y70.771
N18180 X45.536 Y70.844
N18185 X45.426 Y70.905
N18190 X45.309 Y70.951
N18195 X45.187 Y70.982
N18200 X45.063 Y70.998
N18205 X44.937
N18210 X44.813 Y70.982
N18215 X44.691 Y70.951
N18220 X44.574 Y70.905
N18225 X44.464 Y70.844
N18230 X44.363 Y70.771
N18235 X44.271 Y70.685
N18240 X44.191 Y70.588
N18245 X44.124 Y70.482
N18250 X44.07 Y70.368
N18255 X44.031 Y70.249
N18260 X44.008 Y70.125
N18265 X44 Y70
N18270 Y28
N18275 X43.992 Y27.589
N18280 X43.969 Y27.178
N18285 X43.931 Y26.768
N18290 X43.877 Y26.361
N18295 X43.808 Y25.955
N18300 X43.724 Y25.552
N18305 X43.625 Y25.153
N18310 X43.511 Y24.758
N18315 X43.383 Y24.367
N18320 X43.24 Y23.981
N18325 X43.082 Y23.601
N18330 X42.911 Y23.227
N18335 X42.725 Y22.86
N18340 X42.526 Y22.5
N18345 X42.314 Y22.148
N18350 X42.089 Y21.803
N18355 X41.851 Y21.468
N18360 X41.6 Y21.142
N18365 X41.338 Y20.825
N18370 X41.064 Y20.518
N18375 X40.778 Y20.222
N18380 X40.482 Y19.936
N18385 X40.175 Y19.662
N18390 X39.858 Y19.4
N18395 X39.532 Y19.149
N18400 X39.197 Y18.911
N18405 X38.852 Y18.686
N18410 X38.5 Y18.474
N18415 X38.14 Y18.275
N18420 X37.773 Y18.089
N18425 X37.399 Y17.918
N18430 X37.019 Y17.76
N18435 X36.633 Y17.617
N18440 X36.242 Y17.489
N18445 X35.847 Y17.375
N18450 X35.448 Y17.276
N18455 X35.045 Y17.192
N18460 X34.639 Y17.123
N18465 X34.232 Y17.069
N18470 X33.822 Y17.031
N18475 X33.411 Y17.008
N18480 X33 Y17
N18485 X20
N18490 X19.786 Y17.008
N18495 X19.573 Y17.031
N18500 X19.362 Y17.069
N18505 X19.155 Y17.122
N18510 X18.952 Y17.189
N18515 X18.754 Y17.271
N18520 X18.562 Y17.367
N18525 X18.378 Y17.476
N18530 X18.202 Y17.598
N18535 X18.035 Y17.733
N18540 X17.879 Y17.879
N18545 X17.733 Y18.035
N18550 X17.598 Y18.202
N18555 X17.476 Y18.378
N18560 X17.367 Y18.562
N18565 X17.271 Y18.754
N18570 X17.189 Y18.952
N18575 X17.122 Y19.155
N18580 X17.069 Y19.362
N18585 X17.031 Y19.573
N18590 X17.008 Y19.786
N18595 X17 Y20
N18600 Y170
N18605 X17.008 Y170.214
N18610 X17.031 Y170.427
N18615 X17.069 Y170.638
N18620 X17.122 Y170.845
N18625 X17.189 Y171.048
N18630 X17.271 Y171.246
N18635 X17.367 Y171.438
N18640 X17.476 Y171.622
N18645 X17.598 Y171.798
N18650 X17.733 Y171.965
N18655 X17.879 Y172.121
N18660 X18.035 Y172.267
N18665 X18.202 Y172.402
N18670 X18.378 Y172.524
N18675 X18.562 Y172.633
N18680 X18.754 Y172.729
N18685 X18.952 Y172.811
N18690 X19.155 Y172.878
N18695 X19.362 Y172.931
N18700 X19.573 Y172.969
N18705 X19.786 Y172.992
N18710 X20 Y173
N18715 X620
N18720 X620.214 Y172.992
N18725 X620.427 Y172.969
N18730 X620.638 Y172.931
N18735 X620.845 Y172.878
N18740 X621.048 Y172.811
N18745 X621.246 Y172.729
N18750 X621.438 Y172.633
N18755 X621.622 Y172.524
N18760 X621.798 Y172.402
N18765 X621.965 Y172.267
N18770 X622.121 Y172.121
N18775 X622.267 Y171.965
N18780 X622.402 Y171.798
N18785 X622.524 Y171.622
N18790 X622.633 Y171.438
N18795 X622.729 Y171.246
N18800 X622.811 Y171.048
N18805 X622.878 Y170.845
N18810 X622.931 Y170.638
N18815 X622.969 Y170.427
N18820 X622.992 Y170.214
N18825 X623 Y170
N18830 Y20
N18835 X622.992 Y19.786
N18840 X622.969 Y19.573
N18845 X622.931 Y19.362
N18850 X622.878 Y19.155
N18855 X622.811 Y18.952
N18860 X622.729 Y18.754
N18865 X622.633 Y18.562
N18870 X622.524 Y18.378
N18875 X622.402 Y18.202
N18880 X622.267 Y18.035
N18885 X622.121 Y17.879
N18890 X621.965 Y17.733
N18895 X621.798 Y17.598
N18900 X621.622 Y17.476
N18905 X621.438 Y17.367
N18910 X621.246 Y17.271
N18915 X621.048 Y17.189
N18920 X620.845 Y17.122
N18925 X620.638 Y17.069
N18930 X620.427 Y17.031
N18935 X620.214 Y17.008
N18940 X620 Y17
N18945 X607
N18950 X606.589 Y17.008
N18955 X606.178 Y17.031
N18960 X605.768 Y17.069
N18965 X605.361 Y17.123
N18970 X604.955 Y17.192
N18975 X604.552 Y17.276
N18980 X604.153 Y17.375
N18985 X603.758 Y17.489
N18990 X603.367 Y17.617
N18995 X602.981 Y17.76
N19000 X602.601 Y17.918
N19005 X602.227 Y18.089
N19010 X601.86 Y18.275
N19015 X601.5 Y18.474
N19020 X601.148 Y18.686
N19025 X600.803 Y18.911
N19030 X600.468 Y19.149
N19035 X600.142 Y19.4
N19040 X599.825 Y19.662
N19045 X599.518 Y19.936
N19050 X599.222 Y20.222
N19055 X598.936 Y20.518
N19060 X598.662 Y20.825
N19065 X598.4 Y21.142
N19070 X598.149 Y21.468
N19075 X597.911 Y21.803
N19080 X597.686 Y22.148
N19085 X597.474 Y22.5
N19090 X597.275 Y22.86
N19095 X597.089 Y23.227
N19100 X596.918 Y23.601
N19105 X596.76 Y23.981
N19110 X596.617 Y24.367
N19115 X596.489 Y24.758
N19120 X596.375 Y25.153
N19125 X596.276 Y25.552
N19130 X596.192 Y25.955
N19135 X596.123 Y26.361
N19140 X596.069 Y26.768
N19145 X596.031 Y27.178
N19150 X596.008 Y27.589
N19155 X596 Y28
N19160 Y70
N19165 X595.992 Y70.125
N19170 X595.969 Y70.249
N19175 X595.93 Y70.368
N19180 X595.876 Y70.482
N19185 X595.809 Y70.588
N19190 X595.729 Y70.685
N19195 X595.637 Y70.771
N19200 X595.536 Y70.844
N19205 X595.426 Y70.905
N19210 X595.309 Y70.951
N19215 X595.187 Y70.982
N19220 X595.063 Y70.998
N19225 X594.937
N19230 X594.813 Y70.982
N19235 X594.691 Y70.951
N19240 X594.574 Y70.905
N19245 X594.464 Y70.844
N19250 X594.363 Y70.771
N19255 X594.271 Y70.685
N19260 X594.191 Y70.588
N19265 X594.124 Y70.482
N19270 X594.07 Y70.368
N19275 X594.031 Y70.249
N19280 X594.008 Y70.125
N19285 X594 Y70
N19290 Y28
N19295 X593.992 Y27.589
N19300 X593.969 Y27.178
N19305 X593.931 Y26.768
N19310 X593.877 Y26.361
N19315 X593.808 Y25.955
N19320 X593.724 Y25.552
N19325 X593.625 Y25.153
N19330 X593.511 Y24.758
N19335 X593.383 Y24.367
N19340 X593.24 Y23.981
N19345 X593.082 Y23.601
N19350 X592.911 Y23.227
N19355 X592.725 Y22.86
N19360 X592.526 Y22.5
N19365 X592.314 Y22.148
N19370 X592.089 Y21.803
N19375 X591.851 Y21.468
N19380 X591.6 Y21.142
N19385 X591.338 Y20.825
N19390 X591.064 Y20.518
N19395 X590.778 Y20.222
N19400 X590.482 Y19.936
N19405 X590.175 Y19.662
N19410 X589.858 Y19.4
N19415 X589.532 Y19.149
N19420 X589.197 Y18.911
N19425 X588.852 Y18.686
N19430 X588.5 Y18.474
N19435 X588.14 Y18.275
N19440 X587.773 Y18.089
N19445 X587.399 Y17.918
N19450 X587.019 Y17.76
N19455 X586.633 Y17.617
N19460 X586.242 Y17.489
N19465 X585.847 Y17.375
N19470 X585.448 Y17.276
N19475 X585.045 Y17.192
N19480 X584.639 Y17.123
N19485 X584.232 Y17.069
N19490 X583.822 Y17.031
N19495 X583.411 Y17.008
N19500 X583 Y17
N19505 X557
N19510 X556.589 Y17.008
N19515 X556.178 Y17.031
N19520 X555.768 Y17.069
N19525 X555.361 Y17.123
N19530 X554.955 Y17.192
N19535 X554.552 Y17.276
N19540 X554.153 Y17.375
N19545 X553.758 Y17.489
N19550 X553.367 Y17.617
N19555 X552.981 Y17.76
N19560 X552.601 Y17.918
N19565 X552.227 Y18.089
N19570 X551.86 Y18.275
N19575 X551.5 Y18.474
N19580 X551.148 Y18.686
N19585 X550.803 Y18.911
N19590 X550.468 Y19.149
N19595 X550.142 Y19.4
N19600 X549.825 Y19.662
N19605 X549.518 Y19.936
N19610 X549.222 Y20.222
N19615 X548.936 Y20.518
N19620 X548.662 Y20.825
N19625 X548.4 Y21.142
N19630 X548.149 Y21.468
N19635 X547.911 Y21.803
N19640 X547.686 Y22.148
N19645 X547.474 Y22.5
N19650 X547.275 Y22.86
N19655 X547.089 Y23.227
N19660 X546.918 Y23.601
N19665 X546.76 Y23.981
N19670 X546.617 Y24.367
N19675 X546.489 Y24.758
N19680 X546.375 Y25.153
N19685 X546.276 Y25.552
N19690 X546.192 Y25.955
N19695 X546.123 Y26.361
N19700 X546.069 Y26.768
N19705 X546.031 Y27.178
N19710 X546.008 Y27.589
N19715 X546 Y28
N19720 Y70
N19725 X545.992 Y70.125
N19730 X545.969 Y70.249
N19735 X545.93 Y70.368
N19740 X545.876 Y70.482
N19745 X545.809 Y70.588
N19750 X545.729 Y70.685
N19755 X545.637 Y70.771
N19760 X545.536 Y70.844
N19765 X545.426 Y70.905
N19770 X545.309 Y70.951
N19775 X545.187 Y70.982
N19780 X545.063 Y70.998
N19785 X544.937
N19790 X544.813 Y70.982
N19795 X544.691 Y70.951
N19800 X544.574 Y70.905
N19805 X544.464 Y70.844
N19810 X544.363 Y70.771
N19815 X544.271 Y70.685
N19820 X544.191 Y70.588
N19825 X544.124 Y70.482
N19830 X544.07 Y70.368
N19835 X544.031 Y70.249
N19840 X544.008 Y70.125
N19845 X544 Y70
N19850 Y28
N19855 X543.992 Y27.589
N19860 X543.969 Y27.178
N19865 X543.931 Y26.768
N19870 X543.877 Y26.361
N19875 X543.808 Y25.955
N19880 X543.724 Y25.552
N19885 X543.625 Y25.153
N19890 X543.511 Y24.758
N19895 X543.383 Y24.367
N19900 X543.24 Y23.981
N19905 X543.082 Y23.601
N19910 X542.911 Y23.227
N19915 X542.725 Y22.86
N19920 X542.526 Y22.5
N19925 X542.314 Y22.148
N19930 X542.089 Y21.803
N19935 X541.851 Y21.468
N19940 X541.6 Y21.142
N19945 X541.338 Y20.825
N19950 X541.064 Y20.518
N19955 X540.778 Y20.222
N19960 X540.482 Y19.936
N19965 X540.175 Y19.662
N19970 X539.858 Y19.4
N19975 X539.532 Y19.149
N19980 X539.197 Y18.911
N19985 X538.852 Y18.686
N19990 X538.5 Y18.474
N19995 X538.14 Y18.275
N20000 X537.773 Y18.089
N20005 X537.399 Y17.918
N20010 X537.019 Y17.76
N20015 X536.633 Y17.617
N20020 X536.242 Y17.489
N20025 X535.847 Y17.375
N20030 X535.448 Y17.276
N20035 X535.045 Y17.192
N20040 X534.639 Y17.123
N20045 X534.232 Y17.069
N20050 X533.822 Y17.031
N20055 X533.411 Y17.008
N20060 X533 Y17
N20065 X507
N20070 X506.589 Y17.008
N20075 X506.178 Y17.031
N20080 X505.768 Y17.069
N20085 X505.361 Y17.123
N20090 X504.955 Y17.192
N20095 X504.552 Y17.276
N20100 X504.153 Y17.375
N20105 X503.758 Y17.489
N20110 X503.367 Y17.617
N20115 X502.981 Y17.76
N20120 X502.601 Y17.918
N20125 X502.227 Y18.089
N20130 X501.86 Y18.275
N20135 X501.5 Y18.474
N20140 X501.148 Y18.686
N20145 X500.803 Y18.911
N20150 X500.468 Y19.149
N20155 X500.142 Y19.4
N20160 X499.825 Y19.662
N20165 X499.518 Y19.936
N20170 X499.222 Y20.222
N20175 X498.936 Y20.518
N20180 X498.662 Y20.825
N20185 X498.4 Y21.142
N20190 X498.149 Y21.468
N20195 X497.911 Y21.803
N20200 X497.686 Y22.148
N20205 X497.474 Y22.5
N20210 X497.275 Y22.86
N20215 X497.089 Y23.227
N20220 X496.918 Y23.601
N20225 X496.76 Y23.981
N20230 X496.617 Y24.367
N20235 X496.489 Y24.758
N20240 X496.375 Y25.153
N20245 X496.276 Y25.552
N20250 X496.192 Y25.955
N20255 X496.123 Y26.361
N20260 X496.069 Y26.768
N20265 X496.031 Y27.178
N20270 X496.008 Y27.589
N20275 X496 Y28
N20280 Y70
N20285 X495.992 Y70.125
N20290 X495.969 Y70.249
N20295 X495.93 Y70.368
N20300 X495.876 Y70.482
N20305 X495.809 Y70.588
N20310 X495.729 Y70.685
N20315 X495.637 Y70.771
N20320 X495.536 Y70.844
N20325 X495.426 Y70.905
N20330 X495.309 Y70.951
N20335 X495.187 Y70.982
N20340 X495.063 Y70.998
N20345 X494.937
N20350 X494.813 Y70.982
N20355 X494.691 Y70.951
N20360 X494.574 Y70.905
N20365 X494.464 Y70.844
N20370 X494.363 Y70.771
N20375 X494.271 Y70.685
N20380 X494.191 Y70.588
N20385 X494.124 Y70.482
N20390 X494.07 Y70.368
N20395 X494.031 Y70.249
N20400 X494.008 Y70.125
N20405 X494 Y70
N20410 Y28
N20415 X493.992 Y27.589
N20420 X493.969 Y27.178
N20425 X493.931 Y26.768
N20430 X493.877 Y26.361
N20435 X493.808 Y25.955
N20440 X493.724 Y25.552
N20445 X493.625 Y25.153
N20450 X493.511 Y24.758
N20455 X493.383 Y24.367
N20460 X493.24 Y23.981
N20465 X493.082 Y23.601
N20470 X492.911 Y23.227
N20475 X492.725 Y22.86
N20480 X492.526 Y22.5
N20485 X492.314 Y22.148
